(.../EAGLE-7.2.0/ulp/pcb-gcode.ulp)
(Copyright 2005 - 2012 by John Johnson)
(See readme.txt for licensing terms.)
(This file generated from the board:)
(.../HVSquareWave/eagle/gatedriver_ixys.brd)
(Current profile is .../EAGLE-7.2.0/ulp/profiles/mach.pp  )
(This file generated 7/9/2015 11:30:11 AM)
(Settings from pcb-machine.h)
(spindle on time = 3.0000)
(  Tool Size)
(0.0400  )
(spindle speed = 5000.0000)
(tool change at 0.0000  0.0000  1.0000  )
(feed rate xy = F20    )
(feed rate z  = F10    )
(Z Axis Settings)
(  High     Up        Down     Drill)
(0.5000  	0.1000  	-0.0070 	-0.0625 )
(Settings from pcb-defaults.h)
(isolate min = 0.0010)
(isolate max = 0.0560)
(isolate step = 0.0050)
(Generated top outlines, top drill, bottom outlines, bottom drill, )
(Unit of measure: inch)
(Inch Mode)
G20
(Absolute Coordinates)
G90
S5000
G00 Z0.5000  
G00 X0.0000  Y0.0000  
M03
G04 P3.000000
G00 Z0.1000  
G00 X-0.0515 Y0.0555  
G01 Z-0.0070 F10    
G01 X-0.0555 Y0.0515  F20    
G01 X-0.0603 Y0.0483  
G01 X-0.0655 Y0.0461  
G01 X-0.0711 Y0.0450  
G01 X-4.0012 Y0.0450  
G01 X-4.0039 Y0.0455  
G01 X-4.0068 Y0.0461  
G01 X-4.0120 Y0.0483  
G01 X-4.0149 Y0.0502  
G01 X-4.0168 Y0.0515  
G01 X-4.0208 Y0.0555  
G01 X-4.0239 Y0.0601  
G01 X-4.0240 Y0.0603  
G01 X-4.0262 Y0.0655  
G01 X-4.0267 Y0.0683  
G01 X-4.0273 Y0.0711  
G01 X-4.0273 Y0.0769  
G01 X-4.0268 Y0.0796  
G01 X-4.0262 Y0.0825  
G01 X-4.0240 Y0.0877  
G01 X-4.0221 Y0.0906  
G01 X-4.0208 Y0.0925  
G01 X-4.0168 Y0.0965  
G01 X-4.0166 Y0.0967  
G01 X-4.0029 Y0.1205  
G01 X-3.9957 Y0.1470  
G01 X-3.9957 Y0.2930  
G01 X-4.0029 Y0.3195  
G01 X-4.0166 Y0.3433  
G01 X-4.0360 Y0.3627  
G01 X-4.0598 Y0.3764  
G01 X-4.0863 Y0.3835  
G01 X-4.1137 Y0.3835  
G01 X-4.1402 Y0.3764  
G01 X-4.1640 Y0.3627  
G01 X-4.1834 Y0.3433  
G01 X-4.1904 Y0.3311  
G01 X-4.1908 Y0.3303  
G01 X-4.1918 Y0.3287  
G01 X-4.1928 Y0.3270  
G01 X-4.1934 Y0.3263  
G01 X-4.1940 Y0.3255  
G01 X-4.1953 Y0.3242  
G01 X-4.1966 Y0.3227  
G01 X-4.1973 Y0.3221  
G01 X-4.1980 Y0.3215  
G01 X-4.1996 Y0.3204  
G01 X-4.2011 Y0.3193  
G01 X-4.2019 Y0.3188  
G01 X-4.2027 Y0.3183  
G01 X-4.2045 Y0.3176  
G01 X-4.2062 Y0.3167  
G01 X-4.2071 Y0.3165  
G01 X-4.2080 Y0.3161  
G01 X-4.2099 Y0.3157  
G01 X-4.2117 Y0.3152  
G01 X-4.2127 Y0.3152  
G01 X-4.2136 Y0.3150  
G01 X-4.2155 Y0.3150  
G01 X-4.2174 Y0.3149  
G01 X-4.2184 Y0.3150  
G01 X-4.7525 Y0.3150  
G01 X-4.7767 Y0.3085  
G01 X-4.7983 Y0.2960  
G01 X-4.8160 Y0.2783  
G01 X-4.8285 Y0.2567  
G01 X-4.8350 Y0.2325  
G01 X-4.8350 Y0.2075  
G01 X-4.8285 Y0.1833  
G01 X-4.8160 Y0.1617  
G01 X-4.7983 Y0.1440  
G01 X-4.7767 Y0.1315  
G01 X-4.7525 Y0.1250  
G01 X-4.2184 Y0.1250  
G01 X-4.2174 Y0.1251  
G01 X-4.2155 Y0.1250  
G01 X-4.2136 Y0.1250  
G01 X-4.2127 Y0.1248  
G01 X-4.2117 Y0.1248  
G01 X-4.2099 Y0.1243  
G01 X-4.2080 Y0.1239  
G01 X-4.2071 Y0.1235  
G01 X-4.2062 Y0.1233  
G01 X-4.2045 Y0.1224  
G01 X-4.2027 Y0.1217  
G01 X-4.2019 Y0.1212  
G01 X-4.2011 Y0.1207  
G01 X-4.1996 Y0.1196  
G01 X-4.1980 Y0.1185  
G01 X-4.1973 Y0.1178  
G01 X-4.1966 Y0.1173  
G01 X-4.1953 Y0.1158  
G01 X-4.1940 Y0.1145  
G01 X-4.1934 Y0.1137  
G01 X-4.1928 Y0.1130  
G01 X-4.1918 Y0.1113  
G01 X-4.1908 Y0.1097  
G01 X-4.1904 Y0.1089  
G01 X-4.1834 Y0.0967  
G01 X-4.1832 Y0.0965  
G01 X-4.1793 Y0.0926  
G01 X-4.1792 Y0.0925  
G01 X-4.1779 Y0.0906  
G01 X-4.1760 Y0.0877  
G01 X-4.1738 Y0.0825  
G01 X-4.1733 Y0.0797  
G01 X-4.1727 Y0.0769  
G01 X-4.1727 Y0.0711  
G01 X-4.1732 Y0.0684  
G01 X-4.1738 Y0.0655  
G01 X-4.1760 Y0.0603  
G01 X-4.1792 Y0.0555  
G01 X-4.1832 Y0.0515  
G01 X-4.1851 Y0.0502  
G01 X-4.1880 Y0.0483  
G01 X-4.1932 Y0.0461  
G01 X-4.1960 Y0.0456  
G01 X-4.1988 Y0.0450  
G01 X-5.9289 Y0.0450  
G01 X-5.9345 Y0.0461  
G01 X-5.9397 Y0.0483  
G01 X-5.9445 Y0.0515  
G01 X-5.9485 Y0.0555  
G01 X-5.9517 Y0.0603  
G01 X-5.9539 Y0.0655  
G01 X-5.9550 Y0.0711  
G01 X-5.9550 Y5.9289  
G01 X-5.9539 Y5.9345  
G01 X-5.9517 Y5.9397  
G01 X-5.9485 Y5.9445  
G01 X-5.9445 Y5.9485  
G01 X-5.9397 Y5.9517  
G01 X-5.9345 Y5.9539  
G01 X-5.9289 Y5.9550  
G01 X-4.4005 Y5.9550  
G01 X-4.3986 Y5.9551  
G01 X-4.3977 Y5.9550  
G01 X-4.3967 Y5.9550  
G01 X-4.3948 Y5.9546  
G01 X-4.3929 Y5.9544  
G01 X-4.3920 Y5.9541  
G01 X-4.3911 Y5.9539  
G01 X-4.3893 Y5.9532  
G01 X-4.3875 Y5.9525  
G01 X-4.3867 Y5.9521  
G01 X-4.3858 Y5.9517  
G01 X-4.3842 Y5.9506  
G01 X-4.3826 Y5.9497  
G01 X-4.3819 Y5.9491  
G01 X-4.3811 Y5.9485  
G01 X-4.3797 Y5.9472  
G01 X-4.3783 Y5.9459  
G01 X-4.3777 Y5.9452  
G01 X-4.3770 Y5.9445  
G01 X-4.3760 Y5.9429  
G01 X-4.3748 Y5.9414  
G01 X-4.3744 Y5.9405  
G01 X-4.3739 Y5.9397  
G01 X-4.3731 Y5.9380  
G01 X-4.3723 Y5.9363  
G01 X-4.3720 Y5.9353  
G01 X-4.3717 Y5.9345  
G01 X-4.3713 Y5.9326  
G01 X-4.3708 Y5.9307  
G01 X-4.3707 Y5.9298  
G01 X-4.3706 Y5.9289  
G01 X-4.3706 Y5.9269  
G01 X-4.3704 Y5.9250  
G01 X-4.3706 Y5.9241  
G01 X-4.3706 Y5.9231  
G01 X-4.3709 Y5.9213  
G01 X-4.3712 Y5.9194  
G01 X-4.3715 Y5.9185  
G01 X-4.3717 Y5.9175  
G01 X-4.3724 Y5.9158  
G01 X-4.3730 Y5.9140  
G01 X-4.3735 Y5.9131  
G01 X-4.3739 Y5.9123  
G01 X-4.3749 Y5.9107  
G01 X-4.3804 Y5.9011  
G01 X-4.3808 Y5.9003  
G01 X-4.3818 Y5.8987  
G01 X-4.3828 Y5.8970  
G01 X-4.3834 Y5.8963  
G01 X-4.3840 Y5.8955  
G01 X-4.3853 Y5.8942  
G01 X-4.3866 Y5.8927  
G01 X-4.3873 Y5.8921  
G01 X-4.3880 Y5.8915  
G01 X-4.3896 Y5.8904  
G01 X-4.3911 Y5.8893  
G01 X-4.3919 Y5.8888  
G01 X-4.3927 Y5.8883  
G01 X-4.3945 Y5.8876  
G01 X-4.3962 Y5.8867  
G01 X-4.3971 Y5.8865  
G01 X-4.3980 Y5.8861  
G01 X-4.3999 Y5.8857  
G01 X-4.4017 Y5.8852  
G01 X-4.4027 Y5.8852  
G01 X-4.4036 Y5.8850  
G01 X-4.4055 Y5.8850  
G01 X-4.4074 Y5.8849  
G01 X-4.4084 Y5.8850  
G01 X-4.7325 Y5.8850  
G01 X-4.7567 Y5.8785  
G01 X-4.7783 Y5.8660  
G01 X-4.7960 Y5.8483  
G01 X-4.8085 Y5.8267  
G01 X-4.8150 Y5.8025  
G01 X-4.8150 Y5.7775  
G01 X-4.8085 Y5.7533  
G01 X-4.7960 Y5.7317  
G01 X-4.7783 Y5.7140  
G01 X-4.7567 Y5.7015  
G01 X-4.7325 Y5.6950  
G01 X-4.4084 Y5.6950  
G01 X-4.4074 Y5.6951  
G01 X-4.4055 Y5.6950  
G01 X-4.4036 Y5.6950  
G01 X-4.4027 Y5.6948  
G01 X-4.4017 Y5.6948  
G01 X-4.3999 Y5.6943  
G01 X-4.3980 Y5.6939  
G01 X-4.3971 Y5.6935  
G01 X-4.3962 Y5.6933  
G01 X-4.3945 Y5.6924  
G01 X-4.3927 Y5.6917  
G01 X-4.3919 Y5.6912  
G01 X-4.3911 Y5.6907  
G01 X-4.3896 Y5.6896  
G01 X-4.3880 Y5.6885  
G01 X-4.3873 Y5.6878  
G01 X-4.3866 Y5.6873  
G01 X-4.3853 Y5.6858  
G01 X-4.3840 Y5.6845  
G01 X-4.3834 Y5.6837  
G01 X-4.3828 Y5.6830  
G01 X-4.3818 Y5.6813  
G01 X-4.3808 Y5.6797  
G01 X-4.3804 Y5.6789  
G01 X-4.3734 Y5.6667  
G01 X-4.3540 Y5.6473  
G01 X-4.3302 Y5.6336  
G01 X-4.3037 Y5.6265  
G01 X-4.2763 Y5.6265  
G01 X-4.2498 Y5.6336  
G01 X-4.2260 Y5.6473  
G01 X-4.2066 Y5.6667  
G01 X-4.1929 Y5.6905  
G01 X-4.1857 Y5.7170  
G01 X-4.1857 Y5.8630  
G01 X-4.1929 Y5.8895  
G01 X-4.2051 Y5.9107  
G01 X-4.2061 Y5.9123  
G01 X-4.2065 Y5.9131  
G01 X-4.2070 Y5.9140  
G01 X-4.2076 Y5.9158  
G01 X-4.2083 Y5.9175  
G01 X-4.2085 Y5.9185  
G01 X-4.2088 Y5.9194  
G01 X-4.2091 Y5.9213  
G01 X-4.2094 Y5.9231  
G01 X-4.2094 Y5.9241  
G01 X-4.2096 Y5.9250  
G01 X-4.2094 Y5.9269  
G01 X-4.2094 Y5.9289  
G01 X-4.2093 Y5.9298  
G01 X-4.2092 Y5.9307  
G01 X-4.2087 Y5.9326  
G01 X-4.2083 Y5.9345  
G01 X-4.2080 Y5.9353  
G01 X-4.2077 Y5.9363  
G01 X-4.2069 Y5.9380  
G01 X-4.2061 Y5.9397  
G01 X-4.2056 Y5.9405  
G01 X-4.2052 Y5.9414  
G01 X-4.2040 Y5.9429  
G01 X-4.2030 Y5.9445  
G01 X-4.2023 Y5.9452  
G01 X-4.2017 Y5.9459  
G01 X-4.2003 Y5.9472  
G01 X-4.1989 Y5.9485  
G01 X-4.1981 Y5.9491  
G01 X-4.1974 Y5.9497  
G01 X-4.1958 Y5.9506  
G01 X-4.1942 Y5.9517  
G01 X-4.1933 Y5.9521  
G01 X-4.1925 Y5.9525  
G01 X-4.1907 Y5.9532  
G01 X-4.1889 Y5.9539  
G01 X-4.1880 Y5.9541  
G01 X-4.1871 Y5.9544  
G01 X-4.1852 Y5.9546  
G01 X-4.1833 Y5.9550  
G01 X-4.1823 Y5.9550  
G01 X-4.1814 Y5.9551  
G01 X-4.1795 Y5.9550  
G01 X-0.0711 Y5.9550  
G01 X-0.0655 Y5.9539  
G01 X-0.0603 Y5.9517  
G01 X-0.0555 Y5.9485  
G01 X-0.0515 Y5.9445  
G01 X-0.0483 Y5.9397  
G01 X-0.0461 Y5.9345  
G01 X-0.0450 Y5.9289  
G01 X-0.0450 Y4.2265  
G01 X-0.0461 Y4.2209  
G01 X-0.0483 Y4.2156  
G01 X-0.0498 Y4.2134  
G01 X-0.0515 Y4.2109  
G01 X-0.0533 Y4.2090  
G01 X-0.0555 Y4.2068  
G01 X-0.0603 Y4.2037  
G01 X-0.0655 Y4.2015  
G01 X-0.0711 Y4.2004  
G01 X-0.0769 Y4.2004  
G01 X-0.0825 Y4.2015  
G01 X-0.0877 Y4.2037  
G01 X-0.0899 Y4.2051  
G01 X-0.0925 Y4.2068  
G01 X-0.0965 Y4.2109  
G01 X-0.1385 Y4.2529  
G01 X-0.1417 Y4.2576  
G01 X-0.1439 Y4.2629  
G01 X-0.1439 Y4.2632  
G01 X-0.1450 Y4.2685  
G01 X-0.1450 Y4.8225  
G01 X-0.1515 Y4.8467  
G01 X-0.1640 Y4.8683  
G01 X-0.1864 Y4.8907  
G01 X-0.4063 Y5.1106  
G01 X-0.4070 Y5.1112  
G01 X-0.4083 Y5.1126  
G01 X-0.4096 Y5.1140  
G01 X-0.4102 Y5.1148  
G01 X-0.4108 Y5.1155  
G01 X-0.4118 Y5.1172  
G01 X-0.4128 Y5.1187  
G01 X-0.4132 Y5.1196  
G01 X-0.4142 Y5.1211  
G01 X-0.4145 Y5.1220  
G01 X-0.4156 Y5.1236  
G01 X-0.4160 Y5.1245  
G01 X-0.4240 Y5.1383  
G01 X-0.4464 Y5.1607  
G01 X-0.6265 Y5.3408  
G01 X-0.6297 Y5.3456  
G01 X-0.6318 Y5.3509  
G01 X-0.6330 Y5.3565  
G01 X-0.6330 Y5.5629  
G01 X-0.6360 Y5.5682  
G01 X-0.6396 Y5.5769  
G01 X-0.6420 Y5.5859  
G01 X-0.6432 Y5.5951  
G01 X-0.6432 Y5.7049  
G01 X-0.6420 Y5.7141  
G01 X-0.6396 Y5.7231  
G01 X-0.6371 Y5.7291  
G01 X-0.6392 Y5.7369  
G01 X-0.6518 Y5.7586  
G01 X-0.6695 Y5.7764  
G01 X-0.6912 Y5.7889  
G01 X-0.7154 Y5.7954  
G01 X-0.7405 Y5.7954  
G01 X-0.7647 Y5.7889  
G01 X-0.7864 Y5.7764  
G01 X-0.8041 Y5.7586  
G01 X-0.8167 Y5.7369  
G01 X-0.8231 Y5.7127  
G01 X-0.8231 Y5.6772  
G01 X-0.8230 Y5.6762  
G01 X-0.8231 Y5.6743  
G01 X-0.8231 Y5.6724  
G01 X-0.8233 Y5.6715  
G01 X-0.8234 Y5.6705  
G01 X-0.8239 Y5.6687  
G01 X-0.8243 Y5.6668  
G01 X-0.8246 Y5.6659  
G01 X-0.8250 Y5.6646  
G01 X-0.8250 Y5.6395  
G01 X-0.8246 Y5.6382  
G01 X-0.8243 Y5.6373  
G01 X-0.8239 Y5.6354  
G01 X-0.8234 Y5.6336  
G01 X-0.8233 Y5.6326  
G01 X-0.8231 Y5.6317  
G01 X-0.8231 Y5.6298  
G01 X-0.8230 Y5.6279  
G01 X-0.8231 Y5.6269  
G01 X-0.8231 Y5.5867  
G01 X-0.8231 Y5.5865  
G01 X-0.8230 Y5.5856  
G01 X-0.8230 Y5.5837  
G01 X-0.8228 Y5.5818  
G01 X-0.8230 Y5.5808  
G01 X-0.8230 Y5.2954  
G01 X-0.8165 Y5.2713  
G01 X-0.8040 Y5.2496  
G01 X-0.5937 Y5.0394  
G01 X-0.5930 Y5.0388  
G01 X-0.5917 Y5.0374  
G01 X-0.5904 Y5.0360  
G01 X-0.5898 Y5.0352  
G01 X-0.5892 Y5.0345  
G01 X-0.5882 Y5.0328  
G01 X-0.5872 Y5.0313  
G01 X-0.5868 Y5.0304  
G01 X-0.5760 Y5.0117  
G01 X-0.3415 Y4.7771  
G01 X-0.3383 Y4.7724  
G01 X-0.3361 Y4.7671  
G01 X-0.3350 Y4.7615  
G01 X-0.3350 Y4.2485  
G01 X-0.3351 Y4.2482  
G01 X-0.3361 Y4.2429  
G01 X-0.3382 Y4.2378  
G01 X-0.3383 Y4.2376  
G01 X-0.3415 Y4.2329  
G01 X-0.3455 Y4.2288  
G01 X-0.3829 Y4.1915  
G01 X-0.3876 Y4.1883  
G01 X-0.3929 Y4.1861  
G01 X-0.3932 Y4.1861  
G01 X-0.3985 Y4.1850  
G01 X-0.4189 Y4.1850  
G01 X-0.4245 Y4.1861  
G01 X-0.4297 Y4.1883  
G01 X-0.4345 Y4.1915  
G01 X-0.4385 Y4.1955  
G01 X-0.4417 Y4.2003  
G01 X-0.4439 Y4.2055  
G01 X-0.4450 Y4.2111  
G01 X-0.4450 Y4.2425  
G01 X-0.4515 Y4.2667  
G01 X-0.4640 Y4.2883  
G01 X-0.7985 Y4.6229  
G01 X-0.8017 Y4.6276  
G01 X-0.8039 Y4.6329  
G01 X-0.8050 Y4.6385  
G01 X-0.8050 Y5.0581  
G01 X-0.8039 Y5.0637  
G01 X-0.8030 Y5.0659  
G01 X-0.8030 Y5.0941  
G01 X-0.8088 Y5.1081  
G01 X-0.8096 Y5.1098  
G01 X-0.8099 Y5.1108  
G01 X-0.8103 Y5.1116  
G01 X-0.8106 Y5.1135  
G01 X-0.8115 Y5.1167  
G01 X-0.8131 Y5.1195  
G01 X-0.8142 Y5.1211  
G01 X-0.8145 Y5.1220  
G01 X-0.8156 Y5.1236  
G01 X-0.8160 Y5.1245  
G01 X-0.8240 Y5.1383  
G01 X-0.8464 Y5.1607  
G01 X-1.2471 Y5.5614  
G01 X-1.2478 Y5.5620  
G01 X-1.2491 Y5.5634  
G01 X-1.2504 Y5.5648  
G01 X-1.2510 Y5.5656  
G01 X-1.2516 Y5.5663  
G01 X-1.2525 Y5.5679  
G01 X-1.2536 Y5.5695  
G01 X-1.2540 Y5.5704  
G01 X-1.2544 Y5.5712  
G01 X-1.2551 Y5.5730  
G01 X-1.2558 Y5.5748  
G01 X-1.2560 Y5.5757  
G01 X-1.2563 Y5.5767  
G01 X-1.2565 Y5.5785  
G01 X-1.2569 Y5.5804  
G01 X-1.2569 Y5.5814  
G01 X-1.2570 Y5.5823  
G01 X-1.2569 Y5.5842  
G01 X-1.2569 Y5.5861  
G01 X-1.2569 Y5.5864  
G01 X-1.2569 Y5.7127  
G01 X-1.2633 Y5.7369  
G01 X-1.2759 Y5.7586  
G01 X-1.2936 Y5.7764  
G01 X-1.3153 Y5.7889  
G01 X-1.3395 Y5.7954  
G01 X-1.3646 Y5.7954  
G01 X-1.3888 Y5.7889  
G01 X-1.4105 Y5.7764  
G01 X-1.4282 Y5.7586  
G01 X-1.4408 Y5.7369  
G01 X-1.4429 Y5.7291  
G01 X-1.4404 Y5.7231  
G01 X-1.4380 Y5.7141  
G01 X-1.4368 Y5.7049  
G01 X-1.4368 Y5.5951  
G01 X-1.4380 Y5.5859  
G01 X-1.4404 Y5.5769  
G01 X-1.4440 Y5.5682  
G01 X-1.4470 Y5.5629  
G01 X-1.4470 Y5.5195  
G01 X-1.4406 Y5.4954  
G01 X-1.4281 Y5.4737  
G01 X-1.0015 Y5.0471  
G01 X-0.9983 Y5.0424  
G01 X-0.9961 Y5.0371  
G01 X-0.9950 Y5.0315  
G01 X-0.9950 Y4.5775  
G01 X-0.9885 Y4.5533  
G01 X-0.9760 Y4.5317  
G01 X-0.6768 Y4.2325  
G01 X-0.6737 Y4.2277  
G01 X-0.6715 Y4.2225  
G01 X-0.6704 Y4.2169  
G01 X-0.6704 Y4.2111  
G01 X-0.6714 Y4.2059  
G01 X-0.6715 Y4.2055  
G01 X-0.6737 Y4.2003  
G01 X-0.6768 Y4.1955  
G01 X-0.6809 Y4.1915  
G01 X-0.6856 Y4.1883  
G01 X-0.6909 Y4.1861  
G01 X-0.6965 Y4.1850  
G01 X-1.5915 Y4.1850  
G01 X-1.5971 Y4.1861  
G01 X-1.6024 Y4.1883  
G01 X-1.6071 Y4.1915  
G01 X-1.6485 Y4.2329  
G01 X-1.6517 Y4.2376  
G01 X-1.6539 Y4.2429  
G01 X-1.6550 Y4.2485  
G01 X-1.6550 Y4.3525  
G01 X-1.6615 Y4.3767  
G01 X-1.6740 Y4.3983  
G01 X-1.6917 Y4.4160  
G01 X-1.7133 Y4.4285  
G01 X-1.7375 Y4.4350  
G01 X-1.7625 Y4.4350  
G01 X-1.7867 Y4.4285  
G01 X-1.8083 Y4.4160  
G01 X-1.8260 Y4.3983  
G01 X-1.8385 Y4.3767  
G01 X-1.8450 Y4.3525  
G01 X-1.8450 Y4.1875  
G01 X-1.8385 Y4.1633  
G01 X-1.8260 Y4.1417  
G01 X-1.7167 Y4.0323  
G01 X-1.6983 Y4.0140  
G01 X-1.6767 Y4.0015  
G01 X-1.6525 Y3.9950  
G01 X-1.3954 Y3.9950  
G01 X-1.3898 Y3.9939  
G01 X-1.3845 Y3.9917  
G01 X-1.3798 Y3.9885  
G01 X-1.3757 Y3.9845  
G01 X-1.3726 Y3.9797  
G01 X-1.3704 Y3.9745  
G01 X-1.3692 Y3.9689  
G01 X-1.3692 Y3.9631  
G01 X-1.3704 Y3.9575  
G01 X-1.3726 Y3.9523  
G01 X-1.3757 Y3.9475  
G01 X-1.3798 Y3.9435  
G01 X-1.5484 Y3.7748  
G01 X-1.5580 Y3.7582  
G01 X-1.5630 Y3.7396  
G01 X-1.5630 Y3.3294  
G01 X-1.5641 Y3.3238  
G01 X-1.5663 Y3.3185  
G01 X-1.5695 Y3.3138  
G01 X-1.5735 Y3.3097  
G01 X-1.7084 Y3.1748  
G01 X-1.7180 Y3.1582  
G01 X-1.7230 Y3.1396  
G01 X-1.7230 Y3.0826  
G01 X-1.7241 Y3.0770  
G01 X-1.7263 Y3.0717  
G01 X-1.7295 Y3.0669  
G01 X-1.7335 Y3.0629  
G01 X-1.7362 Y3.0602  
G01 X-1.7470 Y3.0341  
G01 X-1.7470 Y3.0091  
G01 X-1.7481 Y3.0035  
G01 X-1.7503 Y2.9983  
G01 X-1.7535 Y2.9935  
G01 X-1.7575 Y2.9895  
G01 X-1.7623 Y2.9863  
G01 X-1.7675 Y2.9841  
G01 X-1.7731 Y2.9830  
G01 X-1.8006 Y2.9830  
G01 X-1.8062 Y2.9841  
G01 X-1.8115 Y2.9863  
G01 X-1.8162 Y2.9895  
G01 X-1.8203 Y2.9935  
G01 X-1.8952 Y3.0684  
G01 X-1.9118 Y3.0780  
G01 X-1.9304 Y3.0830  
G01 X-2.1096 Y3.0830  
G01 X-2.1116 Y3.0825  
G01 X-2.1124 Y3.0821  
G01 X-2.1143 Y3.0817  
G01 X-2.1161 Y3.0812  
G01 X-2.1171 Y3.0812  
G01 X-2.1180 Y3.0810  
G01 X-2.1199 Y3.0810  
G01 X-2.1218 Y3.0809  
G01 X-2.1228 Y3.0810  
G01 X-2.1294 Y3.0810  
G01 X-2.1341 Y3.0763  
G01 X-2.1347 Y3.0756  
G01 X-2.1361 Y3.0743  
G01 X-2.1375 Y3.0730  
G01 X-2.1382 Y3.0724  
G01 X-2.1390 Y3.0718  
G01 X-2.1406 Y3.0708  
G01 X-2.1422 Y3.0698  
G01 X-2.1431 Y3.0694  
G01 X-2.1448 Y3.0684  
G01 X-2.1584 Y3.0548  
G01 X-2.1593 Y3.0533  
G01 X-2.1599 Y3.0525  
G01 X-2.1605 Y3.0518  
G01 X-2.1618 Y3.0504  
G01 X-2.1631 Y3.0490  
G01 X-2.1638 Y3.0484  
G01 X-2.1645 Y3.0477  
G01 X-2.1661 Y3.0467  
G01 X-2.1676 Y3.0455  
G01 X-2.1685 Y3.0451  
G01 X-2.1693 Y3.0445  
G01 X-2.1710 Y3.0438  
G01 X-2.1727 Y3.0430  
G01 X-2.1737 Y3.0427  
G01 X-2.1745 Y3.0424  
G01 X-2.1764 Y3.0420  
G01 X-2.1783 Y3.0415  
G01 X-2.1792 Y3.0414  
G01 X-2.1801 Y3.0412  
G01 X-2.1821 Y3.0412  
G01 X-2.1840 Y3.0411  
G01 X-2.1849 Y3.0412  
G01 X-2.1859 Y3.0412  
G01 X-2.1877 Y3.0416  
G01 X-2.1896 Y3.0419  
G01 X-2.1905 Y3.0422  
G01 X-2.1915 Y3.0424  
G01 X-2.1932 Y3.0431  
G01 X-2.1950 Y3.0437  
G01 X-2.1959 Y3.0442  
G01 X-2.1967 Y3.0445  
G01 X-2.1983 Y3.0456  
G01 X-2.2000 Y3.0466  
G01 X-2.2007 Y3.0472  
G01 X-2.2015 Y3.0477  
G01 X-2.2028 Y3.0491  
G01 X-2.2043 Y3.0503  
G01 X-2.2048 Y3.0511  
G01 X-2.2055 Y3.0518  
G01 X-2.2066 Y3.0533  
G01 X-2.2077 Y3.0549  
G01 X-2.2082 Y3.0557  
G01 X-2.2087 Y3.0565  
G01 X-2.2094 Y3.0583  
G01 X-2.2103 Y3.0600  
G01 X-2.2105 Y3.0609  
G01 X-2.2109 Y3.0618  
G01 X-2.2113 Y3.0637  
G01 X-2.2118 Y3.0655  
G01 X-2.2118 Y3.0664  
G01 X-2.2120 Y3.0674  
G01 X-2.2120 Y3.0693  
G01 X-2.2121 Y3.0712  
G01 X-2.2120 Y3.0721  
G01 X-2.2120 Y3.2716  
G01 X-2.2180 Y3.2940  
G01 X-2.2259 Y3.3077  
G01 X-2.2270 Y3.3093  
G01 X-2.2273 Y3.3101  
G01 X-2.2278 Y3.3110  
G01 X-2.2284 Y3.3128  
G01 X-2.2292 Y3.3145  
G01 X-2.2293 Y3.3155  
G01 X-2.2297 Y3.3164  
G01 X-2.2299 Y3.3183  
G01 X-2.2303 Y3.3201  
G01 X-2.2303 Y3.3211  
G01 X-2.2304 Y3.3220  
G01 X-2.2303 Y3.3239  
G01 X-2.2303 Y3.3259  
G01 X-2.2301 Y3.3268  
G01 X-2.2300 Y3.3277  
G01 X-2.2295 Y3.3296  
G01 X-2.2292 Y3.3315  
G01 X-2.2288 Y3.3323  
G01 X-2.2285 Y3.3333  
G01 X-2.2277 Y3.3350  
G01 X-2.2270 Y3.3367  
G01 X-2.2264 Y3.3375  
G01 X-2.2260 Y3.3384  
G01 X-2.2249 Y3.3399  
G01 X-2.2238 Y3.3415  
G01 X-2.2231 Y3.3422  
G01 X-2.2225 Y3.3429  
G01 X-2.2211 Y3.3442  
G01 X-2.2198 Y3.3455  
G01 X-2.2190 Y3.3461  
G01 X-2.2182 Y3.3467  
G01 X-2.2166 Y3.3476  
G01 X-2.2150 Y3.3487  
G01 X-2.2141 Y3.3491  
G01 X-2.2133 Y3.3495  
G01 X-2.2115 Y3.3502  
G01 X-2.2097 Y3.3509  
G01 X-2.2088 Y3.3511  
G01 X-2.2079 Y3.3514  
G01 X-2.2060 Y3.3516  
G01 X-2.2041 Y3.3520  
G01 X-2.2032 Y3.3520  
G01 X-2.2022 Y3.3521  
G01 X-2.2003 Y3.3520  
G01 X-1.7384 Y3.3520  
G01 X-1.7160 Y3.3580  
G01 X-1.6960 Y3.3696  
G01 X-1.6796 Y3.3860  
G01 X-1.6680 Y3.4060  
G01 X-1.6620 Y3.4284  
G01 X-1.6620 Y3.4516  
G01 X-1.6680 Y3.4740  
G01 X-1.6796 Y3.4940  
G01 X-1.6960 Y3.5104  
G01 X-1.7029 Y3.5144  
G01 X-1.7046 Y3.5153  
G01 X-1.7054 Y3.5158  
G01 X-1.7062 Y3.5163  
G01 X-1.7076 Y3.5176  
G01 X-1.7091 Y3.5187  
G01 X-1.7098 Y3.5195  
G01 X-1.7105 Y3.5201  
G01 X-1.7116 Y3.5216  
G01 X-1.7129 Y3.5230  
G01 X-1.7134 Y3.5239  
G01 X-1.7140 Y3.5246  
G01 X-1.7148 Y3.5263  
G01 X-1.7157 Y3.5280  
G01 X-1.7161 Y3.5289  
G01 X-1.7165 Y3.5297  
G01 X-1.7170 Y3.5316  
G01 X-1.7176 Y3.5334  
G01 X-1.7177 Y3.5343  
G01 X-1.7180 Y3.5353  
G01 X-1.7181 Y3.5372  
G01 X-1.7183 Y3.5390  
G01 X-1.7183 Y3.5400  
G01 X-1.7183 Y3.5410  
G01 X-1.7181 Y3.5428  
G01 X-1.7180 Y3.5447  
G01 X-1.7177 Y3.5457  
G01 X-1.7176 Y3.5466  
G01 X-1.7170 Y3.5484  
G01 X-1.7165 Y3.5503  
G01 X-1.7161 Y3.5511  
G01 X-1.7157 Y3.5520  
G01 X-1.7148 Y3.5537  
G01 X-1.7140 Y3.5554  
G01 X-1.7134 Y3.5561  
G01 X-1.7129 Y3.5570  
G01 X-1.7116 Y3.5584  
G01 X-1.7105 Y3.5599  
G01 X-1.7098 Y3.5606  
G01 X-1.7091 Y3.5613  
G01 X-1.7076 Y3.5624  
G01 X-1.7062 Y3.5637  
G01 X-1.7054 Y3.5642  
G01 X-1.7046 Y3.5647  
G01 X-1.7029 Y3.5656  
G01 X-1.6960 Y3.5696  
G01 X-1.6796 Y3.5860  
G01 X-1.6680 Y3.6060  
G01 X-1.6620 Y3.6284  
G01 X-1.6620 Y3.6516  
G01 X-1.6680 Y3.6740  
G01 X-1.6796 Y3.6940  
G01 X-1.6960 Y3.7104  
G01 X-1.7160 Y3.7220  
G01 X-1.7384 Y3.7280  
G01 X-2.1945 Y3.7280  
G01 X-2.1965 Y3.7279  
G01 X-2.1974 Y3.7280  
G01 X-2.1984 Y3.7280  
G01 X-2.2002 Y3.7284  
G01 X-2.2021 Y3.7286  
G01 X-2.2030 Y3.7289  
G01 X-2.2040 Y3.7291  
G01 X-2.2057 Y3.7298  
G01 X-2.2075 Y3.7305  
G01 X-2.2084 Y3.7309  
G01 X-2.2092 Y3.7313  
G01 X-2.2108 Y3.7324  
G01 X-2.2125 Y3.7333  
G01 X-2.2132 Y3.7339  
G01 X-2.2140 Y3.7345  
G01 X-2.2153 Y3.7358  
G01 X-2.2168 Y3.7371  
G01 X-2.2173 Y3.7378  
G01 X-2.2180 Y3.7385  
G01 X-2.2191 Y3.7401  
G01 X-2.2202 Y3.7416  
G01 X-2.2207 Y3.7425  
G01 X-2.2212 Y3.7433  
G01 X-2.2219 Y3.7450  
G01 X-2.2228 Y3.7467  
G01 X-2.2230 Y3.7477  
G01 X-2.2234 Y3.7485  
G01 X-2.2238 Y3.7504  
G01 X-2.2243 Y3.7523  
G01 X-2.2243 Y3.7532  
G01 X-2.2245 Y3.7541  
G01 X-2.2245 Y3.7560  
G01 X-2.2246 Y3.7580  
G01 X-2.2245 Y3.7589  
G01 X-2.2245 Y3.7599  
G01 X-2.2241 Y3.7617  
G01 X-2.2239 Y3.7636  
G01 X-2.2236 Y3.7645  
G01 X-2.2234 Y3.7655  
G01 X-2.2227 Y3.7672  
G01 X-2.2220 Y3.7690  
G01 X-2.2216 Y3.7699  
G01 X-2.2212 Y3.7707  
G01 X-2.2201 Y3.7723  
G01 X-2.2180 Y3.7760  
G01 X-2.2120 Y3.7984  
G01 X-2.2120 Y4.0616  
G01 X-2.2180 Y4.0840  
G01 X-2.2296 Y4.1040  
G01 X-2.2323 Y4.1068  
G01 X-2.2348 Y4.1093  
G01 X-2.2364 Y4.1108  
G01 X-2.2395 Y4.1155  
G01 X-2.2395 Y4.1156  
G01 X-2.2398 Y4.1162  
G01 X-2.2598 Y4.1362  
G01 X-2.2859 Y4.1470  
G01 X-2.3141 Y4.1470  
G01 X-2.3363 Y4.1378  
G01 X-2.3414 Y4.1357  
G01 X-2.3415 Y4.1356  
G01 X-2.3471 Y4.1345  
G01 X-2.3529 Y4.1345  
G01 X-2.3532 Y4.1346  
G01 X-2.3585 Y4.1356  
G01 X-2.3859 Y4.1470  
G01 X-2.4141 Y4.1470  
G01 X-2.4402 Y4.1362  
G01 X-2.4602 Y4.1162  
G01 X-2.4642 Y4.1066  
G01 X-2.4598 Y4.1006  
G01 X-2.4564 Y4.0940  
G01 X-2.4542 Y4.0870  
G01 X-2.4530 Y4.0797  
G01 X-2.4530 Y4.0203  
G01 X-2.4542 Y4.0130  
G01 X-2.4564 Y4.0060  
G01 X-2.4598 Y3.9994  
G01 X-2.4642 Y3.9934  
G01 X-2.4602 Y3.9838  
G01 X-2.4402 Y3.9638  
G01 X-2.4141 Y3.9530  
G01 X-2.4085 Y3.9519  
G01 X-2.4033 Y3.9497  
G01 X-2.3985 Y3.9465  
G01 X-2.3945 Y3.9425  
G01 X-2.3913 Y3.9377  
G01 X-2.3891 Y3.9325  
G01 X-2.3880 Y3.9269  
G01 X-2.3880 Y3.7984  
G01 X-2.3820 Y3.7760  
G01 X-2.3799 Y3.7723  
G01 X-2.3788 Y3.7707  
G01 X-2.3784 Y3.7699  
G01 X-2.3780 Y3.7690  
G01 X-2.3773 Y3.7672  
G01 X-2.3766 Y3.7655  
G01 X-2.3764 Y3.7645  
G01 X-2.3761 Y3.7636  
G01 X-2.3759 Y3.7617  
G01 X-2.3755 Y3.7599  
G01 X-2.3755 Y3.7589  
G01 X-2.3754 Y3.7580  
G01 X-2.3755 Y3.7560  
G01 X-2.3755 Y3.7541  
G01 X-2.3757 Y3.7532  
G01 X-2.3757 Y3.7523  
G01 X-2.3762 Y3.7504  
G01 X-2.3766 Y3.7485  
G01 X-2.3770 Y3.7477  
G01 X-2.3772 Y3.7467  
G01 X-2.3781 Y3.7450  
G01 X-2.3788 Y3.7433  
G01 X-2.3793 Y3.7425  
G01 X-2.3798 Y3.7416  
G01 X-2.3809 Y3.7401  
G01 X-2.3820 Y3.7385  
G01 X-2.3826 Y3.7378  
G01 X-2.3832 Y3.7371  
G01 X-2.3847 Y3.7358  
G01 X-2.3860 Y3.7345  
G01 X-2.3868 Y3.7339  
G01 X-2.3875 Y3.7333  
G01 X-2.3892 Y3.7324  
G01 X-2.3908 Y3.7313  
G01 X-2.3916 Y3.7309  
G01 X-2.3925 Y3.7305  
G01 X-2.3943 Y3.7298  
G01 X-2.3960 Y3.7291  
G01 X-2.3970 Y3.7289  
G01 X-2.3979 Y3.7286  
G01 X-2.3998 Y3.7284  
G01 X-2.4016 Y3.7280  
G01 X-2.4026 Y3.7280  
G01 X-2.4035 Y3.7279  
G01 X-2.4054 Y3.7280  
G01 X-2.5445 Y3.7280  
G01 X-2.5467 Y3.7284  
G01 X-2.5501 Y3.7291  
G01 X-2.5554 Y3.7313  
G01 X-2.5569 Y3.7323  
G01 X-2.5601 Y3.7345  
G01 X-2.5606 Y3.7350  
G01 X-2.6393 Y3.7350  
G01 X-2.6398 Y3.7346  
G01 X-2.6430 Y3.7324  
G01 X-2.6446 Y3.7313  
G01 X-2.6499 Y3.7291  
G01 X-2.6532 Y3.7285  
G01 X-2.6555 Y3.7280  
G01 X-3.3616 Y3.7280  
G01 X-3.3840 Y3.7220  
G01 X-3.4040 Y3.7104  
G01 X-3.4204 Y3.6940  
G01 X-3.4320 Y3.6740  
G01 X-3.4380 Y3.6516  
G01 X-3.4380 Y3.6284  
G01 X-3.4320 Y3.6060  
G01 X-3.4204 Y3.5860  
G01 X-3.4040 Y3.5696  
G01 X-3.4024 Y3.5688  
G01 X-3.4016 Y3.5682  
G01 X-3.4008 Y3.5677  
G01 X-3.3994 Y3.5665  
G01 X-3.3979 Y3.5653  
G01 X-3.3972 Y3.5646  
G01 X-3.3965 Y3.5640  
G01 X-3.3954 Y3.5624  
G01 X-3.3941 Y3.5610  
G01 X-3.3936 Y3.5602  
G01 X-3.3930 Y3.5594  
G01 X-3.3922 Y3.5577  
G01 X-3.3913 Y3.5561  
G01 X-3.3909 Y3.5552  
G01 X-3.3905 Y3.5543  
G01 X-3.3900 Y3.5525  
G01 X-3.3894 Y3.5507  
G01 X-3.3893 Y3.5497  
G01 X-3.3890 Y3.5488  
G01 X-3.3889 Y3.5469  
G01 X-3.3887 Y3.5450  
G01 X-3.3887 Y3.5440  
G01 X-3.3887 Y3.5431  
G01 X-3.3889 Y3.5412  
G01 X-3.3890 Y3.5393  
G01 X-3.3893 Y3.5384  
G01 X-3.3894 Y3.5374  
G01 X-3.3900 Y3.5356  
G01 X-3.3905 Y3.5338  
G01 X-3.3909 Y3.5329  
G01 X-3.3913 Y3.5320  
G01 X-3.3922 Y3.5304  
G01 X-3.3930 Y3.5287  
G01 X-3.3936 Y3.5279  
G01 X-3.3941 Y3.5271  
G01 X-3.3954 Y3.5256  
G01 X-3.3965 Y3.5241  
G01 X-3.3972 Y3.5235  
G01 X-3.3979 Y3.5228  
G01 X-3.3994 Y3.5216  
G01 X-3.4008 Y3.5204  
G01 X-3.4016 Y3.5199  
G01 X-3.4024 Y3.5193  
G01 X-3.4041 Y3.5185  
G01 X-3.4083 Y3.5160  
G01 X-3.4260 Y3.4983  
G01 X-3.4385 Y3.4767  
G01 X-3.4450 Y3.4525  
G01 X-3.4450 Y3.4275  
G01 X-3.4385 Y3.4033  
G01 X-3.4260 Y3.3817  
G01 X-3.4083 Y3.3640  
G01 X-3.3867 Y3.3515  
G01 X-3.3625 Y3.3450  
G01 X-2.5875 Y3.3450  
G01 X-2.5669 Y3.3505  
G01 X-2.5660 Y3.3509  
G01 X-2.5641 Y3.3513  
G01 X-2.5623 Y3.3518  
G01 X-2.5613 Y3.3518  
G01 X-2.5604 Y3.3520  
G01 X-2.5585 Y3.3520  
G01 X-2.5566 Y3.3521  
G01 X-2.5556 Y3.3520  
G01 X-2.3997 Y3.3520  
G01 X-2.3978 Y3.3521  
G01 X-2.3968 Y3.3520  
G01 X-2.3959 Y3.3520  
G01 X-2.3940 Y3.3516  
G01 X-2.3921 Y3.3514  
G01 X-2.3912 Y3.3511  
G01 X-2.3903 Y3.3509  
G01 X-2.3885 Y3.3502  
G01 X-2.3867 Y3.3495  
G01 X-2.3859 Y3.3491  
G01 X-2.3850 Y3.3487  
G01 X-2.3834 Y3.3476  
G01 X-2.3818 Y3.3467  
G01 X-2.3810 Y3.3461  
G01 X-2.3802 Y3.3455  
G01 X-2.3789 Y3.3442  
G01 X-2.3775 Y3.3429  
G01 X-2.3769 Y3.3422  
G01 X-2.3762 Y3.3415  
G01 X-2.3751 Y3.3399  
G01 X-2.3740 Y3.3384  
G01 X-2.3736 Y3.3375  
G01 X-2.3730 Y3.3367  
G01 X-2.3723 Y3.3350  
G01 X-2.3715 Y3.3333  
G01 X-2.3712 Y3.3323  
G01 X-2.3708 Y3.3315  
G01 X-2.3705 Y3.3296  
G01 X-2.3700 Y3.3277  
G01 X-2.3699 Y3.3268  
G01 X-2.3697 Y3.3259  
G01 X-2.3697 Y3.3239  
G01 X-2.3696 Y3.3220  
G01 X-2.3697 Y3.3211  
G01 X-2.3697 Y3.3201  
G01 X-2.3701 Y3.3183  
G01 X-2.3703 Y3.3164  
G01 X-2.3707 Y3.3155  
G01 X-2.3708 Y3.3145  
G01 X-2.3716 Y3.3128  
G01 X-2.3722 Y3.3110  
G01 X-2.3727 Y3.3101  
G01 X-2.3730 Y3.3093  
G01 X-2.3741 Y3.3077  
G01 X-2.3820 Y3.2940  
G01 X-2.3880 Y3.2716  
G01 X-2.3880 Y2.9984  
G01 X-2.3820 Y2.9760  
G01 X-2.3704 Y2.9560  
G01 X-2.3540 Y2.9396  
G01 X-2.3340 Y2.9280  
G01 X-2.3116 Y2.9220  
G01 X-2.2884 Y2.9220  
G01 X-2.2660 Y2.9280  
G01 X-2.2460 Y2.9396  
G01 X-2.2296 Y2.9560  
G01 X-2.2190 Y2.9743  
G01 X-2.2186 Y2.9752  
G01 X-2.2175 Y2.9768  
G01 X-2.2166 Y2.9785  
G01 X-2.2160 Y2.9792  
G01 X-2.2154 Y2.9800  
G01 X-2.2141 Y2.9813  
G01 X-2.2128 Y2.9828  
G01 X-2.2121 Y2.9833  
G01 X-2.2114 Y2.9840  
G01 X-2.2098 Y2.9851  
G01 X-2.2083 Y2.9862  
G01 X-2.2074 Y2.9867  
G01 X-2.2066 Y2.9872  
G01 X-2.2049 Y2.9879  
G01 X-2.2032 Y2.9888  
G01 X-2.2023 Y2.9890  
G01 X-2.2014 Y2.9894  
G01 X-2.1995 Y2.9897  
G01 X-2.1977 Y2.9902  
G01 X-2.1967 Y2.9903  
G01 X-2.1958 Y2.9905  
G01 X-2.1939 Y2.9905  
G01 X-2.1920 Y2.9906  
G01 X-2.1910 Y2.9905  
G01 X-2.1901 Y2.9905  
G01 X-2.1882 Y2.9901  
G01 X-2.1863 Y2.9899  
G01 X-2.1854 Y2.9896  
G01 X-2.1844 Y2.9894  
G01 X-2.1827 Y2.9886  
G01 X-2.1809 Y2.9880  
G01 X-2.1801 Y2.9876  
G01 X-2.1792 Y2.9872  
G01 X-2.1776 Y2.9861  
G01 X-2.1759 Y2.9852  
G01 X-2.1752 Y2.9845  
G01 X-2.1744 Y2.9840  
G01 X-2.1731 Y2.9827  
G01 X-2.1716 Y2.9814  
G01 X-2.1711 Y2.9806  
G01 X-2.1663 Y2.9759  
G01 X-2.1656 Y2.9753  
G01 X-2.1643 Y2.9739  
G01 X-2.1630 Y2.9725  
G01 X-2.1624 Y2.9718  
G01 X-2.1618 Y2.9710  
G01 X-2.1608 Y2.9694  
G01 X-2.1598 Y2.9678  
G01 X-2.1594 Y2.9669  
G01 X-2.1584 Y2.9652  
G01 X-2.1448 Y2.9516  
G01 X-2.1431 Y2.9506  
G01 X-2.1422 Y2.9502  
G01 X-2.1406 Y2.9492  
G01 X-2.1390 Y2.9482  
G01 X-2.1382 Y2.9476  
G01 X-2.1375 Y2.9470  
G01 X-2.1361 Y2.9457  
G01 X-2.1347 Y2.9444  
G01 X-2.1341 Y2.9437  
G01 X-2.1294 Y2.9390  
G01 X-2.1228 Y2.9390  
G01 X-2.1218 Y2.9391  
G01 X-2.1199 Y2.9390  
G01 X-2.1180 Y2.9390  
G01 X-2.1171 Y2.9388  
G01 X-2.1161 Y2.9388  
G01 X-2.1143 Y2.9383  
G01 X-2.1124 Y2.9379  
G01 X-2.1116 Y2.9375  
G01 X-2.1096 Y2.9370  
G01 X-1.9794 Y2.9370  
G01 X-1.9738 Y2.9359  
G01 X-1.9685 Y2.9337  
G01 X-1.9638 Y2.9305  
G01 X-1.9597 Y2.9265  
G01 X-1.8991 Y2.8659  
G01 X-1.8848 Y2.8516  
G01 X-1.8706 Y2.8434  
G01 X-1.8657 Y2.8405  
G01 X-1.8640 Y2.8391  
G01 X-1.8614 Y2.8368  
G01 X-1.8579 Y2.8322  
G01 X-1.8554 Y2.8271  
G01 X-1.8539 Y2.8216  
G01 X-1.8535 Y2.8159  
G01 X-1.8543 Y2.8102  
G01 X-1.8561 Y2.8048  
G01 X-1.8590 Y2.7999  
G01 X-1.8604 Y2.7982  
G01 X-1.8627 Y2.7956  
G01 X-1.8673 Y2.7921  
G01 X-1.8724 Y2.7896  
G01 X-1.8782 Y2.7880  
G01 X-1.8948 Y2.7784  
G01 X-1.9538 Y2.7195  
G01 X-1.9585 Y2.7163  
G01 X-1.9638 Y2.7141  
G01 X-1.9694 Y2.7130  
G01 X-2.1096 Y2.7130  
G01 X-2.1116 Y2.7125  
G01 X-2.1124 Y2.7121  
G01 X-2.1143 Y2.7117  
G01 X-2.1161 Y2.7112  
G01 X-2.1171 Y2.7112  
G01 X-2.1180 Y2.7110  
G01 X-2.1199 Y2.7110  
G01 X-2.1218 Y2.7109  
G01 X-2.1228 Y2.7110  
G01 X-2.1294 Y2.7110  
G01 X-2.1341 Y2.7063  
G01 X-2.1347 Y2.7056  
G01 X-2.1361 Y2.7043  
G01 X-2.1375 Y2.7030  
G01 X-2.1382 Y2.7024  
G01 X-2.1390 Y2.7018  
G01 X-2.1406 Y2.7008  
G01 X-2.1422 Y2.6998  
G01 X-2.1431 Y2.6994  
G01 X-2.1448 Y2.6984  
G01 X-2.1584 Y2.6848  
G01 X-2.1594 Y2.6831  
G01 X-2.1598 Y2.6822  
G01 X-2.1608 Y2.6806  
G01 X-2.1618 Y2.6790  
G01 X-2.1624 Y2.6782  
G01 X-2.1630 Y2.6775  
G01 X-2.1643 Y2.6761  
G01 X-2.1656 Y2.6747  
G01 X-2.1663 Y2.6741  
G01 X-2.1711 Y2.6694  
G01 X-2.1716 Y2.6686  
G01 X-2.1731 Y2.6673  
G01 X-2.1744 Y2.6660  
G01 X-2.1752 Y2.6655  
G01 X-2.1759 Y2.6648  
G01 X-2.1776 Y2.6639  
G01 X-2.1792 Y2.6628  
G01 X-2.1801 Y2.6624  
G01 X-2.1809 Y2.6620  
G01 X-2.1827 Y2.6614  
G01 X-2.1844 Y2.6606  
G01 X-2.1854 Y2.6604  
G01 X-2.1863 Y2.6601  
G01 X-2.1882 Y2.6599  
G01 X-2.1901 Y2.6595  
G01 X-2.1910 Y2.6595  
G01 X-2.1920 Y2.6594  
G01 X-2.1939 Y2.6595  
G01 X-2.1958 Y2.6595  
G01 X-2.1967 Y2.6597  
G01 X-2.1977 Y2.6598  
G01 X-2.1995 Y2.6603  
G01 X-2.2014 Y2.6606  
G01 X-2.2023 Y2.6610  
G01 X-2.2032 Y2.6612  
G01 X-2.2049 Y2.6621  
G01 X-2.2066 Y2.6628  
G01 X-2.2074 Y2.6633  
G01 X-2.2083 Y2.6638  
G01 X-2.2098 Y2.6649  
G01 X-2.2114 Y2.6660  
G01 X-2.2121 Y2.6667  
G01 X-2.2128 Y2.6672  
G01 X-2.2141 Y2.6687  
G01 X-2.2154 Y2.6700  
G01 X-2.2160 Y2.6708  
G01 X-2.2166 Y2.6715  
G01 X-2.2175 Y2.6732  
G01 X-2.2186 Y2.6748  
G01 X-2.2190 Y2.6757  
G01 X-2.2296 Y2.6940  
G01 X-2.2460 Y2.7104  
G01 X-2.2660 Y2.7220  
G01 X-2.2884 Y2.7280  
G01 X-2.3116 Y2.7280  
G01 X-2.3340 Y2.7220  
G01 X-2.3540 Y2.7104  
G01 X-2.3704 Y2.6940  
G01 X-2.3820 Y2.6740  
G01 X-2.3880 Y2.6516  
G01 X-2.3880 Y2.3441  
G01 X-2.3891 Y2.3385  
G01 X-2.3913 Y2.3333  
G01 X-2.3945 Y2.3285  
G01 X-2.3985 Y2.3245  
G01 X-2.4033 Y2.3213  
G01 X-2.4085 Y2.3191  
G01 X-2.4141 Y2.3180  
G01 X-2.4905 Y2.3180  
G01 X-2.4927 Y2.3184  
G01 X-2.4961 Y2.3191  
G01 X-2.5014 Y2.3213  
G01 X-2.5029 Y2.3223  
G01 X-2.5061 Y2.3245  
G01 X-2.5102 Y2.3285  
G01 X-2.5133 Y2.3333  
G01 X-2.5137 Y2.3341  
G01 X-2.5155 Y2.3385  
G01 X-2.5166 Y2.3441  
G01 X-2.5166 Y2.3499  
G01 X-2.5162 Y2.3520  
G01 X-2.5155 Y2.3555  
G01 X-2.5133 Y2.3607  
G01 X-2.5123 Y2.3623  
G01 X-2.5102 Y2.3655  
G01 X-2.5061 Y2.3695  
G01 X-2.5040 Y2.3717  
G01 X-2.4915 Y2.3933  
G01 X-2.4850 Y2.4175  
G01 X-2.4850 Y2.4425  
G01 X-2.4915 Y2.4667  
G01 X-2.5040 Y2.4883  
G01 X-2.5217 Y2.5060  
G01 X-2.5433 Y2.5185  
G01 X-2.5675 Y2.5250  
G01 X-2.5925 Y2.5250  
G01 X-2.6131 Y2.5195  
G01 X-2.6140 Y2.5191  
G01 X-2.6159 Y2.5187  
G01 X-2.6177 Y2.5182  
G01 X-2.6187 Y2.5182  
G01 X-2.6196 Y2.5180  
G01 X-2.6215 Y2.5180  
G01 X-2.6234 Y2.5179  
G01 X-2.6243 Y2.5180  
G01 X-3.3316 Y2.5180  
G01 X-3.3540 Y2.5120  
G01 X-3.3740 Y2.5004  
G01 X-3.3904 Y2.4840  
G01 X-3.4020 Y2.4640  
G01 X-3.4080 Y2.4416  
G01 X-3.4080 Y2.4184  
G01 X-3.4020 Y2.3960  
G01 X-3.3904 Y2.3760  
G01 X-3.3740 Y2.3596  
G01 X-3.3671 Y2.3556  
G01 X-3.3654 Y2.3547  
G01 X-3.3646 Y2.3542  
G01 X-3.3638 Y2.3537  
G01 X-3.3624 Y2.3524  
G01 X-3.3609 Y2.3513  
G01 X-3.3602 Y2.3505  
G01 X-3.3595 Y2.3499  
G01 X-3.3584 Y2.3484  
G01 X-3.3571 Y2.3470  
G01 X-3.3566 Y2.3461  
G01 X-3.3560 Y2.3454  
G01 X-3.3552 Y2.3437  
G01 X-3.3543 Y2.3420  
G01 X-3.3539 Y2.3411  
G01 X-3.3535 Y2.3403  
G01 X-3.3530 Y2.3384  
G01 X-3.3524 Y2.3366  
G01 X-3.3523 Y2.3357  
G01 X-3.3520 Y2.3347  
G01 X-3.3519 Y2.3328  
G01 X-3.3517 Y2.3310  
G01 X-3.3517 Y2.3300  
G01 X-3.3517 Y2.3290  
G01 X-3.3519 Y2.3272  
G01 X-3.3520 Y2.3253  
G01 X-3.3523 Y2.3243  
G01 X-3.3524 Y2.3234  
G01 X-3.3530 Y2.3216  
G01 X-3.3535 Y2.3197  
G01 X-3.3539 Y2.3189  
G01 X-3.3543 Y2.3180  
G01 X-3.3552 Y2.3163  
G01 X-3.3560 Y2.3146  
G01 X-3.3566 Y2.3139  
G01 X-3.3571 Y2.3130  
G01 X-3.3584 Y2.3116  
G01 X-3.3595 Y2.3101  
G01 X-3.3602 Y2.3094  
G01 X-3.3609 Y2.3087  
G01 X-3.3624 Y2.3076  
G01 X-3.3638 Y2.3063  
G01 X-3.3646 Y2.3058  
G01 X-3.3654 Y2.3053  
G01 X-3.3671 Y2.3044  
G01 X-3.3740 Y2.3004  
G01 X-3.3904 Y2.2840  
G01 X-3.4020 Y2.2640  
G01 X-3.4080 Y2.2416  
G01 X-3.4080 Y1.9684  
G01 X-3.4020 Y1.9460  
G01 X-3.3904 Y1.9260  
G01 X-3.3836 Y1.9192  
G01 X-3.3821 Y1.9169  
G01 X-3.3805 Y1.9144  
G01 X-3.3802 Y1.9138  
G01 X-3.3602 Y1.8938  
G01 X-3.3341 Y1.8830  
G01 X-3.3059 Y1.8830  
G01 X-3.2798 Y1.8938  
G01 X-3.2598 Y1.9138  
G01 X-3.2595 Y1.9144  
G01 X-3.2580 Y1.9167  
G01 X-3.2564 Y1.9192  
G01 X-3.2496 Y1.9260  
G01 X-3.2380 Y1.9460  
G01 X-3.2320 Y1.9684  
G01 X-3.2320 Y2.1159  
G01 X-3.2309 Y2.1215  
G01 X-3.2287 Y2.1267  
G01 X-3.2255 Y2.1315  
G01 X-3.2215 Y2.1355  
G01 X-3.2167 Y2.1387  
G01 X-3.2115 Y2.1409  
G01 X-3.2059 Y2.1420  
G01 X-2.6355 Y2.1420  
G01 X-2.6333 Y2.1416  
G01 X-2.6299 Y2.1409  
G01 X-2.6246 Y2.1387  
G01 X-2.6231 Y2.1377  
G01 X-2.6199 Y2.1355  
G01 X-2.6193 Y2.1350  
G01 X-2.5406 Y2.1350  
G01 X-2.5402 Y2.1354  
G01 X-2.5370 Y2.1376  
G01 X-2.5354 Y2.1387  
G01 X-2.5301 Y2.1409  
G01 X-2.5268 Y2.1415  
G01 X-2.5245 Y2.1420  
G01 X-2.4556 Y2.1420  
G01 X-2.4500 Y2.1409  
G01 X-2.4447 Y2.1387  
G01 X-2.4400 Y2.1355  
G01 X-2.4359 Y2.1315  
G01 X-2.3945 Y2.0900  
G01 X-2.3913 Y2.0853  
G01 X-2.3891 Y2.0800  
G01 X-2.3880 Y2.0744  
G01 X-2.3880 Y1.7031  
G01 X-2.3891 Y1.6975  
G01 X-2.3913 Y1.6923  
G01 X-2.3945 Y1.6875  
G01 X-2.3985 Y1.6835  
G01 X-2.4033 Y1.6803  
G01 X-2.4085 Y1.6781  
G01 X-2.4141 Y1.6770  
G01 X-2.4363 Y1.6678  
G01 X-2.4414 Y1.6657  
G01 X-2.4415 Y1.6656  
G01 X-2.4471 Y1.6645  
G01 X-2.4529 Y1.6645  
G01 X-2.4532 Y1.6646  
G01 X-2.4585 Y1.6656  
G01 X-2.4859 Y1.6770  
G01 X-2.5141 Y1.6770  
G01 X-2.5402 Y1.6662  
G01 X-2.5469 Y1.6595  
G01 X-2.5517 Y1.6563  
G01 X-2.5570 Y1.6541  
G01 X-2.5626 Y1.6530  
G01 X-2.8396 Y1.6530  
G01 X-2.8416 Y1.6525  
G01 X-2.8424 Y1.6521  
G01 X-2.8443 Y1.6517  
G01 X-2.8461 Y1.6512  
G01 X-2.8471 Y1.6512  
G01 X-2.8480 Y1.6510  
G01 X-2.8499 Y1.6510  
G01 X-2.8518 Y1.6509  
G01 X-2.8528 Y1.6510  
G01 X-2.8594 Y1.6510  
G01 X-2.8641 Y1.6463  
G01 X-2.8647 Y1.6456  
G01 X-2.8661 Y1.6443  
G01 X-2.8675 Y1.6430  
G01 X-2.8682 Y1.6424  
G01 X-2.8690 Y1.6418  
G01 X-2.8706 Y1.6408  
G01 X-2.8722 Y1.6398  
G01 X-2.8731 Y1.6394  
G01 X-2.8748 Y1.6384  
G01 X-2.8884 Y1.6248  
G01 X-2.8894 Y1.6231  
G01 X-2.8898 Y1.6222  
G01 X-2.8908 Y1.6206  
G01 X-2.8918 Y1.6190  
G01 X-2.8924 Y1.6182  
G01 X-2.8930 Y1.6175  
G01 X-2.8943 Y1.6161  
G01 X-2.8956 Y1.6147  
G01 X-2.8963 Y1.6141  
G01 X-2.9010 Y1.6094  
G01 X-2.9010 Y1.6027  
G01 X-2.9009 Y1.6017  
G01 X-2.9010 Y1.5999  
G01 X-2.9010 Y1.5980  
G01 X-2.9012 Y1.5970  
G01 X-2.9013 Y1.5960  
G01 X-2.9018 Y1.5942  
G01 X-2.9021 Y1.5924  
G01 X-2.9025 Y1.5915  
G01 X-2.9028 Y1.5905  
G01 X-2.9036 Y1.5888  
G01 X-2.9043 Y1.5872  
G01 X-2.9049 Y1.5863  
G01 X-2.9053 Y1.5854  
G01 X-2.9065 Y1.5839  
G01 X-2.9075 Y1.5824  
G01 X-2.9082 Y1.5817  
G01 X-2.9088 Y1.5809  
G01 X-2.9098 Y1.5800  
G01 X-2.9088 Y1.5791  
G01 X-2.9082 Y1.5783  
G01 X-2.9075 Y1.5776  
G01 X-2.9065 Y1.5761  
G01 X-2.9053 Y1.5746  
G01 X-2.9049 Y1.5737  
G01 X-2.9043 Y1.5728  
G01 X-2.9036 Y1.5712  
G01 X-2.9028 Y1.5695  
G01 X-2.9025 Y1.5685  
G01 X-2.9021 Y1.5676  
G01 X-2.9018 Y1.5658  
G01 X-2.9013 Y1.5640  
G01 X-2.9012 Y1.5630  
G01 X-2.9010 Y1.5620  
G01 X-2.9010 Y1.5601  
G01 X-2.9009 Y1.5583  
G01 X-2.9010 Y1.5573  
G01 X-2.9010 Y1.5506  
G01 X-2.8963 Y1.5459  
G01 X-2.8956 Y1.5453  
G01 X-2.8943 Y1.5439  
G01 X-2.8930 Y1.5425  
G01 X-2.8924 Y1.5418  
G01 X-2.8918 Y1.5410  
G01 X-2.8908 Y1.5394  
G01 X-2.8898 Y1.5378  
G01 X-2.8894 Y1.5369  
G01 X-2.8884 Y1.5352  
G01 X-2.8748 Y1.5216  
G01 X-2.8731 Y1.5206  
G01 X-2.8722 Y1.5202  
G01 X-2.8706 Y1.5192  
G01 X-2.8690 Y1.5182  
G01 X-2.8682 Y1.5176  
G01 X-2.8675 Y1.5170  
G01 X-2.8661 Y1.5157  
G01 X-2.8647 Y1.5144  
G01 X-2.8641 Y1.5137  
G01 X-2.8594 Y1.5090  
G01 X-2.8528 Y1.5090  
G01 X-2.8518 Y1.5091  
G01 X-2.8499 Y1.5090  
G01 X-2.8480 Y1.5090  
G01 X-2.8471 Y1.5088  
G01 X-2.8461 Y1.5088  
G01 X-2.8443 Y1.5083  
G01 X-2.8424 Y1.5079  
G01 X-2.8416 Y1.5075  
G01 X-2.8396 Y1.5070  
G01 X-2.5626 Y1.5070  
G01 X-2.5570 Y1.5059  
G01 X-2.5517 Y1.5037  
G01 X-2.5469 Y1.5005  
G01 X-2.5429 Y1.4965  
G01 X-2.5402 Y1.4938  
G01 X-2.5141 Y1.4830  
G01 X-2.4859 Y1.4830  
G01 X-2.4585 Y1.4944  
G01 X-2.4529 Y1.4955  
G01 X-2.4471 Y1.4955  
G01 X-2.4419 Y1.4944  
G01 X-2.4415 Y1.4944  
G01 X-2.4363 Y1.4922  
G01 X-2.4141 Y1.4830  
G01 X-2.3859 Y1.4830  
G01 X-2.3585 Y1.4944  
G01 X-2.3529 Y1.4955  
G01 X-2.3471 Y1.4955  
G01 X-2.3419 Y1.4944  
G01 X-2.3415 Y1.4944  
G01 X-2.3363 Y1.4922  
G01 X-2.3141 Y1.4830  
G01 X-2.2886 Y1.4830  
G01 X-2.2830 Y1.4819  
G01 X-2.2777 Y1.4797  
G01 X-2.2730 Y1.4765  
G01 X-2.2689 Y1.4725  
G01 X-2.2658 Y1.4677  
G01 X-2.2636 Y1.4625  
G01 X-2.2625 Y1.4569  
G01 X-2.2625 Y1.4511  
G01 X-2.2636 Y1.4455  
G01 X-2.2658 Y1.4403  
G01 X-2.2689 Y1.4355  
G01 X-2.2730 Y1.4315  
G01 X-2.3329 Y1.3716  
G01 X-2.3376 Y1.3684  
G01 X-2.3378 Y1.3683  
G01 X-2.3429 Y1.3662  
G01 X-2.3482 Y1.3652  
G01 X-2.3485 Y1.3651  
G01 X-2.3542 Y1.3651  
G01 X-2.3598 Y1.3662  
G01 X-2.3600 Y1.3663  
G01 X-2.3859 Y1.3770  
G01 X-2.4141 Y1.3770  
G01 X-2.4402 Y1.3662  
G01 X-2.4602 Y1.3462  
G01 X-2.4642 Y1.3366  
G01 X-2.4598 Y1.3306  
G01 X-2.4564 Y1.3240  
G01 X-2.4542 Y1.3170  
G01 X-2.4530 Y1.3097  
G01 X-2.4530 Y1.2503  
G01 X-2.4542 Y1.2430  
G01 X-2.4564 Y1.2360  
G01 X-2.4598 Y1.2294  
G01 X-2.4642 Y1.2234  
G01 X-2.4602 Y1.2138  
G01 X-2.4402 Y1.1938  
G01 X-2.4141 Y1.1830  
G01 X-2.3859 Y1.1830  
G01 X-2.3585 Y1.1944  
G01 X-2.3529 Y1.1955  
G01 X-2.3471 Y1.1955  
G01 X-2.3419 Y1.1944  
G01 X-2.3415 Y1.1944  
G01 X-2.3363 Y1.1922  
G01 X-2.3141 Y1.1830  
G01 X-2.2859 Y1.1830  
G01 X-2.2598 Y1.1938  
G01 X-2.2398 Y1.2138  
G01 X-2.2395 Y1.2144  
G01 X-2.2364 Y1.2192  
G01 X-2.2344 Y1.2211  
G01 X-2.2323 Y1.2232  
G01 X-2.0996 Y1.3560  
G01 X-2.0880 Y1.3760  
G01 X-2.0820 Y1.3984  
G01 X-2.0820 Y2.2116  
G01 X-2.0880 Y2.2340  
G01 X-2.0996 Y2.2540  
G01 X-2.1207 Y2.2751  
G01 X-2.2055 Y2.3600  
G01 X-2.2087 Y2.3647  
G01 X-2.2109 Y2.3700  
G01 X-2.2120 Y2.3756  
G01 X-2.2120 Y2.5779  
G01 X-2.2121 Y2.5788  
G01 X-2.2120 Y2.5807  
G01 X-2.2120 Y2.5826  
G01 X-2.2118 Y2.5836  
G01 X-2.2118 Y2.5845  
G01 X-2.2113 Y2.5863  
G01 X-2.2109 Y2.5882  
G01 X-2.2105 Y2.5891  
G01 X-2.2103 Y2.5900  
G01 X-2.2094 Y2.5917  
G01 X-2.2087 Y2.5935  
G01 X-2.2082 Y2.5943  
G01 X-2.2077 Y2.5951  
G01 X-2.2066 Y2.5967  
G01 X-2.2055 Y2.5982  
G01 X-2.2048 Y2.5989  
G01 X-2.2043 Y2.5997  
G01 X-2.2028 Y2.6009  
G01 X-2.2015 Y2.6023  
G01 X-2.2007 Y2.6028  
G01 X-2.2000 Y2.6034  
G01 X-2.1983 Y2.6044  
G01 X-2.1967 Y2.6055  
G01 X-2.1959 Y2.6058  
G01 X-2.1950 Y2.6063  
G01 X-2.1932 Y2.6069  
G01 X-2.1915 Y2.6076  
G01 X-2.1905 Y2.6078  
G01 X-2.1896 Y2.6081  
G01 X-2.1877 Y2.6084  
G01 X-2.1859 Y2.6088  
G01 X-2.1849 Y2.6088  
G01 X-2.1840 Y2.6089  
G01 X-2.1821 Y2.6088  
G01 X-2.1801 Y2.6088  
G01 X-2.1792 Y2.6086  
G01 X-2.1783 Y2.6085  
G01 X-2.1764 Y2.6080  
G01 X-2.1745 Y2.6076  
G01 X-2.1737 Y2.6073  
G01 X-2.1727 Y2.6070  
G01 X-2.1710 Y2.6062  
G01 X-2.1693 Y2.6055  
G01 X-2.1685 Y2.6049  
G01 X-2.1676 Y2.6045  
G01 X-2.1661 Y2.6033  
G01 X-2.1645 Y2.6023  
G01 X-2.1638 Y2.6016  
G01 X-2.1631 Y2.6010  
G01 X-2.1618 Y2.5996  
G01 X-2.1605 Y2.5982  
G01 X-2.1599 Y2.5975  
G01 X-2.1593 Y2.5967  
G01 X-2.1584 Y2.5952  
G01 X-2.1448 Y2.5816  
G01 X-2.1431 Y2.5806  
G01 X-2.1422 Y2.5802  
G01 X-2.1406 Y2.5792  
G01 X-2.1390 Y2.5782  
G01 X-2.1382 Y2.5776  
G01 X-2.1375 Y2.5770  
G01 X-2.1361 Y2.5757  
G01 X-2.1347 Y2.5744  
G01 X-2.1341 Y2.5737  
G01 X-2.1294 Y2.5690  
G01 X-2.1228 Y2.5690  
G01 X-2.1218 Y2.5691  
G01 X-2.1199 Y2.5690  
G01 X-2.1180 Y2.5690  
G01 X-2.1171 Y2.5688  
G01 X-2.1161 Y2.5688  
G01 X-2.1143 Y2.5683  
G01 X-2.1124 Y2.5679  
G01 X-2.1116 Y2.5675  
G01 X-2.1096 Y2.5670  
G01 X-1.9204 Y2.5670  
G01 X-1.9018 Y2.5720  
G01 X-1.8852 Y2.5816  
G01 X-1.8669 Y2.5999  
G01 X-1.8262 Y2.6405  
G01 X-1.8215 Y2.6437  
G01 X-1.8162 Y2.6459  
G01 X-1.8106 Y2.6470  
G01 X-1.6404 Y2.6470  
G01 X-1.6384 Y2.6475  
G01 X-1.6376 Y2.6479  
G01 X-1.6357 Y2.6483  
G01 X-1.6339 Y2.6488  
G01 X-1.6329 Y2.6488  
G01 X-1.6320 Y2.6490  
G01 X-1.6301 Y2.6490  
G01 X-1.6282 Y2.6491  
G01 X-1.6272 Y2.6490  
G01 X-1.6099 Y2.6490  
G01 X-1.5838 Y2.6598  
G01 X-1.5638 Y2.6798  
G01 X-1.5608 Y2.6871  
G01 X-1.5604 Y2.6879  
G01 X-1.5586 Y2.6924  
G01 X-1.5554 Y2.6971  
G01 X-1.5514 Y2.7012  
G01 X-1.5491 Y2.7027  
G01 X-1.5466 Y2.7043  
G01 X-1.5452 Y2.7049  
G01 X-1.5414 Y2.7065  
G01 X-1.5357 Y2.7076  
G01 X-1.5300 Y2.7076  
G01 X-1.5244 Y2.7065  
G01 X-1.5223 Y2.7056  
G01 X-1.5192 Y2.7043  
G01 X-1.5144 Y2.7012  
G01 X-1.4931 Y2.6799  
G01 X-1.4748 Y2.6616  
G01 X-1.4582 Y2.6520  
G01 X-1.4396 Y2.6470  
G01 X-1.3404 Y2.6470  
G01 X-1.3384 Y2.6475  
G01 X-1.3376 Y2.6479  
G01 X-1.3357 Y2.6483  
G01 X-1.3339 Y2.6488  
G01 X-1.3329 Y2.6488  
G01 X-1.3320 Y2.6490  
G01 X-1.3301 Y2.6490  
G01 X-1.3282 Y2.6491  
G01 X-1.3272 Y2.6490  
G01 X-1.3099 Y2.6490  
G01 X-1.2838 Y2.6598  
G01 X-1.2638 Y2.6798  
G01 X-1.2530 Y2.7059  
G01 X-1.2530 Y2.7341  
G01 X-1.2638 Y2.7602  
G01 X-1.2838 Y2.7802  
G01 X-1.2934 Y2.7842  
G01 X-1.2994 Y2.7798  
G01 X-1.3060 Y2.7764  
G01 X-1.3130 Y2.7742  
G01 X-1.3203 Y2.7730  
G01 X-1.3797 Y2.7730  
G01 X-1.3870 Y2.7742  
G01 X-1.3940 Y2.7764  
G01 X-1.4006 Y2.7798  
G01 X-1.4066 Y2.7842  
G01 X-1.4118 Y2.7894  
G01 X-1.4162 Y2.7954  
G01 X-1.4196 Y2.8020  
G01 X-1.4210 Y2.8064  
G01 X-1.4210 Y2.7803  
G01 X-1.4097 Y2.7690  
G01 X-1.3461 Y2.7690  
G01 X-1.3385 Y2.7678  
G01 X-1.3361 Y2.7670  
G01 X-1.3203 Y2.7670  
G01 X-1.3130 Y2.7658  
G01 X-1.3060 Y2.7636  
G01 X-1.2994 Y2.7602  
G01 X-1.2934 Y2.7558  
G01 X-1.2882 Y2.7506  
G01 X-1.2838 Y2.7446  
G01 X-1.2804 Y2.7380  
G01 X-1.2782 Y2.7310  
G01 X-1.2770 Y2.7237  
G01 X-1.2770 Y2.7163  
G01 X-1.2782 Y2.7090  
G01 X-1.2804 Y2.7020  
G01 X-1.2838 Y2.6954  
G01 X-1.2882 Y2.6894  
G01 X-1.2934 Y2.6842  
G01 X-1.2994 Y2.6798  
G01 X-1.3060 Y2.6764  
G01 X-1.3130 Y2.6742  
G01 X-1.3203 Y2.6730  
G01 X-1.3361 Y2.6730  
G01 X-1.3385 Y2.6722  
G01 X-1.3461 Y2.6710  
G01 X-1.4339 Y2.6710  
G01 X-1.4415 Y2.6722  
G01 X-1.4488 Y2.6746  
G01 X-1.4557 Y2.6781  
G01 X-1.4619 Y2.6826  
G01 X-1.4674 Y2.6881  
G01 X-1.5074 Y2.7281  
G01 X-1.5119 Y2.7343  
G01 X-1.5154 Y2.7412  
G01 X-1.5178 Y2.7485  
G01 X-1.5190 Y2.7561  
G01 X-1.5190 Y2.8217  
G01 X-1.5581 Y2.7826  
G01 X-1.5643 Y2.7781  
G01 X-1.5712 Y2.7746  
G01 X-1.5785 Y2.7722  
G01 X-1.5861 Y2.7710  
G01 X-1.5939 Y2.7710  
G01 X-1.6015 Y2.7722  
G01 X-1.6088 Y2.7746  
G01 X-1.6099 Y2.7752  
G01 X-1.6130 Y2.7742  
G01 X-1.6203 Y2.7730  
G01 X-1.6797 Y2.7730  
G01 X-1.6870 Y2.7742  
G01 X-1.6940 Y2.7764  
G01 X-1.7006 Y2.7798  
G01 X-1.7066 Y2.7842  
G01 X-1.7118 Y2.7894  
G01 X-1.7162 Y2.7954  
G01 X-1.7196 Y2.8020  
G01 X-1.7218 Y2.8090  
G01 X-1.7230 Y2.8163  
G01 X-1.7230 Y2.8237  
G01 X-1.7218 Y2.8310  
G01 X-1.7196 Y2.8380  
G01 X-1.7162 Y2.8446  
G01 X-1.7118 Y2.8506  
G01 X-1.7066 Y2.8558  
G01 X-1.7006 Y2.8602  
G01 X-1.6991 Y2.8610  
G01 X-1.8439 Y2.8610  
G01 X-1.8515 Y2.8622  
G01 X-1.8588 Y2.8646  
G01 X-1.8657 Y2.8681  
G01 X-1.8719 Y2.8726  
G01 X-1.8774 Y2.8781  
G01 X-1.9603 Y2.9610  
G01 X-2.1039 Y2.9610  
G01 X-2.1115 Y2.9622  
G01 X-2.1139 Y2.9630  
G01 X-2.1195 Y2.9630  
G01 X-2.1234 Y2.9669  
G01 X-2.1257 Y2.9681  
G01 X-2.1319 Y2.9726  
G01 X-2.1374 Y2.9781  
G01 X-2.1419 Y2.9843  
G01 X-2.1431 Y2.9866  
G01 X-2.1470 Y2.9905  
G01 X-2.1470 Y2.9961  
G01 X-2.1478 Y2.9985  
G01 X-2.1490 Y3.0061  
G01 X-2.1490 Y3.0139  
G01 X-2.1478 Y3.0215  
G01 X-2.1470 Y3.0239  
G01 X-2.1470 Y3.0295  
G01 X-2.1431 Y3.0334  
G01 X-2.1419 Y3.0357  
G01 X-2.1374 Y3.0419  
G01 X-2.1319 Y3.0474  
G01 X-2.1257 Y3.0519  
G01 X-2.1234 Y3.0531  
G01 X-2.1195 Y3.0570  
G01 X-2.1139 Y3.0570  
G01 X-2.1115 Y3.0578  
G01 X-2.1039 Y3.0590  
G01 X-1.9361 Y3.0590  
G01 X-1.9285 Y3.0578  
G01 X-1.9212 Y3.0554  
G01 X-1.9143 Y3.0519  
G01 X-1.9081 Y3.0474  
G01 X-1.8197 Y2.9590  
G01 X-1.7023 Y2.9590  
G01 X-1.7006 Y2.9602  
G01 X-1.6940 Y2.9636  
G01 X-1.6870 Y2.9658  
G01 X-1.6797 Y2.9670  
G01 X-1.6203 Y2.9670  
G01 X-1.6130 Y2.9658  
G01 X-1.6060 Y2.9636  
G01 X-1.5994 Y2.9602  
G01 X-1.5990 Y2.9599  
G01 X-1.5990 Y2.9801  
G01 X-1.5994 Y2.9798  
G01 X-1.6060 Y2.9764  
G01 X-1.6130 Y2.9742  
G01 X-1.6203 Y2.9730  
G01 X-1.6361 Y2.9730  
G01 X-1.6385 Y2.9722  
G01 X-1.6461 Y2.9710  
G01 X-1.6539 Y2.9710  
G01 X-1.6615 Y2.9722  
G01 X-1.6639 Y2.9730  
G01 X-1.6797 Y2.9730  
G01 X-1.6870 Y2.9742  
G01 X-1.6940 Y2.9764  
G01 X-1.7006 Y2.9798  
G01 X-1.7066 Y2.9842  
G01 X-1.7118 Y2.9894  
G01 X-1.7162 Y2.9954  
G01 X-1.7196 Y3.0020  
G01 X-1.7218 Y3.0090  
G01 X-1.7230 Y3.0163  
G01 X-1.7230 Y3.0237  
G01 X-1.7218 Y3.0310  
G01 X-1.7196 Y3.0380  
G01 X-1.7162 Y3.0446  
G01 X-1.7118 Y3.0506  
G01 X-1.7066 Y3.0558  
G01 X-1.7006 Y3.0602  
G01 X-1.6990 Y3.0610  
G01 X-1.6990 Y3.1339  
G01 X-1.6978 Y3.1415  
G01 X-1.6954 Y3.1488  
G01 X-1.6919 Y3.1557  
G01 X-1.6874 Y3.1619  
G01 X-1.5390 Y3.3103  
G01 X-1.5390 Y3.7339  
G01 X-1.5378 Y3.7415  
G01 X-1.5354 Y3.7488  
G01 X-1.5319 Y3.7557  
G01 X-1.5274 Y3.7619  
G01 X-1.3274 Y3.9619  
G01 X-1.3219 Y3.9674  
G01 X-1.3157 Y3.9719  
G01 X-1.3088 Y3.9754  
G01 X-1.3015 Y3.9778  
G01 X-1.2939 Y3.9790  
G01 X-0.5681 Y3.9790  
G01 X-0.5617 Y3.9823  
G01 X-0.5532 Y3.9850  
G01 X-0.5444 Y3.9864  
G01 X-0.5356 Y3.9864  
G01 X-0.5268 Y3.9850  
G01 X-0.5183 Y3.9823  
G01 X-0.5104 Y3.9783  
G01 X-0.5032 Y3.9730  
G01 X-0.4970 Y3.9668  
G01 X-0.4917 Y3.9596  
G01 X-0.4877 Y3.9517  
G01 X-0.4850 Y3.9432  
G01 X-0.4836 Y3.9344  
G01 X-0.4836 Y3.9256  
G01 X-0.4850 Y3.9168  
G01 X-0.4877 Y3.9083  
G01 X-0.4917 Y3.9004  
G01 X-0.4970 Y3.8932  
G01 X-0.5032 Y3.8870  
G01 X-0.5104 Y3.8817  
G01 X-0.5183 Y3.8777  
G01 X-0.5268 Y3.8750  
G01 X-0.5356 Y3.8736  
G01 X-0.5444 Y3.8736  
G01 X-0.5532 Y3.8750  
G01 X-0.5617 Y3.8777  
G01 X-0.5681 Y3.8810  
G01 X-1.2697 Y3.8810  
G01 X-1.4410 Y3.7097  
G01 X-1.4410 Y3.2883  
G01 X-1.4374 Y3.2919  
G01 X-1.4319 Y3.2974  
G01 X-1.4257 Y3.3019  
G01 X-1.4188 Y3.3054  
G01 X-1.4115 Y3.3078  
G01 X-1.4039 Y3.3090  
G01 X-0.8303 Y3.3090  
G01 X-0.6110 Y3.5283  
G01 X-0.6110 Y3.5347  
G01 X-0.6098 Y3.5439  
G01 X-0.6074 Y3.5529  
G01 X-0.6038 Y3.5615  
G01 X-0.5992 Y3.5695  
G01 X-0.5935 Y3.5769  
G01 X-0.5869 Y3.5835  
G01 X-0.5795 Y3.5892  
G01 X-0.5715 Y3.5938  
G01 X-0.5629 Y3.5974  
G01 X-0.5539 Y3.5998  
G01 X-0.5447 Y3.6010  
G01 X-0.2694 Y3.6010  
G01 X-0.1610 Y3.7094  
G01 X-0.1610 Y4.0406  
G01 X-0.2300 Y4.1096  
G01 X-0.3031 Y4.0365  
G01 X-0.3105 Y4.0308  
G01 X-0.3185 Y4.0262  
G01 X-0.3271 Y4.0226  
G01 X-0.3361 Y4.0202  
G01 X-0.3453 Y4.0190  
G01 X-1.6447 Y4.0190  
G01 X-1.6539 Y4.0202  
G01 X-1.6629 Y4.0226  
G01 X-1.6715 Y4.0262  
G01 X-1.6795 Y4.0308  
G01 X-1.6869 Y4.0365  
G01 X-1.6935 Y4.0431  
G01 X-1.8035 Y4.1531  
G01 X-1.8092 Y4.1605  
G01 X-1.8138 Y4.1685  
G01 X-1.8174 Y4.1771  
G01 X-1.8198 Y4.1861  
G01 X-1.8210 Y4.1953  
G01 X-1.8210 Y4.3447  
G01 X-1.8198 Y4.3539  
G01 X-1.8174 Y4.3629  
G01 X-1.8138 Y4.3715  
G01 X-1.8092 Y4.3795  
G01 X-1.8035 Y4.3869  
G01 X-1.7969 Y4.3935  
G01 X-1.7895 Y4.3992  
G01 X-1.7815 Y4.4038  
G01 X-1.7729 Y4.4074  
G01 X-1.7639 Y4.4098  
G01 X-1.7547 Y4.4110  
G01 X-1.7453 Y4.4110  
G01 X-1.7361 Y4.4098  
G01 X-1.7271 Y4.4074  
G01 X-1.7185 Y4.4038  
G01 X-1.7105 Y4.3992  
G01 X-1.7031 Y4.3935  
G01 X-1.6965 Y4.3869  
G01 X-1.6908 Y4.3795  
G01 X-1.6862 Y4.3715  
G01 X-1.6826 Y4.3629  
G01 X-1.6802 Y4.3539  
G01 X-1.6790 Y4.3447  
G01 X-1.6790 Y4.2294  
G01 X-1.6106 Y4.1610  
G01 X-0.5568 Y4.1610  
G01 X-0.5629 Y4.1626  
G01 X-0.5715 Y4.1662  
G01 X-0.5795 Y4.1708  
G01 X-0.5869 Y4.1765  
G01 X-0.9535 Y4.5431  
G01 X-0.9592 Y4.5505  
G01 X-0.9638 Y4.5585  
G01 X-0.9674 Y4.5671  
G01 X-0.9698 Y4.5761  
G01 X-0.9710 Y4.5853  
G01 X-0.9710 Y5.0506  
G01 X-1.4055 Y5.4851  
G01 X-1.4112 Y5.4925  
G01 X-1.4159 Y5.5006  
G01 X-1.4194 Y5.5092  
G01 X-1.4218 Y5.5182  
G01 X-1.4230 Y5.5274  
G01 X-1.4230 Y5.5936  
G01 X-1.4232 Y5.5951  
G01 X-1.4232 Y5.7049  
G01 X-1.4220 Y5.7141  
G01 X-1.4196 Y5.7231  
G01 X-1.4160 Y5.7318  
G01 X-1.4114 Y5.7398  
G01 X-1.4057 Y5.7472  
G01 X-1.3991 Y5.7538  
G01 X-1.3917 Y5.7595  
G01 X-1.3836 Y5.7642  
G01 X-1.3750 Y5.7678  
G01 X-1.3660 Y5.7702  
G01 X-1.3567 Y5.7714  
G01 X-1.3474 Y5.7714  
G01 X-1.3381 Y5.7702  
G01 X-1.3291 Y5.7678  
G01 X-1.3205 Y5.7642  
G01 X-1.3124 Y5.7595  
G01 X-1.3050 Y5.7538  
G01 X-1.2984 Y5.7472  
G01 X-1.2927 Y5.7398  
G01 X-1.2881 Y5.7318  
G01 X-1.2845 Y5.7231  
G01 X-1.2821 Y5.7141  
G01 X-1.2809 Y5.7049  
G01 X-1.2809 Y5.5951  
G01 X-1.2810 Y5.5936  
G01 X-1.2810 Y5.5615  
G01 X-0.8531 Y5.1335  
G01 X-0.8465 Y5.1269  
G01 X-0.8408 Y5.1195  
G01 X-0.8362 Y5.1115  
G01 X-0.8326 Y5.1029  
G01 X-0.8323 Y5.1017  
G01 X-0.8304 Y5.0980  
G01 X-0.8282 Y5.0910  
G01 X-0.8270 Y5.0837  
G01 X-0.8270 Y5.0763  
G01 X-0.8282 Y5.0690  
G01 X-0.8290 Y5.0664  
G01 X-0.8290 Y4.6194  
G01 X-0.4865 Y4.2769  
G01 X-0.4808 Y4.2695  
G01 X-0.4762 Y4.2615  
G01 X-0.4726 Y4.2529  
G01 X-0.4702 Y4.2439  
G01 X-0.4690 Y4.2347  
G01 X-0.4690 Y4.2253  
G01 X-0.4702 Y4.2161  
G01 X-0.4726 Y4.2071  
G01 X-0.4762 Y4.1985  
G01 X-0.4808 Y4.1905  
G01 X-0.4865 Y4.1831  
G01 X-0.4931 Y4.1765  
G01 X-0.5005 Y4.1708  
G01 X-0.5085 Y4.1662  
G01 X-0.5171 Y4.1626  
G01 X-0.5232 Y4.1610  
G01 X-0.3794 Y4.1610  
G01 X-0.3110 Y4.2294  
G01 X-0.3110 Y4.7806  
G01 X-0.5535 Y5.0231  
G01 X-0.5592 Y5.0305  
G01 X-0.5638 Y5.0385  
G01 X-0.5673 Y5.0469  
G01 X-0.7814 Y5.2610  
G01 X-0.7871 Y5.2684  
G01 X-0.7918 Y5.2765  
G01 X-0.7953 Y5.2851  
G01 X-0.7977 Y5.2941  
G01 X-0.7990 Y5.3033  
G01 X-0.7990 Y5.5936  
G01 X-0.7991 Y5.5951  
G01 X-0.7991 Y5.6358  
G01 X-0.7998 Y5.6382  
G01 X-0.8010 Y5.6474  
G01 X-0.8010 Y5.6567  
G01 X-0.7998 Y5.6659  
G01 X-0.7991 Y5.6683  
G01 X-0.7991 Y5.7049  
G01 X-0.7979 Y5.7141  
G01 X-0.7955 Y5.7231  
G01 X-0.7919 Y5.7318  
G01 X-0.7873 Y5.7398  
G01 X-0.7816 Y5.7472  
G01 X-0.7750 Y5.7538  
G01 X-0.7676 Y5.7595  
G01 X-0.7595 Y5.7642  
G01 X-0.7509 Y5.7678  
G01 X-0.7419 Y5.7702  
G01 X-0.7326 Y5.7714  
G01 X-0.7233 Y5.7714  
G01 X-0.7140 Y5.7702  
G01 X-0.7050 Y5.7678  
G01 X-0.6964 Y5.7642  
G01 X-0.6883 Y5.7595  
G01 X-0.6809 Y5.7538  
G01 X-0.6743 Y5.7472  
G01 X-0.6686 Y5.7398  
G01 X-0.6640 Y5.7318  
G01 X-0.6604 Y5.7231  
G01 X-0.6580 Y5.7141  
G01 X-0.6568 Y5.7049  
G01 X-0.6568 Y5.5951  
G01 X-0.6570 Y5.5936  
G01 X-0.6570 Y5.3374  
G01 X-0.4531 Y5.1335  
G01 X-0.4465 Y5.1269  
G01 X-0.4408 Y5.1195  
G01 X-0.4362 Y5.1115  
G01 X-0.4327 Y5.1031  
G01 X-0.1931 Y4.8635  
G01 X-0.1865 Y4.8569  
G01 X-0.1808 Y4.8495  
G01 X-0.1762 Y4.8415  
G01 X-0.1726 Y4.8329  
G01 X-0.1702 Y4.8239  
G01 X-0.1690 Y4.8147  
G01 X-0.1690 Y4.2494  
G01 X-0.0431 Y4.1235  
G01 X-0.0365 Y4.1169  
G01 X-0.0308 Y4.1095  
G01 X-0.0262 Y4.1015  
G01 X-0.0226 Y4.0929  
G01 X-0.0202 Y4.0839  
G01 X-0.0190 Y4.0747  
G01 X-0.0190 Y3.6753  
G01 X-0.0202 Y3.6661  
G01 X-0.0226 Y3.6571  
G01 X-0.0262 Y3.6485  
G01 X-0.0308 Y3.6405  
G01 X-0.0365 Y3.6331  
G01 X-0.1690 Y3.5006  
G01 X-0.1690 Y2.7253  
G01 X-0.1702 Y2.7161  
G01 X-0.1726 Y2.7071  
G01 X-0.1762 Y2.6985  
G01 X-0.1808 Y2.6905  
G01 X-0.1865 Y2.6831  
G01 X-0.1931 Y2.6765  
G01 X-0.5431 Y2.3265  
G01 X-0.5505 Y2.3208  
G01 X-0.5585 Y2.3162  
G01 X-0.5671 Y2.3126  
G01 X-0.5761 Y2.3102  
G01 X-0.5853 Y2.3090  
G01 X-1.4306 Y2.3090  
G01 X-1.6690 Y2.0706  
G01 X-1.6690 Y1.6047  
G01 X-1.6690 Y1.4953  
G01 X-1.6702 Y1.4861  
G01 X-1.6726 Y1.4771  
G01 X-1.6762 Y1.4685  
G01 X-1.6808 Y1.4605  
G01 X-1.6865 Y1.4531  
G01 X-1.6931 Y1.4465  
G01 X-1.7005 Y1.4408  
G01 X-1.7085 Y1.4362  
G01 X-1.7171 Y1.4326  
G01 X-1.7261 Y1.4302  
G01 X-1.7353 Y1.4290  
G01 X-1.7447 Y1.4290  
G01 X-1.7539 Y1.4302  
G01 X-1.7629 Y1.4326  
G01 X-1.7715 Y1.4362  
G01 X-1.7795 Y1.4408  
G01 X-1.7869 Y1.4465  
G01 X-1.7935 Y1.4531  
G01 X-1.7992 Y1.4605  
G01 X-1.8038 Y1.4685  
G01 X-1.8074 Y1.4771  
G01 X-1.8098 Y1.4861  
G01 X-1.8110 Y1.4953  
G01 X-1.8110 Y2.1047  
G01 X-1.8098 Y2.1139  
G01 X-1.8074 Y2.1229  
G01 X-1.8038 Y2.1315  
G01 X-1.7992 Y2.1395  
G01 X-1.7935 Y2.1469  
G01 X-1.5135 Y2.4269  
G01 X-1.5069 Y2.4335  
G01 X-1.4995 Y2.4392  
G01 X-1.4915 Y2.4438  
G01 X-1.4829 Y2.4474  
G01 X-1.4739 Y2.4498  
G01 X-1.4647 Y2.4510  
G01 X-0.6194 Y2.4510  
G01 X-0.3110 Y2.7594  
G01 X-0.3110 Y3.4590  
G01 X-0.5417 Y3.4590  
G01 X-0.7781 Y3.2226  
G01 X-0.7843 Y3.2181  
G01 X-0.7912 Y3.2146  
G01 X-0.7985 Y3.2122  
G01 X-0.8061 Y3.2110  
G01 X-1.3797 Y3.2110  
G01 X-1.5010 Y3.0897  
G01 X-1.5010 Y2.9183  
G01 X-1.4674 Y2.9519  
G01 X-1.4619 Y2.9574  
G01 X-1.4557 Y2.9619  
G01 X-1.4488 Y2.9654  
G01 X-1.4415 Y2.9678  
G01 X-1.4339 Y2.9690  
G01 X-0.8029 Y2.9690  
G01 X-0.8058 Y2.9718  
G01 X-0.8116 Y2.9795  
G01 X-0.8165 Y2.9878  
G01 X-0.8186 Y2.9930  
G01 X-0.9966 Y2.9930  
G01 X-0.9969 Y2.9931  
G01 X-1.0022 Y2.9941  
G01 X-1.0073 Y2.9962  
G01 X-1.0075 Y2.9963  
G01 X-1.0122 Y2.9995  
G01 X-1.0163 Y3.0035  
G01 X-1.0194 Y3.0083  
G01 X-1.0216 Y3.0135  
G01 X-1.0228 Y3.0191  
G01 X-1.0228 Y3.0249  
G01 X-1.0227 Y3.0252  
G01 X-1.0216 Y3.0305  
G01 X-1.0195 Y3.0356  
G01 X-1.0194 Y3.0357  
G01 X-1.0163 Y3.0405  
G01 X-1.0122 Y3.0445  
G01 X-0.9586 Y3.0981  
G01 X-0.9568 Y3.1000  
G01 X-0.9419 Y3.1149  
G01 X-0.9411 Y3.1161  
G01 X-0.9320 Y3.1318  
G01 X-0.9270 Y3.1504  
G01 X-0.9270 Y3.1609  
G01 X-0.9259 Y3.1665  
G01 X-0.9237 Y3.1717  
G01 X-0.9205 Y3.1765  
G01 X-0.9165 Y3.1805  
G01 X-0.9117 Y3.1837  
G01 X-0.9065 Y3.1859  
G01 X-0.9009 Y3.1870  
G01 X-0.8004 Y3.1870  
G01 X-0.7818 Y3.1920  
G01 X-0.7652 Y3.2016  
G01 X-0.5382 Y3.4285  
G01 X-0.5335 Y3.4317  
G01 X-0.5282 Y3.4339  
G01 X-0.5226 Y3.4350  
G01 X-0.3611 Y3.4350  
G01 X-0.3555 Y3.4339  
G01 X-0.3503 Y3.4317  
G01 X-0.3455 Y3.4285  
G01 X-0.3415 Y3.4245  
G01 X-0.3383 Y3.4197  
G01 X-0.3361 Y3.4145  
G01 X-0.3350 Y3.4089  
G01 X-0.3350 Y2.7785  
G01 X-0.3361 Y2.7729  
G01 X-0.3383 Y2.7676  
G01 X-0.3415 Y2.7629  
G01 X-0.3455 Y2.7588  
G01 X-0.6229 Y2.4815  
G01 X-0.6276 Y2.4783  
G01 X-0.6329 Y2.4761  
G01 X-0.6385 Y2.4750  
G01 X-1.4725 Y2.4750  
G01 X-1.4967 Y2.4685  
G01 X-1.5183 Y2.4560  
G01 X-1.5407 Y2.4336  
G01 X-1.8160 Y2.1583  
G01 X-1.8285 Y2.1367  
G01 X-1.8350 Y2.1125  
G01 X-1.8350 Y1.4875  
G01 X-1.8285 Y1.4633  
G01 X-1.8160 Y1.4417  
G01 X-1.7983 Y1.4240  
G01 X-1.7767 Y1.4115  
G01 X-1.7525 Y1.4050  
G01 X-1.7275 Y1.4050  
G01 X-1.7033 Y1.4115  
G01 X-1.6817 Y1.4240  
G01 X-1.6640 Y1.4417  
G01 X-1.6515 Y1.4633  
G01 X-1.6450 Y1.4875  
G01 X-1.6450 Y2.0515  
G01 X-1.6439 Y2.0571  
G01 X-1.6417 Y2.0624  
G01 X-1.6385 Y2.0671  
G01 X-1.6345 Y2.0712  
G01 X-1.4312 Y2.2745  
G01 X-1.4271 Y2.2785  
G01 X-1.4224 Y2.2817  
G01 X-1.4171 Y2.2839  
G01 X-1.4115 Y2.2850  
G01 X-0.5775 Y2.2850  
G01 X-0.5533 Y2.2915  
G01 X-0.5317 Y2.3040  
G01 X-0.1823 Y2.6533  
G01 X-0.1640 Y2.6717  
G01 X-0.1515 Y2.6933  
G01 X-0.1450 Y2.7175  
G01 X-0.1450 Y3.4815  
G01 X-0.1439 Y3.4871  
G01 X-0.1417 Y3.4924  
G01 X-0.1386 Y3.4971  
G01 X-0.1345 Y3.5012  
G01 X-0.0965 Y3.5391  
G01 X-0.0925 Y3.5432  
G01 X-0.0878 Y3.5463  
G01 X-0.0825 Y3.5485  
G01 X-0.0769 Y3.5496  
G01 X-0.0711 Y3.5496  
G01 X-0.0659 Y3.5486  
G01 X-0.0655 Y3.5485  
G01 X-0.0603 Y3.5463  
G01 X-0.0555 Y3.5432  
G01 X-0.0515 Y3.5391  
G01 X-0.0483 Y3.5344  
G01 X-0.0461 Y3.5291  
G01 X-0.0450 Y3.5235  
G01 X-0.0450 Y0.0711  
G01 X-0.0461 Y0.0655  
G01 X-0.0483 Y0.0603  
G01 X-0.0515 Y0.0555  
G00 Z0.1000  
G00 X-0.1837 Y0.1636  
G01 Z-0.0070 F10    
G01 X-0.1636 Y0.1837  F20    
G01 X-0.1494 Y0.2083  
G01 X-0.1420 Y0.2358  
G01 X-0.1420 Y0.2642  
G01 X-0.1494 Y0.2917  
G01 X-0.1636 Y0.3163  
G01 X-0.1837 Y0.3364  
G01 X-0.2083 Y0.3506  
G01 X-0.2358 Y0.3580  
G01 X-0.2642 Y0.3580  
G01 X-0.2917 Y0.3506  
G01 X-0.3163 Y0.3364  
G01 X-0.3364 Y0.3163  
G01 X-0.3506 Y0.2917  
G01 X-0.3580 Y0.2642  
G01 X-0.3580 Y0.2358  
G01 X-0.3506 Y0.2083  
G01 X-0.3364 Y0.1837  
G01 X-0.3163 Y0.1636  
G01 X-0.2917 Y0.1494  
G01 X-0.2642 Y0.1420  
G01 X-0.2358 Y0.1420  
G01 X-0.2083 Y0.1494  
G01 X-0.1837 Y0.1636  
G00 Z0.1000  
G00 X-1.0941 Y0.6402  
G01 Z-0.0070 F10    
G01 X-1.0802 Y0.6541  F20    
G01 X-1.0704 Y0.6712  
G01 X-1.0653 Y0.6902  
G01 X-1.0653 Y0.7098  
G01 X-1.0704 Y0.7288  
G01 X-1.0802 Y0.7459  
G01 X-1.0941 Y0.7598  
G01 X-1.1112 Y0.7696  
G01 X-1.1183 Y0.7715  
G01 X-1.1192 Y0.7716  
G01 X-1.1210 Y0.7722  
G01 X-1.1229 Y0.7727  
G01 X-1.1237 Y0.7732  
G01 X-1.1246 Y0.7735  
G01 X-1.1263 Y0.7744  
G01 X-1.1280 Y0.7753  
G01 X-1.1287 Y0.7758  
G01 X-1.1296 Y0.7763  
G01 X-1.1310 Y0.7776  
G01 X-1.1325 Y0.7787  
G01 X-1.1331 Y0.7795  
G01 X-1.1339 Y0.7801  
G01 X-1.1350 Y0.7816  
G01 X-1.1363 Y0.7830  
G01 X-1.1368 Y0.7839  
G01 X-1.1373 Y0.7846  
G01 X-1.1382 Y0.7863  
G01 X-1.1391 Y0.7880  
G01 X-1.1394 Y0.7889  
G01 X-1.1399 Y0.7897  
G01 X-1.1400 Y0.7902  
G01 X-1.1401 Y0.7897  
G01 X-1.1406 Y0.7889  
G01 X-1.1409 Y0.7880  
G01 X-1.1418 Y0.7863  
G01 X-1.1427 Y0.7846  
G01 X-1.1432 Y0.7839  
G01 X-1.1437 Y0.7830  
G01 X-1.1450 Y0.7816  
G01 X-1.1461 Y0.7801  
G01 X-1.1469 Y0.7795  
G01 X-1.1475 Y0.7787  
G01 X-1.1490 Y0.7776  
G01 X-1.1504 Y0.7763  
G01 X-1.1513 Y0.7758  
G01 X-1.1520 Y0.7753  
G01 X-1.1537 Y0.7744  
G01 X-1.1554 Y0.7735  
G01 X-1.1563 Y0.7732  
G01 X-1.1571 Y0.7727  
G01 X-1.1590 Y0.7722  
G01 X-1.1608 Y0.7716  
G01 X-1.1617 Y0.7715  
G01 X-1.1688 Y0.7696  
G01 X-1.1859 Y0.7598  
G01 X-1.1998 Y0.7459  
G01 X-1.2096 Y0.7288  
G01 X-1.2147 Y0.7098  
G01 X-1.2147 Y0.6902  
G01 X-1.2096 Y0.6712  
G01 X-1.1998 Y0.6541  
G01 X-1.1859 Y0.6402  
G01 X-1.1688 Y0.6304  
G01 X-1.1498 Y0.6253  
G01 X-1.1302 Y0.6253  
G01 X-1.1112 Y0.6304  
G01 X-1.0941 Y0.6402  
G00 Z0.1000  
G00 X-1.1013 Y0.6670  
G01 Z-0.0070 F10    
G01 X-1.1070 Y0.6613  F20    
G01 X-1.1134 Y0.6567  
G01 X-1.1205 Y0.6530  
G01 X-1.1281 Y0.6506  
G01 X-1.1360 Y0.6493  
G01 X-1.1440 Y0.6493  
G01 X-1.1519 Y0.6506  
G01 X-1.1595 Y0.6530  
G01 X-1.1666 Y0.6567  
G01 X-1.1730 Y0.6613  
G01 X-1.1787 Y0.6670  
G01 X-1.1833 Y0.6734  
G01 X-1.1870 Y0.6805  
G01 X-1.1894 Y0.6881  
G01 X-1.1907 Y0.6960  
G01 X-1.1907 Y0.7040  
G01 X-1.1894 Y0.7119  
G01 X-1.1870 Y0.7195  
G01 X-1.1833 Y0.7266  
G01 X-1.1787 Y0.7330  
G01 X-1.1730 Y0.7387  
G01 X-1.1666 Y0.7433  
G01 X-1.1595 Y0.7470  
G01 X-1.1519 Y0.7494  
G01 X-1.1440 Y0.7507  
G01 X-1.1360 Y0.7507  
G01 X-1.1281 Y0.7494  
G01 X-1.1205 Y0.7470  
G01 X-1.1134 Y0.7433  
G01 X-1.1070 Y0.7387  
G01 X-1.1013 Y0.7330  
G01 X-1.0967 Y0.7266  
G01 X-1.0930 Y0.7195  
G01 X-1.0906 Y0.7119  
G01 X-1.0893 Y0.7040  
G01 X-1.0893 Y0.6960  
G01 X-1.0906 Y0.6881  
G01 X-1.0930 Y0.6805  
G01 X-1.0967 Y0.6734  
G01 X-1.1013 Y0.6670  
G00 Z0.1000  
G00 X-1.1112 Y0.8304  
G01 Z-0.0070 F10    
G01 X-1.0941 Y0.8402  F20    
G01 X-1.0802 Y0.8541  
G01 X-1.0704 Y0.8712  
G01 X-1.0653 Y0.8902  
G01 X-1.0653 Y0.9098  
G01 X-1.0704 Y0.9288  
G01 X-1.0802 Y0.9459  
G01 X-1.0941 Y0.9598  
G01 X-1.1112 Y0.9696  
G01 X-1.1302 Y0.9747  
G01 X-1.1498 Y0.9747  
G01 X-1.1688 Y0.9696  
G01 X-1.1859 Y0.9598  
G01 X-1.1998 Y0.9459  
G01 X-1.2096 Y0.9288  
G01 X-1.2147 Y0.9098  
G01 X-1.2147 Y0.8902  
G01 X-1.2096 Y0.8712  
G01 X-1.1998 Y0.8541  
G01 X-1.1859 Y0.8402  
G01 X-1.1688 Y0.8304  
G01 X-1.1617 Y0.8285  
G01 X-1.1608 Y0.8284  
G01 X-1.1590 Y0.8278  
G01 X-1.1571 Y0.8273  
G01 X-1.1563 Y0.8268  
G01 X-1.1554 Y0.8265  
G01 X-1.1537 Y0.8256  
G01 X-1.1520 Y0.8247  
G01 X-1.1513 Y0.8242  
G01 X-1.1504 Y0.8237  
G01 X-1.1490 Y0.8224  
G01 X-1.1475 Y0.8213  
G01 X-1.1469 Y0.8206  
G01 X-1.1461 Y0.8199  
G01 X-1.1450 Y0.8184  
G01 X-1.1437 Y0.8170  
G01 X-1.1432 Y0.8161  
G01 X-1.1427 Y0.8154  
G01 X-1.1418 Y0.8137  
G01 X-1.1409 Y0.8120  
G01 X-1.1406 Y0.8111  
G01 X-1.1401 Y0.8103  
G01 X-1.1400 Y0.8098  
G01 X-1.1399 Y0.8103  
G01 X-1.1394 Y0.8111  
G01 X-1.1391 Y0.8120  
G01 X-1.1382 Y0.8137  
G01 X-1.1373 Y0.8154  
G01 X-1.1368 Y0.8161  
G01 X-1.1363 Y0.8170  
G01 X-1.1350 Y0.8184  
G01 X-1.1339 Y0.8199  
G01 X-1.1331 Y0.8206  
G01 X-1.1325 Y0.8213  
G01 X-1.1310 Y0.8224  
G01 X-1.1296 Y0.8237  
G01 X-1.1287 Y0.8242  
G01 X-1.1280 Y0.8247  
G01 X-1.1263 Y0.8256  
G01 X-1.1246 Y0.8265  
G01 X-1.1237 Y0.8268  
G01 X-1.1229 Y0.8273  
G01 X-1.1210 Y0.8278  
G01 X-1.1192 Y0.8284  
G01 X-1.1183 Y0.8285  
G01 X-1.1112 Y0.8304  
G00 Z0.1000  
G00 X-1.1134 Y0.8567  
G01 Z-0.0070 F10    
G01 X-1.1205 Y0.8530  F20    
G01 X-1.1281 Y0.8506  
G01 X-1.1360 Y0.8493  
G01 X-1.1440 Y0.8493  
G01 X-1.1519 Y0.8506  
G01 X-1.1595 Y0.8530  
G01 X-1.1666 Y0.8567  
G01 X-1.1730 Y0.8613  
G01 X-1.1787 Y0.8670  
G01 X-1.1833 Y0.8734  
G01 X-1.1870 Y0.8805  
G01 X-1.1894 Y0.8881  
G01 X-1.1907 Y0.8960  
G01 X-1.1907 Y0.9040  
G01 X-1.1894 Y0.9119  
G01 X-1.1870 Y0.9195  
G01 X-1.1833 Y0.9266  
G01 X-1.1787 Y0.9330  
G01 X-1.1730 Y0.9387  
G01 X-1.1666 Y0.9433  
G01 X-1.1595 Y0.9470  
G01 X-1.1519 Y0.9494  
G01 X-1.1440 Y0.9507  
G01 X-1.1360 Y0.9507  
G01 X-1.1281 Y0.9494  
G01 X-1.1205 Y0.9470  
G01 X-1.1134 Y0.9433  
G01 X-1.1070 Y0.9387  
G01 X-1.1013 Y0.9330  
G01 X-1.0967 Y0.9266  
G01 X-1.0930 Y0.9195  
G01 X-1.0906 Y0.9119  
G01 X-1.0893 Y0.9040  
G01 X-1.0893 Y0.8960  
G01 X-1.0906 Y0.8881  
G01 X-1.0930 Y0.8805  
G01 X-1.0967 Y0.8734  
G01 X-1.1013 Y0.8670  
G01 X-1.1070 Y0.8613  
G01 X-1.1134 Y0.8567  
G00 Z0.1000  
G00 X-1.6580 Y0.8660  
G01 Z-0.0070 F10    
G01 X-1.6520 Y0.8884  F20    
G01 X-1.6520 Y0.9116  
G01 X-1.6580 Y0.9340  
G01 X-1.6696 Y0.9540  
G01 X-1.6860 Y0.9704  
G01 X-1.7060 Y0.9820  
G01 X-1.7284 Y0.9880  
G01 X-2.4445 Y0.9880  
G01 X-2.4467 Y0.9884  
G01 X-2.4501 Y0.9891  
G01 X-2.4554 Y0.9913  
G01 X-2.4569 Y0.9923  
G01 X-2.4601 Y0.9945  
G01 X-2.4606 Y0.9950  
G01 X-3.3425 Y0.9950  
G01 X-3.3667 Y0.9885  
G01 X-3.3883 Y0.9760  
G01 X-3.4060 Y0.9583  
G01 X-3.4185 Y0.9367  
G01 X-3.4250 Y0.9125  
G01 X-3.4250 Y0.8875  
G01 X-3.4185 Y0.8633  
G01 X-3.4060 Y0.8417  
G01 X-3.3883 Y0.8240  
G01 X-3.3878 Y0.8237  
G01 X-3.3864 Y0.8224  
G01 X-3.3849 Y0.8213  
G01 X-3.3842 Y0.8205  
G01 X-3.3835 Y0.8199  
G01 X-3.3824 Y0.8184  
G01 X-3.3811 Y0.8170  
G01 X-3.3806 Y0.8161  
G01 X-3.3800 Y0.8154  
G01 X-3.3792 Y0.8137  
G01 X-3.3783 Y0.8120  
G01 X-3.3779 Y0.8111  
G01 X-3.3775 Y0.8103  
G01 X-3.3770 Y0.8084  
G01 X-3.3764 Y0.8066  
G01 X-3.3763 Y0.8057  
G01 X-3.3760 Y0.8047  
G01 X-3.3759 Y0.8028  
G01 X-3.3757 Y0.8010  
G01 X-3.3757 Y0.8000  
G01 X-3.3757 Y0.7990  
G01 X-3.3759 Y0.7972  
G01 X-3.3760 Y0.7953  
G01 X-3.3763 Y0.7943  
G01 X-3.3764 Y0.7934  
G01 X-3.3770 Y0.7916  
G01 X-3.3775 Y0.7897  
G01 X-3.3779 Y0.7889  
G01 X-3.3783 Y0.7880  
G01 X-3.3792 Y0.7863  
G01 X-3.3801 Y0.7846  
G01 X-3.3806 Y0.7839  
G01 X-3.3811 Y0.7830  
G01 X-3.3824 Y0.7816  
G01 X-3.3835 Y0.7801  
G01 X-3.3842 Y0.7794  
G01 X-3.3849 Y0.7787  
G01 X-3.3864 Y0.7776  
G01 X-3.3878 Y0.7763  
G01 X-3.3883 Y0.7760  
G01 X-3.4060 Y0.7583  
G01 X-3.4185 Y0.7367  
G01 X-3.4250 Y0.7125  
G01 X-3.4250 Y0.6875  
G01 X-3.4185 Y0.6633  
G01 X-3.4060 Y0.6417  
G01 X-3.3883 Y0.6240  
G01 X-3.3667 Y0.6115  
G01 X-3.3425 Y0.6050  
G01 X-2.4875 Y0.6050  
G01 X-2.4669 Y0.6105  
G01 X-2.4660 Y0.6109  
G01 X-2.4641 Y0.6113  
G01 X-2.4623 Y0.6118  
G01 X-2.4613 Y0.6118  
G01 X-2.4604 Y0.6120  
G01 X-2.4585 Y0.6120  
G01 X-2.4566 Y0.6121  
G01 X-2.4556 Y0.6120  
G01 X-1.7284 Y0.6120  
G01 X-1.7060 Y0.6180  
G01 X-1.6860 Y0.6296  
G01 X-1.6696 Y0.6460  
G01 X-1.6580 Y0.6660  
G01 X-1.6520 Y0.6884  
G01 X-1.6520 Y0.7116  
G01 X-1.6580 Y0.7340  
G01 X-1.6696 Y0.7540  
G01 X-1.6860 Y0.7704  
G01 X-1.6929 Y0.7744  
G01 X-1.6946 Y0.7753  
G01 X-1.6954 Y0.7758  
G01 X-1.6962 Y0.7763  
G01 X-1.6976 Y0.7776  
G01 X-1.6991 Y0.7787  
G01 X-1.6998 Y0.7794  
G01 X-1.7005 Y0.7801  
G01 X-1.7016 Y0.7816  
G01 X-1.7029 Y0.7830  
G01 X-1.7034 Y0.7839  
G01 X-1.7040 Y0.7846  
G01 X-1.7048 Y0.7863  
G01 X-1.7057 Y0.7880  
G01 X-1.7061 Y0.7889  
G01 X-1.7065 Y0.7897  
G01 X-1.7070 Y0.7916  
G01 X-1.7076 Y0.7934  
G01 X-1.7077 Y0.7943  
G01 X-1.7080 Y0.7953  
G01 X-1.7081 Y0.7972  
G01 X-1.7083 Y0.7990  
G01 X-1.7083 Y0.8000  
G01 X-1.7083 Y0.8010  
G01 X-1.7081 Y0.8028  
G01 X-1.7080 Y0.8047  
G01 X-1.7077 Y0.8057  
G01 X-1.7076 Y0.8066  
G01 X-1.7070 Y0.8084  
G01 X-1.7065 Y0.8103  
G01 X-1.7061 Y0.8111  
G01 X-1.7057 Y0.8120  
G01 X-1.7048 Y0.8137  
G01 X-1.7040 Y0.8154  
G01 X-1.7034 Y0.8161  
G01 X-1.7029 Y0.8170  
G01 X-1.7016 Y0.8184  
G01 X-1.7005 Y0.8199  
G01 X-1.6998 Y0.8205  
G01 X-1.6991 Y0.8213  
G01 X-1.6976 Y0.8224  
G01 X-1.6962 Y0.8237  
G01 X-1.6954 Y0.8242  
G01 X-1.6946 Y0.8247  
G01 X-1.6929 Y0.8256  
G01 X-1.6860 Y0.8296  
G01 X-1.6696 Y0.8460  
G01 X-1.6580 Y0.8660  
G00 Z0.1000  
G00 X-1.6825 Y0.8716  
G01 Z-0.0070 F10    
G01 X-1.6867 Y0.8644  F20    
G01 X-1.6918 Y0.8577  
G01 X-1.6977 Y0.8518  
G01 X-1.7044 Y0.8467  
G01 X-1.7116 Y0.8425  
G01 X-1.7194 Y0.8393  
G01 X-1.7275 Y0.8371  
G01 X-1.7358 Y0.8360  
G01 X-2.4636 Y0.8360  
G01 X-2.4706 Y0.8290  
G01 X-3.3347 Y0.8290  
G01 X-3.3439 Y0.8302  
G01 X-3.3529 Y0.8326  
G01 X-3.3615 Y0.8362  
G01 X-3.3695 Y0.8408  
G01 X-3.3769 Y0.8465  
G01 X-3.3835 Y0.8531  
G01 X-3.3892 Y0.8605  
G01 X-3.3938 Y0.8685  
G01 X-3.3974 Y0.8771  
G01 X-3.3998 Y0.8861  
G01 X-3.4010 Y0.8953  
G01 X-3.4010 Y0.9047  
G01 X-3.3998 Y0.9139  
G01 X-3.3974 Y0.9229  
G01 X-3.3938 Y0.9315  
G01 X-3.3892 Y0.9395  
G01 X-3.3835 Y0.9469  
G01 X-3.3769 Y0.9535  
G01 X-3.3695 Y0.9592  
G01 X-3.3615 Y0.9638  
G01 X-3.3529 Y0.9674  
G01 X-3.3439 Y0.9698  
G01 X-3.3347 Y0.9710  
G01 X-2.4953 Y0.9710  
G01 X-2.4706 Y0.9710  
G01 X-2.4636 Y0.9640  
G01 X-1.7358 Y0.9640  
G01 X-1.7275 Y0.9629  
G01 X-1.7194 Y0.9607  
G01 X-1.7116 Y0.9575  
G01 X-1.7044 Y0.9533  
G01 X-1.6977 Y0.9482  
G01 X-1.6918 Y0.9423  
G01 X-1.6867 Y0.9356  
G01 X-1.6825 Y0.9284  
G01 X-1.6793 Y0.9206  
G01 X-1.6771 Y0.9125  
G01 X-1.6760 Y0.9042  
G01 X-1.6760 Y0.8958  
G01 X-1.6771 Y0.8875  
G01 X-1.6793 Y0.8794  
G01 X-1.6825 Y0.8716  
G00 Z0.1000  
G00 X-1.6977 Y0.7482  
G01 Z-0.0070 F10    
G01 X-1.6918 Y0.7423  F20    
G01 X-1.6867 Y0.7356  
G01 X-1.6825 Y0.7284  
G01 X-1.6793 Y0.7206  
G01 X-1.6771 Y0.7125  
G01 X-1.6760 Y0.7042  
G01 X-1.6760 Y0.6958  
G01 X-1.6771 Y0.6875  
G01 X-1.6793 Y0.6794  
G01 X-1.6825 Y0.6716  
G01 X-1.6867 Y0.6644  
G01 X-1.6918 Y0.6577  
G01 X-1.6977 Y0.6518  
G01 X-1.7044 Y0.6467  
G01 X-1.7116 Y0.6425  
G01 X-1.7194 Y0.6393  
G01 X-1.7275 Y0.6371  
G01 X-1.7358 Y0.6360  
G01 X-2.4690 Y0.6360  
G01 X-2.4771 Y0.6326  
G01 X-2.4861 Y0.6302  
G01 X-2.4953 Y0.6290  
G01 X-3.3347 Y0.6290  
G01 X-3.3439 Y0.6302  
G01 X-3.3529 Y0.6326  
G01 X-3.3615 Y0.6362  
G01 X-3.3695 Y0.6408  
G01 X-3.3769 Y0.6465  
G01 X-3.3835 Y0.6531  
G01 X-3.3892 Y0.6605  
G01 X-3.3938 Y0.6685  
G01 X-3.3974 Y0.6771  
G01 X-3.3998 Y0.6861  
G01 X-3.4010 Y0.6953  
G01 X-3.4010 Y0.7047  
G01 X-3.3998 Y0.7139  
G01 X-3.3974 Y0.7229  
G01 X-3.3938 Y0.7315  
G01 X-3.3892 Y0.7395  
G01 X-3.3835 Y0.7469  
G01 X-3.3769 Y0.7535  
G01 X-3.3695 Y0.7592  
G01 X-3.3615 Y0.7638  
G01 X-3.3529 Y0.7674  
G01 X-3.3439 Y0.7698  
G01 X-3.3347 Y0.7710  
G01 X-2.4953 Y0.7710  
G01 X-2.4861 Y0.7698  
G01 X-2.4771 Y0.7674  
G01 X-2.4690 Y0.7640  
G01 X-1.7358 Y0.7640  
G01 X-1.7275 Y0.7629  
G01 X-1.7194 Y0.7607  
G01 X-1.7116 Y0.7575  
G01 X-1.7044 Y0.7533  
G01 X-1.6977 Y0.7482  
G00 Z0.1000  
G00 X-2.2642 Y1.2234  
G01 Z-0.0070 F10    
G01 X-2.2694 Y1.2182  F20    
G01 X-2.2754 Y1.2138  
G01 X-2.2820 Y1.2104  
G01 X-2.2890 Y1.2082  
G01 X-2.2963 Y1.2070  
G01 X-2.3037 Y1.2070  
G01 X-2.3110 Y1.2082  
G01 X-2.3180 Y1.2104  
G01 X-2.3246 Y1.2138  
G01 X-2.3306 Y1.2182  
G01 X-2.3358 Y1.2234  
G01 X-2.3402 Y1.2294  
G01 X-2.3409 Y1.2307  
G01 X-2.3423 Y1.2318  
G01 X-2.3482 Y1.2377  
G01 X-2.3533 Y1.2444  
G01 X-2.3538 Y1.2452  
G01 X-2.3542 Y1.2430  
G01 X-2.3564 Y1.2360  
G01 X-2.3598 Y1.2294  
G01 X-2.3642 Y1.2234  
G01 X-2.3694 Y1.2182  
G01 X-2.3754 Y1.2138  
G01 X-2.3820 Y1.2104  
G01 X-2.3890 Y1.2082  
G01 X-2.3963 Y1.2070  
G01 X-2.4037 Y1.2070  
G01 X-2.4110 Y1.2082  
G01 X-2.4180 Y1.2104  
G01 X-2.4246 Y1.2138  
G01 X-2.4306 Y1.2182  
G01 X-2.4358 Y1.2234  
G01 X-2.4402 Y1.2294  
G01 X-2.4436 Y1.2360  
G01 X-2.4458 Y1.2430  
G01 X-2.4470 Y1.2503  
G01 X-2.4470 Y1.3097  
G01 X-2.4458 Y1.3170  
G01 X-2.4436 Y1.3240  
G01 X-2.4402 Y1.3306  
G01 X-2.4358 Y1.3366  
G01 X-2.4306 Y1.3418  
G01 X-2.4246 Y1.3462  
G01 X-2.4180 Y1.3496  
G01 X-2.4110 Y1.3518  
G01 X-2.4037 Y1.3530  
G01 X-2.3963 Y1.3530  
G01 X-2.3890 Y1.3518  
G01 X-2.3820 Y1.3496  
G01 X-2.3754 Y1.3462  
G01 X-2.3694 Y1.3418  
G01 X-2.3642 Y1.3366  
G01 X-2.3598 Y1.3306  
G01 X-2.3564 Y1.3240  
G01 X-2.3542 Y1.3170  
G01 X-2.3538 Y1.3148  
G01 X-2.3533 Y1.3156  
G01 X-2.3482 Y1.3223  
G01 X-2.3405 Y1.3300  
G01 X-2.3402 Y1.3306  
G01 X-2.3358 Y1.3366  
G01 X-2.3306 Y1.3418  
G01 X-2.3246 Y1.3462  
G01 X-2.3240 Y1.3465  
G01 X-2.2340 Y1.4365  
G01 X-2.2340 Y2.1735  
G01 X-2.3482 Y2.2877  
G01 X-2.3533 Y2.2944  
G01 X-2.3575 Y2.3016  
G01 X-2.3607 Y2.3094  
G01 X-2.3629 Y2.3175  
G01 X-2.3640 Y2.3258  
G01 X-2.3640 Y2.3342  
G01 X-2.3640 Y2.6442  
G01 X-2.3629 Y2.6525  
G01 X-2.3607 Y2.6606  
G01 X-2.3575 Y2.6684  
G01 X-2.3533 Y2.6756  
G01 X-2.3482 Y2.6823  
G01 X-2.3423 Y2.6882  
G01 X-2.3356 Y2.6933  
G01 X-2.3284 Y2.6975  
G01 X-2.3206 Y2.7007  
G01 X-2.3125 Y2.7029  
G01 X-2.3042 Y2.7040  
G01 X-2.2958 Y2.7040  
G01 X-2.2875 Y2.7029  
G01 X-2.2794 Y2.7007  
G01 X-2.2716 Y2.6975  
G01 X-2.2644 Y2.6933  
G01 X-2.2577 Y2.6882  
G01 X-2.2518 Y2.6823  
G01 X-2.2467 Y2.6756  
G01 X-2.2425 Y2.6684  
G01 X-2.2393 Y2.6606  
G01 X-2.2371 Y2.6525  
G01 X-2.2360 Y2.6442  
G01 X-2.2360 Y2.3565  
G01 X-2.1277 Y2.2482  
G01 X-2.1218 Y2.2423  
G01 X-2.1167 Y2.2356  
G01 X-2.1125 Y2.2284  
G01 X-2.1093 Y2.2206  
G01 X-2.1071 Y2.2125  
G01 X-2.1060 Y2.2042  
G01 X-2.1060 Y1.4058  
G01 X-2.1071 Y1.3975  
G01 X-2.1093 Y1.3894  
G01 X-2.1125 Y1.3816  
G01 X-2.1167 Y1.3744  
G01 X-2.1218 Y1.3677  
G01 X-2.2577 Y1.2318  
G01 X-2.2591 Y1.2307  
G01 X-2.2598 Y1.2294  
G01 X-2.2642 Y1.2234  
G00 Z0.1000  
G00 X-2.2642 Y1.5234  
G01 Z-0.0070 F10    
G01 X-2.2694 Y1.5182  F20    
G01 X-2.2754 Y1.5138  
G01 X-2.2820 Y1.5104  
G01 X-2.2890 Y1.5082  
G01 X-2.2963 Y1.5070  
G01 X-2.3037 Y1.5070  
G01 X-2.3110 Y1.5082  
G01 X-2.3180 Y1.5104  
G01 X-2.3246 Y1.5138  
G01 X-2.3306 Y1.5182  
G01 X-2.3358 Y1.5234  
G01 X-2.3402 Y1.5294  
G01 X-2.3409 Y1.5307  
G01 X-2.3423 Y1.5318  
G01 X-2.3482 Y1.5377  
G01 X-2.3533 Y1.5444  
G01 X-2.3538 Y1.5452  
G01 X-2.3542 Y1.5430  
G01 X-2.3564 Y1.5360  
G01 X-2.3598 Y1.5294  
G01 X-2.3642 Y1.5234  
G01 X-2.3694 Y1.5182  
G01 X-2.3754 Y1.5138  
G01 X-2.3820 Y1.5104  
G01 X-2.3890 Y1.5082  
G01 X-2.3963 Y1.5070  
G01 X-2.4037 Y1.5070  
G01 X-2.4110 Y1.5082  
G01 X-2.4180 Y1.5104  
G01 X-2.4246 Y1.5138  
G01 X-2.4306 Y1.5182  
G01 X-2.4358 Y1.5234  
G01 X-2.4402 Y1.5294  
G01 X-2.4436 Y1.5360  
G01 X-2.4458 Y1.5430  
G01 X-2.4470 Y1.5503  
G01 X-2.4470 Y1.6097  
G01 X-2.4458 Y1.6170  
G01 X-2.4436 Y1.6240  
G01 X-2.4402 Y1.6306  
G01 X-2.4358 Y1.6366  
G01 X-2.4306 Y1.6418  
G01 X-2.4246 Y1.6462  
G01 X-2.4180 Y1.6496  
G01 X-2.4110 Y1.6518  
G01 X-2.4037 Y1.6530  
G01 X-2.3963 Y1.6530  
G01 X-2.3890 Y1.6518  
G01 X-2.3820 Y1.6496  
G01 X-2.3754 Y1.6462  
G01 X-2.3694 Y1.6418  
G01 X-2.3642 Y1.6366  
G01 X-2.3640 Y1.6364  
G01 X-2.3640 Y2.0935  
G01 X-2.4365 Y2.1660  
G01 X-2.5436 Y2.1660  
G01 X-2.5506 Y2.1590  
G01 X-2.6094 Y2.1590  
G01 X-2.6164 Y2.1660  
G01 X-3.2560 Y2.1660  
G01 X-3.2560 Y1.9758  
G01 X-3.2571 Y1.9675  
G01 X-3.2593 Y1.9594  
G01 X-3.2625 Y1.9516  
G01 X-3.2667 Y1.9444  
G01 X-3.2718 Y1.9377  
G01 X-3.2777 Y1.9318  
G01 X-3.2791 Y1.9307  
G01 X-3.2798 Y1.9294  
G01 X-3.2842 Y1.9234  
G01 X-3.2894 Y1.9182  
G01 X-3.2954 Y1.9138  
G01 X-3.3020 Y1.9104  
G01 X-3.3090 Y1.9082  
G01 X-3.3163 Y1.9070  
G01 X-3.3237 Y1.9070  
G01 X-3.3310 Y1.9082  
G01 X-3.3380 Y1.9104  
G01 X-3.3446 Y1.9138  
G01 X-3.3506 Y1.9182  
G01 X-3.3558 Y1.9234  
G01 X-3.3602 Y1.9294  
G01 X-3.3609 Y1.9307  
G01 X-3.3623 Y1.9318  
G01 X-3.3682 Y1.9377  
G01 X-3.3733 Y1.9444  
G01 X-3.3775 Y1.9516  
G01 X-3.3807 Y1.9594  
G01 X-3.3829 Y1.9675  
G01 X-3.3840 Y1.9758  
G01 X-3.3840 Y2.2342  
G01 X-3.3829 Y2.2425  
G01 X-3.3807 Y2.2506  
G01 X-3.3775 Y2.2584  
G01 X-3.3733 Y2.2656  
G01 X-3.3682 Y2.2723  
G01 X-3.3623 Y2.2782  
G01 X-3.3556 Y2.2833  
G01 X-3.3484 Y2.2875  
G01 X-3.3406 Y2.2907  
G01 X-3.3325 Y2.2929  
G01 X-3.3242 Y2.2940  
G01 X-2.6164 Y2.2940  
G01 X-2.6094 Y2.3010  
G01 X-2.5506 Y2.3010  
G01 X-2.5436 Y2.2940  
G01 X-2.4058 Y2.2940  
G01 X-2.3975 Y2.2929  
G01 X-2.3894 Y2.2907  
G01 X-2.3816 Y2.2875  
G01 X-2.3744 Y2.2833  
G01 X-2.3677 Y2.2782  
G01 X-2.2577 Y2.1682  
G01 X-2.2518 Y2.1623  
G01 X-2.2467 Y2.1556  
G01 X-2.2425 Y2.1484  
G01 X-2.2393 Y2.1406  
G01 X-2.2371 Y2.1325  
G01 X-2.2360 Y2.1242  
G01 X-2.2360 Y1.5758  
G01 X-2.2371 Y1.5675  
G01 X-2.2393 Y1.5594  
G01 X-2.2425 Y1.5516  
G01 X-2.2467 Y1.5444  
G01 X-2.2518 Y1.5377  
G01 X-2.2577 Y1.5318  
G01 X-2.2591 Y1.5307  
G01 X-2.2598 Y1.5294  
G01 X-2.2642 Y1.5234  
G00 Z0.1000  
G00 X-2.4642 Y1.5234  
G01 Z-0.0070 F10    
G01 X-2.4694 Y1.5182  F20    
G01 X-2.4754 Y1.5138  
G01 X-2.4820 Y1.5104  
G01 X-2.4890 Y1.5082  
G01 X-2.4963 Y1.5070  
G01 X-2.5037 Y1.5070  
G01 X-2.5110 Y1.5082  
G01 X-2.5180 Y1.5104  
G01 X-2.5246 Y1.5138  
G01 X-2.5306 Y1.5182  
G01 X-2.5358 Y1.5234  
G01 X-2.5402 Y1.5294  
G01 X-2.5410 Y1.5310  
G01 X-2.8339 Y1.5310  
G01 X-2.8415 Y1.5322  
G01 X-2.8439 Y1.5330  
G01 X-2.8495 Y1.5330  
G01 X-2.8534 Y1.5369  
G01 X-2.8557 Y1.5381  
G01 X-2.8619 Y1.5426  
G01 X-2.8674 Y1.5481  
G01 X-2.8719 Y1.5543  
G01 X-2.8731 Y1.5566  
G01 X-2.8770 Y1.5605  
G01 X-2.8770 Y1.5661  
G01 X-2.8778 Y1.5685  
G01 X-2.8790 Y1.5761  
G01 X-2.8790 Y1.5839  
G01 X-2.8778 Y1.5915  
G01 X-2.8770 Y1.5939  
G01 X-2.8770 Y1.5995  
G01 X-2.8731 Y1.6034  
G01 X-2.8719 Y1.6057  
G01 X-2.8674 Y1.6119  
G01 X-2.8619 Y1.6174  
G01 X-2.8557 Y1.6219  
G01 X-2.8534 Y1.6231  
G01 X-2.8495 Y1.6270  
G01 X-2.8439 Y1.6270  
G01 X-2.8415 Y1.6278  
G01 X-2.8339 Y1.6290  
G01 X-2.5410 Y1.6290  
G01 X-2.5402 Y1.6306  
G01 X-2.5358 Y1.6366  
G01 X-2.5306 Y1.6418  
G01 X-2.5246 Y1.6462  
G01 X-2.5180 Y1.6496  
G01 X-2.5110 Y1.6518  
G01 X-2.5037 Y1.6530  
G01 X-2.4963 Y1.6530  
G01 X-2.4890 Y1.6518  
G01 X-2.4820 Y1.6496  
G01 X-2.4754 Y1.6462  
G01 X-2.4694 Y1.6418  
G01 X-2.4642 Y1.6366  
G01 X-2.4598 Y1.6306  
G01 X-2.4564 Y1.6240  
G01 X-2.4542 Y1.6170  
G01 X-2.4530 Y1.6097  
G01 X-2.4530 Y1.5939  
G01 X-2.4522 Y1.5915  
G01 X-2.4510 Y1.5839  
G01 X-2.4510 Y1.5761  
G01 X-2.4522 Y1.5685  
G01 X-2.4530 Y1.5661  
G01 X-2.4530 Y1.5503  
G01 X-2.4542 Y1.5430  
G01 X-2.4564 Y1.5360  
G01 X-2.4598 Y1.5294  
G01 X-2.4642 Y1.5234  
G00 Z0.1000  
G00 X-2.9716 Y1.5352  
G01 Z-0.0070 F10    
G01 X-2.9706 Y1.5369  F20    
G01 X-2.9702 Y1.5378  
G01 X-2.9692 Y1.5394  
G01 X-2.9682 Y1.5410  
G01 X-2.9676 Y1.5418  
G01 X-2.9670 Y1.5425  
G01 X-2.9657 Y1.5439  
G01 X-2.9644 Y1.5453  
G01 X-2.9637 Y1.5459  
G01 X-2.9590 Y1.5506  
G01 X-2.9590 Y1.5581  
G01 X-2.9591 Y1.5599  
G01 X-2.9590 Y1.5609  
G01 X-2.9590 Y1.5620  
G01 X-2.9586 Y1.5638  
G01 X-2.9584 Y1.5656  
G01 X-2.9581 Y1.5666  
G01 X-2.9579 Y1.5676  
G01 X-2.9572 Y1.5693  
G01 X-2.9566 Y1.5710  
G01 X-2.9561 Y1.5719  
G01 X-2.9557 Y1.5728  
G01 X-2.9547 Y1.5744  
G01 X-2.9538 Y1.5760  
G01 X-2.9531 Y1.5767  
G01 X-2.9525 Y1.5776  
G01 X-2.9512 Y1.5789  
G01 X-2.9503 Y1.5800  
G01 X-2.9512 Y1.5811  
G01 X-2.9525 Y1.5824  
G01 X-2.9531 Y1.5833  
G01 X-2.9538 Y1.5840  
G01 X-2.9547 Y1.5856  
G01 X-2.9557 Y1.5872  
G01 X-2.9561 Y1.5881  
G01 X-2.9566 Y1.5890  
G01 X-2.9572 Y1.5907  
G01 X-2.9579 Y1.5924  
G01 X-2.9581 Y1.5934  
G01 X-2.9584 Y1.5944  
G01 X-2.9586 Y1.5962  
G01 X-2.9590 Y1.5980  
G01 X-2.9590 Y1.5991  
G01 X-2.9591 Y1.6001  
G01 X-2.9590 Y1.6019  
G01 X-2.9590 Y1.6094  
G01 X-2.9637 Y1.6141  
G01 X-2.9644 Y1.6147  
G01 X-2.9657 Y1.6161  
G01 X-2.9670 Y1.6175  
G01 X-2.9676 Y1.6182  
G01 X-2.9682 Y1.6190  
G01 X-2.9692 Y1.6206  
G01 X-2.9702 Y1.6222  
G01 X-2.9706 Y1.6231  
G01 X-2.9716 Y1.6248  
G01 X-2.9852 Y1.6384  
G01 X-2.9869 Y1.6394  
G01 X-2.9878 Y1.6398  
G01 X-2.9894 Y1.6408  
G01 X-2.9910 Y1.6418  
G01 X-2.9918 Y1.6424  
G01 X-2.9925 Y1.6430  
G01 X-2.9939 Y1.6443  
G01 X-2.9953 Y1.6456  
G01 X-2.9959 Y1.6463  
G01 X-3.0006 Y1.6510  
G01 X-3.0072 Y1.6510  
G01 X-3.0082 Y1.6509  
G01 X-3.0101 Y1.6510  
G01 X-3.0120 Y1.6510  
G01 X-3.0129 Y1.6512  
G01 X-3.0139 Y1.6512  
G01 X-3.0157 Y1.6517  
G01 X-3.0176 Y1.6521  
G01 X-3.0184 Y1.6525  
G01 X-3.0204 Y1.6530  
G01 X-3.2574 Y1.6530  
G01 X-3.2587 Y1.6533  
G01 X-3.2630 Y1.6541  
G01 X-3.2647 Y1.6548  
G01 X-3.2683 Y1.6563  
G01 X-3.2714 Y1.6584  
G01 X-3.2731 Y1.6595  
G01 X-3.2771 Y1.6635  
G01 X-3.2798 Y1.6662  
G01 X-3.3059 Y1.6770  
G01 X-3.3341 Y1.6770  
G01 X-3.3602 Y1.6662  
G01 X-3.3802 Y1.6462  
G01 X-3.3910 Y1.6201  
G01 X-3.3910 Y1.6028  
G01 X-3.3909 Y1.6018  
G01 X-3.3910 Y1.5999  
G01 X-3.3910 Y1.5980  
G01 X-3.3912 Y1.5971  
G01 X-3.3912 Y1.5961  
G01 X-3.3917 Y1.5943  
G01 X-3.3921 Y1.5924  
G01 X-3.3925 Y1.5916  
G01 X-3.3930 Y1.5896  
G01 X-3.3930 Y1.5704  
G01 X-3.3925 Y1.5684  
G01 X-3.3921 Y1.5676  
G01 X-3.3917 Y1.5657  
G01 X-3.3912 Y1.5639  
G01 X-3.3912 Y1.5629  
G01 X-3.3910 Y1.5620  
G01 X-3.3910 Y1.5601  
G01 X-3.3909 Y1.5582  
G01 X-3.3910 Y1.5572  
G01 X-3.3910 Y1.5399  
G01 X-3.3802 Y1.5138  
G01 X-3.3602 Y1.4938  
G01 X-3.3341 Y1.4830  
G01 X-3.3059 Y1.4830  
G01 X-3.2798 Y1.4938  
G01 X-3.2771 Y1.4965  
G01 X-3.2733 Y1.5003  
G01 X-3.2731 Y1.5005  
G01 X-3.2716 Y1.5015  
G01 X-3.2683 Y1.5037  
G01 X-3.2645 Y1.5053  
G01 X-3.2630 Y1.5059  
G01 X-3.2589 Y1.5067  
G01 X-3.2574 Y1.5070  
G01 X-3.0204 Y1.5070  
G01 X-3.0184 Y1.5075  
G01 X-3.0176 Y1.5079  
G01 X-3.0157 Y1.5083  
G01 X-3.0139 Y1.5088  
G01 X-3.0129 Y1.5088  
G01 X-3.0120 Y1.5090  
G01 X-3.0101 Y1.5090  
G01 X-3.0082 Y1.5091  
G01 X-3.0072 Y1.5090  
G01 X-3.0006 Y1.5090  
G01 X-2.9959 Y1.5137  
G01 X-2.9953 Y1.5144  
G01 X-2.9939 Y1.5157  
G01 X-2.9925 Y1.5170  
G01 X-2.9918 Y1.5176  
G01 X-2.9910 Y1.5182  
G01 X-2.9894 Y1.5192  
G01 X-2.9878 Y1.5202  
G01 X-2.9869 Y1.5206  
G01 X-2.9852 Y1.5216  
G01 X-2.9716 Y1.5352  
G00 Z0.1000  
G00 X-2.9926 Y1.5481  
G01 Z-0.0070 F10    
G01 X-2.9981 Y1.5426  F20    
G01 X-3.0043 Y1.5381  
G01 X-3.0066 Y1.5369  
G01 X-3.0105 Y1.5330  
G01 X-3.0161 Y1.5330  
G01 X-3.0185 Y1.5322  
G01 X-3.0261 Y1.5310  
G01 X-3.2790 Y1.5310  
G01 X-3.2798 Y1.5294  
G01 X-3.2842 Y1.5234  
G01 X-3.2894 Y1.5182  
G01 X-3.2954 Y1.5138  
G01 X-3.3020 Y1.5104  
G01 X-3.3090 Y1.5082  
G01 X-3.3163 Y1.5070  
G01 X-3.3237 Y1.5070  
G01 X-3.3310 Y1.5082  
G01 X-3.3380 Y1.5104  
G01 X-3.3446 Y1.5138  
G01 X-3.3506 Y1.5182  
G01 X-3.3558 Y1.5234  
G01 X-3.3602 Y1.5294  
G01 X-3.3636 Y1.5360  
G01 X-3.3658 Y1.5430  
G01 X-3.3670 Y1.5503  
G01 X-3.3670 Y1.5661  
G01 X-3.3678 Y1.5685  
G01 X-3.3690 Y1.5761  
G01 X-3.3690 Y1.5839  
G01 X-3.3678 Y1.5915  
G01 X-3.3670 Y1.5939  
G01 X-3.3670 Y1.6097  
G01 X-3.3658 Y1.6170  
G01 X-3.3636 Y1.6240  
G01 X-3.3602 Y1.6306  
G01 X-3.3558 Y1.6366  
G01 X-3.3506 Y1.6418  
G01 X-3.3446 Y1.6462  
G01 X-3.3380 Y1.6496  
G01 X-3.3310 Y1.6518  
G01 X-3.3237 Y1.6530  
G01 X-3.3163 Y1.6530  
G01 X-3.3090 Y1.6518  
G01 X-3.3020 Y1.6496  
G01 X-3.2954 Y1.6462  
G01 X-3.2894 Y1.6418  
G01 X-3.2842 Y1.6366  
G01 X-3.2798 Y1.6306  
G01 X-3.2790 Y1.6290  
G01 X-3.0261 Y1.6290  
G01 X-3.0185 Y1.6278  
G01 X-3.0161 Y1.6270  
G01 X-3.0105 Y1.6270  
G01 X-3.0066 Y1.6231  
G01 X-3.0043 Y1.6219  
G01 X-2.9981 Y1.6174  
G01 X-2.9926 Y1.6119  
G01 X-2.9881 Y1.6057  
G01 X-2.9869 Y1.6034  
G01 X-2.9830 Y1.5995  
G01 X-2.9830 Y1.5939  
G01 X-2.9822 Y1.5915  
G01 X-2.9810 Y1.5839  
G01 X-2.9810 Y1.5761  
G01 X-2.9822 Y1.5685  
G01 X-2.9830 Y1.5661  
G01 X-2.9830 Y1.5605  
G01 X-2.9869 Y1.5566  
G01 X-2.9881 Y1.5543  
G01 X-2.9926 Y1.5481  
G00 Z0.1000  
G00 X-3.3242 Y2.3660  
G01 Z-0.0070 F10    
G01 X-3.3325 Y2.3671  F20    
G01 X-3.3406 Y2.3693  
G01 X-3.3484 Y2.3725  
G01 X-3.3556 Y2.3767  
G01 X-3.3623 Y2.3818  
G01 X-3.3682 Y2.3877  
G01 X-3.3733 Y2.3944  
G01 X-3.3775 Y2.4016  
G01 X-3.3807 Y2.4094  
G01 X-3.3829 Y2.4175  
G01 X-3.3840 Y2.4258  
G01 X-3.3840 Y2.4342  
G01 X-3.3829 Y2.4425  
G01 X-3.3807 Y2.4506  
G01 X-3.3775 Y2.4584  
G01 X-3.3733 Y2.4656  
G01 X-3.3682 Y2.4723  
G01 X-3.3623 Y2.4782  
G01 X-3.3556 Y2.4833  
G01 X-3.3484 Y2.4875  
G01 X-3.3406 Y2.4907  
G01 X-3.3325 Y2.4929  
G01 X-3.3242 Y2.4940  
G01 X-2.6110 Y2.4940  
G01 X-2.6029 Y2.4974  
G01 X-2.5939 Y2.4998  
G01 X-2.5847 Y2.5010  
G01 X-2.5753 Y2.5010  
G01 X-2.5661 Y2.4998  
G01 X-2.5571 Y2.4974  
G01 X-2.5485 Y2.4938  
G01 X-2.5405 Y2.4892  
G01 X-2.5331 Y2.4835  
G01 X-2.5265 Y2.4769  
G01 X-2.5208 Y2.4695  
G01 X-2.5162 Y2.4615  
G01 X-2.5126 Y2.4529  
G01 X-2.5102 Y2.4439  
G01 X-2.5090 Y2.4347  
G01 X-2.5090 Y2.4253  
G01 X-2.5102 Y2.4161  
G01 X-2.5126 Y2.4071  
G01 X-2.5162 Y2.3985  
G01 X-2.5208 Y2.3905  
G01 X-2.5265 Y2.3831  
G01 X-2.5331 Y2.3765  
G01 X-2.5405 Y2.3708  
G01 X-2.5485 Y2.3662  
G01 X-2.5571 Y2.3626  
G01 X-2.5661 Y2.3602  
G01 X-2.5753 Y2.3590  
G01 X-2.5847 Y2.3590  
G01 X-2.5939 Y2.3602  
G01 X-2.6029 Y2.3626  
G01 X-2.6110 Y2.3660  
G01 X-3.3242 Y2.3660  
G00 Z0.1000  
G00 X-3.3547 Y3.3690  
G01 Z-0.0070 F10    
G01 X-3.3639 Y3.3702  F20    
G01 X-3.3729 Y3.3726  
G01 X-3.3815 Y3.3762  
G01 X-3.3895 Y3.3808  
G01 X-3.3969 Y3.3865  
G01 X-3.4035 Y3.3931  
G01 X-3.4092 Y3.4005  
G01 X-3.4138 Y3.4085  
G01 X-3.4174 Y3.4171  
G01 X-3.4198 Y3.4261  
G01 X-3.4210 Y3.4353  
G01 X-3.4210 Y3.4447  
G01 X-3.4198 Y3.4539  
G01 X-3.4174 Y3.4629  
G01 X-3.4138 Y3.4715  
G01 X-3.4092 Y3.4795  
G01 X-3.4035 Y3.4869  
G01 X-3.3969 Y3.4935  
G01 X-3.3895 Y3.4992  
G01 X-3.3815 Y3.5038  
G01 X-3.3729 Y3.5074  
G01 X-3.3639 Y3.5098  
G01 X-3.3547 Y3.5110  
G01 X-2.5953 Y3.5110  
G01 X-2.5861 Y3.5098  
G01 X-2.5771 Y3.5074  
G01 X-2.5690 Y3.5040  
G01 X-1.7458 Y3.5040  
G01 X-1.7375 Y3.5029  
G01 X-1.7294 Y3.5007  
G01 X-1.7216 Y3.4975  
G01 X-1.7144 Y3.4933  
G01 X-1.7077 Y3.4882  
G01 X-1.7018 Y3.4823  
G01 X-1.6967 Y3.4756  
G01 X-1.6925 Y3.4684  
G01 X-1.6893 Y3.4606  
G01 X-1.6871 Y3.4525  
G01 X-1.6860 Y3.4442  
G01 X-1.6860 Y3.4358  
G01 X-1.6871 Y3.4275  
G01 X-1.6893 Y3.4194  
G01 X-1.6925 Y3.4116  
G01 X-1.6967 Y3.4044  
G01 X-1.7018 Y3.3977  
G01 X-1.7077 Y3.3918  
G01 X-1.7144 Y3.3867  
G01 X-1.7216 Y3.3825  
G01 X-1.7294 Y3.3793  
G01 X-1.7375 Y3.3771  
G01 X-1.7458 Y3.3760  
G01 X-2.5690 Y3.3760  
G01 X-2.5771 Y3.3726  
G01 X-2.5861 Y3.3702  
G01 X-2.5953 Y3.3690  
G01 X-3.3547 Y3.3690  
G00 Z0.1000  
G00 X-3.3542 Y3.5760  
G01 Z-0.0070 F10    
G01 X-3.3625 Y3.5771  F20    
G01 X-3.3706 Y3.5793  
G01 X-3.3784 Y3.5825  
G01 X-3.3856 Y3.5867  
G01 X-3.3923 Y3.5918  
G01 X-3.3982 Y3.5977  
G01 X-3.4033 Y3.6044  
G01 X-3.4075 Y3.6116  
G01 X-3.4107 Y3.6194  
G01 X-3.4129 Y3.6275  
G01 X-3.4140 Y3.6358  
G01 X-3.4140 Y3.6442  
G01 X-3.4129 Y3.6525  
G01 X-3.4107 Y3.6606  
G01 X-3.4075 Y3.6684  
G01 X-3.4033 Y3.6756  
G01 X-3.3982 Y3.6823  
G01 X-3.3923 Y3.6882  
G01 X-3.3856 Y3.6933  
G01 X-3.3784 Y3.6975  
G01 X-3.3706 Y3.7007  
G01 X-3.3625 Y3.7029  
G01 X-3.3542 Y3.7040  
G01 X-2.6364 Y3.7040  
G01 X-2.6294 Y3.7110  
G01 X-2.5706 Y3.7110  
G01 X-2.5636 Y3.7040  
G01 X-1.7458 Y3.7040  
G01 X-1.7375 Y3.7029  
G01 X-1.7294 Y3.7007  
G01 X-1.7216 Y3.6975  
G01 X-1.7144 Y3.6933  
G01 X-1.7077 Y3.6882  
G01 X-1.7018 Y3.6823  
G01 X-1.6967 Y3.6756  
G01 X-1.6925 Y3.6684  
G01 X-1.6893 Y3.6606  
G01 X-1.6871 Y3.6525  
G01 X-1.6860 Y3.6442  
G01 X-1.6860 Y3.6358  
G01 X-1.6871 Y3.6275  
G01 X-1.6893 Y3.6194  
G01 X-1.6925 Y3.6116  
G01 X-1.6967 Y3.6044  
G01 X-1.7018 Y3.5977  
G01 X-1.7077 Y3.5918  
G01 X-1.7144 Y3.5867  
G01 X-1.7216 Y3.5825  
G01 X-1.7294 Y3.5793  
G01 X-1.7375 Y3.5771  
G01 X-1.7458 Y3.5760  
G01 X-2.5636 Y3.5760  
G01 X-2.5706 Y3.5690  
G01 X-2.6294 Y3.5690  
G01 X-2.6364 Y3.5760  
G01 X-3.3542 Y3.5760  
G00 Z0.1000  
G00 X-3.3459 Y4.2530  
G01 Z-0.0070 F10    
G01 X-3.3198 Y4.2638  F20    
G01 X-3.3171 Y4.2665  
G01 X-3.3133 Y4.2703  
G01 X-3.3131 Y4.2705  
G01 X-3.3116 Y4.2715  
G01 X-3.3083 Y4.2737  
G01 X-3.3045 Y4.2753  
G01 X-3.3030 Y4.2759  
G01 X-3.2989 Y4.2767  
G01 X-3.2974 Y4.2770  
G01 X-3.0604 Y4.2770  
G01 X-3.0584 Y4.2775  
G01 X-3.0576 Y4.2779  
G01 X-3.0557 Y4.2783  
G01 X-3.0539 Y4.2788  
G01 X-3.0529 Y4.2788  
G01 X-3.0520 Y4.2790  
G01 X-3.0501 Y4.2790  
G01 X-3.0482 Y4.2791  
G01 X-3.0472 Y4.2790  
G01 X-3.0406 Y4.2790  
G01 X-3.0359 Y4.2837  
G01 X-3.0353 Y4.2844  
G01 X-3.0339 Y4.2857  
G01 X-3.0325 Y4.2870  
G01 X-3.0318 Y4.2876  
G01 X-3.0310 Y4.2882  
G01 X-3.0294 Y4.2892  
G01 X-3.0278 Y4.2902  
G01 X-3.0269 Y4.2906  
G01 X-3.0252 Y4.2916  
G01 X-3.0116 Y4.3052  
G01 X-3.0106 Y4.3069  
G01 X-3.0102 Y4.3078  
G01 X-3.0092 Y4.3094  
G01 X-3.0082 Y4.3110  
G01 X-3.0076 Y4.3118  
G01 X-3.0070 Y4.3125  
G01 X-3.0057 Y4.3139  
G01 X-3.0044 Y4.3153  
G01 X-3.0037 Y4.3159  
G01 X-2.9990 Y4.3206  
G01 X-2.9990 Y4.3270  
G01 X-2.9991 Y4.3277  
G01 X-2.9990 Y4.3298  
G01 X-2.9990 Y4.3320  
G01 X-2.9989 Y4.3327  
G01 X-2.9988 Y4.3334  
G01 X-2.9983 Y4.3355  
G01 X-2.9979 Y4.3376  
G01 X-2.9976 Y4.3382  
G01 X-2.9974 Y4.3389  
G01 X-2.9965 Y4.3409  
G01 X-2.9957 Y4.3428  
G01 X-2.9953 Y4.3434  
G01 X-2.9950 Y4.3441  
G01 X-2.9937 Y4.3458  
G01 X-2.9925 Y4.3476  
G01 X-2.9920 Y4.3481  
G01 X-2.9916 Y4.3487  
G01 X-2.9901 Y4.3500  
G01 X-2.9916 Y4.3513  
G01 X-2.9920 Y4.3519  
G01 X-2.9925 Y4.3524  
G01 X-2.9937 Y4.3542  
G01 X-2.9950 Y4.3559  
G01 X-2.9953 Y4.3566  
G01 X-2.9957 Y4.3572  
G01 X-2.9965 Y4.3591  
G01 X-2.9974 Y4.3611  
G01 X-2.9976 Y4.3618  
G01 X-2.9979 Y4.3624  
G01 X-2.9983 Y4.3645  
G01 X-2.9988 Y4.3666  
G01 X-2.9989 Y4.3673  
G01 X-2.9990 Y4.3680  
G01 X-2.9990 Y4.3702  
G01 X-2.9991 Y4.3723  
G01 X-2.9990 Y4.3730  
G01 X-2.9990 Y4.3794  
G01 X-3.0037 Y4.3841  
G01 X-3.0044 Y4.3847  
G01 X-3.0057 Y4.3861  
G01 X-3.0070 Y4.3875  
G01 X-3.0076 Y4.3882  
G01 X-3.0082 Y4.3890  
G01 X-3.0092 Y4.3906  
G01 X-3.0102 Y4.3922  
G01 X-3.0106 Y4.3931  
G01 X-3.0116 Y4.3948  
G01 X-3.0252 Y4.4084  
G01 X-3.0269 Y4.4094  
G01 X-3.0278 Y4.4098  
G01 X-3.0294 Y4.4108  
G01 X-3.0310 Y4.4118  
G01 X-3.0318 Y4.4124  
G01 X-3.0325 Y4.4130  
G01 X-3.0339 Y4.4143  
G01 X-3.0353 Y4.4156  
G01 X-3.0359 Y4.4163  
G01 X-3.0406 Y4.4210  
G01 X-3.0472 Y4.4210  
G01 X-3.0482 Y4.4209  
G01 X-3.0501 Y4.4210  
G01 X-3.0520 Y4.4210  
G01 X-3.0529 Y4.4212  
G01 X-3.0539 Y4.4212  
G01 X-3.0557 Y4.4217  
G01 X-3.0576 Y4.4221  
G01 X-3.0584 Y4.4225  
G01 X-3.0604 Y4.4230  
G01 X-3.2974 Y4.4230  
G01 X-3.2987 Y4.4233  
G01 X-3.3030 Y4.4241  
G01 X-3.3047 Y4.4248  
G01 X-3.3083 Y4.4263  
G01 X-3.3114 Y4.4284  
G01 X-3.3131 Y4.4295  
G01 X-3.3171 Y4.4335  
G01 X-3.3198 Y4.4362  
G01 X-3.3459 Y4.4470  
G01 X-3.3741 Y4.4470  
G01 X-3.4002 Y4.4362  
G01 X-3.4202 Y4.4162  
G01 X-3.4310 Y4.3901  
G01 X-3.4310 Y4.3728  
G01 X-3.4309 Y4.3718  
G01 X-3.4310 Y4.3699  
G01 X-3.4310 Y4.3680  
G01 X-3.4312 Y4.3671  
G01 X-3.4312 Y4.3661  
G01 X-3.4317 Y4.3643  
G01 X-3.4321 Y4.3624  
G01 X-3.4325 Y4.3616  
G01 X-3.4330 Y4.3596  
G01 X-3.4330 Y4.3404  
G01 X-3.4325 Y4.3384  
G01 X-3.4321 Y4.3376  
G01 X-3.4317 Y4.3357  
G01 X-3.4312 Y4.3339  
G01 X-3.4312 Y4.3329  
G01 X-3.4310 Y4.3320  
G01 X-3.4310 Y4.3301  
G01 X-3.4309 Y4.3282  
G01 X-3.4310 Y4.3272  
G01 X-3.4310 Y4.3099  
G01 X-3.4202 Y4.2838  
G01 X-3.4002 Y4.2638  
G01 X-3.3741 Y4.2530  
G01 X-3.3459 Y4.2530  
G00 Z0.1000  
G00 X-3.3490 Y4.2782  
G01 Z-0.0070 F10    
G01 X-3.3563 Y4.2770  F20    
G01 X-3.3637 Y4.2770  
G01 X-3.3710 Y4.2782  
G01 X-3.3780 Y4.2804  
G01 X-3.3846 Y4.2838  
G01 X-3.3906 Y4.2882  
G01 X-3.3958 Y4.2934  
G01 X-3.4002 Y4.2994  
G01 X-3.4036 Y4.3060  
G01 X-3.4058 Y4.3130  
G01 X-3.4070 Y4.3203  
G01 X-3.4070 Y4.3361  
G01 X-3.4078 Y4.3385  
G01 X-3.4090 Y4.3461  
G01 X-3.4090 Y4.3539  
G01 X-3.4078 Y4.3615  
G01 X-3.4070 Y4.3639  
G01 X-3.4070 Y4.3797  
G01 X-3.4058 Y4.3870  
G01 X-3.4036 Y4.3940  
G01 X-3.4002 Y4.4006  
G01 X-3.3958 Y4.4066  
G01 X-3.3906 Y4.4118  
G01 X-3.3846 Y4.4162  
G01 X-3.3780 Y4.4196  
G01 X-3.3710 Y4.4218  
G01 X-3.3637 Y4.4230  
G01 X-3.3563 Y4.4230  
G01 X-3.3490 Y4.4218  
G01 X-3.3420 Y4.4196  
G01 X-3.3354 Y4.4162  
G01 X-3.3294 Y4.4118  
G01 X-3.3242 Y4.4066  
G01 X-3.3198 Y4.4006  
G01 X-3.3190 Y4.3990  
G01 X-3.0661 Y4.3990  
G01 X-3.0585 Y4.3978  
G01 X-3.0561 Y4.3970  
G01 X-3.0505 Y4.3970  
G01 X-3.0466 Y4.3931  
G01 X-3.0443 Y4.3919  
G01 X-3.0381 Y4.3874  
G01 X-3.0326 Y4.3819  
G01 X-3.0281 Y4.3757  
G01 X-3.0269 Y4.3734  
G01 X-3.0230 Y4.3695  
G01 X-3.0230 Y4.3639  
G01 X-3.0222 Y4.3615  
G01 X-3.0210 Y4.3539  
G01 X-3.0210 Y4.3461  
G01 X-3.0222 Y4.3385  
G01 X-3.0230 Y4.3361  
G01 X-3.0230 Y4.3305  
G01 X-3.0269 Y4.3266  
G01 X-3.0281 Y4.3243  
G01 X-3.0326 Y4.3181  
G01 X-3.0381 Y4.3126  
G01 X-3.0443 Y4.3081  
G01 X-3.0466 Y4.3069  
G01 X-3.0505 Y4.3030  
G01 X-3.0561 Y4.3030  
G01 X-3.0585 Y4.3022  
G01 X-3.0661 Y4.3010  
G01 X-3.3190 Y4.3010  
G01 X-3.3198 Y4.2994  
G01 X-3.3242 Y4.2934  
G01 X-3.3294 Y4.2882  
G01 X-3.3354 Y4.2838  
G01 X-3.3420 Y4.2804  
G01 X-3.3490 Y4.2782  
G00 Z0.1000  
G00 X-3.3459 Y4.6530  
G01 Z-0.0070 F10    
G01 X-3.3198 Y4.6638  F20    
G01 X-3.2998 Y4.6838  
G01 X-3.2995 Y4.6844  
G01 X-3.2964 Y4.6892  
G01 X-3.2949 Y4.6907  
G01 X-3.2923 Y4.6932  
G01 X-3.2896 Y4.6960  
G01 X-3.2780 Y4.7160  
G01 X-3.2720 Y4.7384  
G01 X-3.2720 Y4.8959  
G01 X-3.2709 Y4.9015  
G01 X-3.2687 Y4.9067  
G01 X-3.2655 Y4.9115  
G01 X-3.2615 Y4.9155  
G01 X-3.2567 Y4.9187  
G01 X-3.2515 Y4.9209  
G01 X-3.2459 Y4.9220  
G01 X-2.6455 Y4.9220  
G01 X-2.6433 Y4.9216  
G01 X-2.6399 Y4.9209  
G01 X-2.6346 Y4.9187  
G01 X-2.6331 Y4.9177  
G01 X-2.6299 Y4.9155  
G01 X-2.6293 Y4.9150  
G01 X-2.5506 Y4.9150  
G01 X-2.5502 Y4.9154  
G01 X-2.5470 Y4.9176  
G01 X-2.5454 Y4.9187  
G01 X-2.5401 Y4.9209  
G01 X-2.5368 Y4.9215  
G01 X-2.5345 Y4.9220  
G01 X-2.4456 Y4.9220  
G01 X-2.4400 Y4.9209  
G01 X-2.4347 Y4.9187  
G01 X-2.4300 Y4.9155  
G01 X-2.4259 Y4.9115  
G01 X-2.3945 Y4.8800  
G01 X-2.3913 Y4.8753  
G01 X-2.3891 Y4.8700  
G01 X-2.3880 Y4.8644  
G01 X-2.3880 Y4.4731  
G01 X-2.3891 Y4.4675  
G01 X-2.3913 Y4.4623  
G01 X-2.3945 Y4.4575  
G01 X-2.3985 Y4.4535  
G01 X-2.4033 Y4.4503  
G01 X-2.4085 Y4.4481  
G01 X-2.4141 Y4.4470  
G01 X-2.4363 Y4.4378  
G01 X-2.4414 Y4.4357  
G01 X-2.4415 Y4.4356  
G01 X-2.4471 Y4.4345  
G01 X-2.4529 Y4.4345  
G01 X-2.4532 Y4.4346  
G01 X-2.4585 Y4.4356  
G01 X-2.4859 Y4.4470  
G01 X-2.5141 Y4.4470  
G01 X-2.5402 Y4.4362  
G01 X-2.5469 Y4.4295  
G01 X-2.5517 Y4.4263  
G01 X-2.5570 Y4.4241  
G01 X-2.5626 Y4.4230  
G01 X-2.8796 Y4.4230  
G01 X-2.8816 Y4.4225  
G01 X-2.8824 Y4.4221  
G01 X-2.8843 Y4.4217  
G01 X-2.8861 Y4.4212  
G01 X-2.8871 Y4.4212  
G01 X-2.8880 Y4.4210  
G01 X-2.8899 Y4.4210  
G01 X-2.8918 Y4.4209  
G01 X-2.8928 Y4.4210  
G01 X-2.8994 Y4.4210  
G01 X-2.9041 Y4.4163  
G01 X-2.9047 Y4.4156  
G01 X-2.9061 Y4.4143  
G01 X-2.9075 Y4.4130  
G01 X-2.9082 Y4.4124  
G01 X-2.9090 Y4.4118  
G01 X-2.9106 Y4.4108  
G01 X-2.9122 Y4.4098  
G01 X-2.9131 Y4.4094  
G01 X-2.9148 Y4.4084  
G01 X-2.9284 Y4.3948  
G01 X-2.9294 Y4.3931  
G01 X-2.9298 Y4.3922  
G01 X-2.9308 Y4.3906  
G01 X-2.9318 Y4.3890  
G01 X-2.9324 Y4.3882  
G01 X-2.9330 Y4.3875  
G01 X-2.9343 Y4.3861  
G01 X-2.9356 Y4.3847  
G01 X-2.9363 Y4.3841  
G01 X-2.9410 Y4.3794  
G01 X-2.9410 Y4.3716  
G01 X-2.9409 Y4.3694  
G01 X-2.9410 Y4.3687  
G01 X-2.9410 Y4.3680  
G01 X-2.9414 Y4.3659  
G01 X-2.9417 Y4.3638  
G01 X-2.9420 Y4.3631  
G01 X-2.9421 Y4.3624  
G01 X-2.9429 Y4.3604  
G01 X-2.9437 Y4.3584  
G01 X-2.9440 Y4.3578  
G01 X-2.9443 Y4.3572  
G01 X-2.9455 Y4.3554  
G01 X-2.9466 Y4.3535  
G01 X-2.9471 Y4.3530  
G01 X-2.9475 Y4.3524  
G01 X-2.9490 Y4.3509  
G01 X-2.9498 Y4.3500  
G01 X-2.9490 Y4.3491  
G01 X-2.9475 Y4.3476  
G01 X-2.9471 Y4.3470  
G01 X-2.9466 Y4.3465  
G01 X-2.9455 Y4.3446  
G01 X-2.9443 Y4.3428  
G01 X-2.9440 Y4.3422  
G01 X-2.9437 Y4.3416  
G01 X-2.9429 Y4.3396  
G01 X-2.9421 Y4.3376  
G01 X-2.9420 Y4.3369  
G01 X-2.9417 Y4.3362  
G01 X-2.9414 Y4.3341  
G01 X-2.9410 Y4.3320  
G01 X-2.9410 Y4.3313  
G01 X-2.9409 Y4.3306  
G01 X-2.9410 Y4.3284  
G01 X-2.9410 Y4.3206  
G01 X-2.9363 Y4.3159  
G01 X-2.9356 Y4.3153  
G01 X-2.9343 Y4.3139  
G01 X-2.9330 Y4.3125  
G01 X-2.9324 Y4.3118  
G01 X-2.9318 Y4.3110  
G01 X-2.9308 Y4.3094  
G01 X-2.9298 Y4.3078  
G01 X-2.9294 Y4.3069  
G01 X-2.9284 Y4.3052  
G01 X-2.9148 Y4.2916  
G01 X-2.9131 Y4.2906  
G01 X-2.9122 Y4.2902  
G01 X-2.9106 Y4.2892  
G01 X-2.9090 Y4.2882  
G01 X-2.9082 Y4.2876  
G01 X-2.9075 Y4.2870  
G01 X-2.9061 Y4.2857  
G01 X-2.9047 Y4.2844  
G01 X-2.9041 Y4.2837  
G01 X-2.8994 Y4.2790  
G01 X-2.8928 Y4.2790  
G01 X-2.8918 Y4.2791  
G01 X-2.8899 Y4.2790  
G01 X-2.8880 Y4.2790  
G01 X-2.8871 Y4.2788  
G01 X-2.8861 Y4.2788  
G01 X-2.8843 Y4.2783  
G01 X-2.8824 Y4.2779  
G01 X-2.8816 Y4.2775  
G01 X-2.8796 Y4.2770  
G01 X-2.5626 Y4.2770  
G01 X-2.5570 Y4.2759  
G01 X-2.5517 Y4.2737  
G01 X-2.5469 Y4.2705  
G01 X-2.5429 Y4.2665  
G01 X-2.5402 Y4.2638  
G01 X-2.5141 Y4.2530  
G01 X-2.4859 Y4.2530  
G01 X-2.4585 Y4.2644  
G01 X-2.4529 Y4.2655  
G01 X-2.4471 Y4.2655  
G01 X-2.4419 Y4.2644  
G01 X-2.4415 Y4.2644  
G01 X-2.4363 Y4.2622  
G01 X-2.4141 Y4.2530  
G01 X-2.3859 Y4.2530  
G01 X-2.3585 Y4.2644  
G01 X-2.3529 Y4.2655  
G01 X-2.3471 Y4.2655  
G01 X-2.3419 Y4.2644  
G01 X-2.3415 Y4.2644  
G01 X-2.3363 Y4.2622  
G01 X-2.3141 Y4.2530  
G01 X-2.2859 Y4.2530  
G01 X-2.2598 Y4.2638  
G01 X-2.2398 Y4.2838  
G01 X-2.2395 Y4.2844  
G01 X-2.2364 Y4.2892  
G01 X-2.2349 Y4.2907  
G01 X-2.2323 Y4.2932  
G01 X-2.2296 Y4.2960  
G01 X-2.2180 Y4.3160  
G01 X-2.2120 Y4.3384  
G01 X-2.2120 Y4.9216  
G01 X-2.2180 Y4.9440  
G01 X-2.2296 Y4.9640  
G01 X-2.2507 Y4.9851  
G01 X-2.3460 Y5.0804  
G01 X-2.3660 Y5.0920  
G01 X-2.3884 Y5.0980  
G01 X-2.5005 Y5.0980  
G01 X-2.5027 Y5.0984  
G01 X-2.5061 Y5.0991  
G01 X-2.5114 Y5.1013  
G01 X-2.5129 Y5.1023  
G01 X-2.5161 Y5.1045  
G01 X-2.5202 Y5.1085  
G01 X-2.5233 Y5.1133  
G01 X-2.5237 Y5.1141  
G01 X-2.5255 Y5.1185  
G01 X-2.5266 Y5.1241  
G01 X-2.5266 Y5.1299  
G01 X-2.5262 Y5.1320  
G01 X-2.5255 Y5.1355  
G01 X-2.5233 Y5.1407  
G01 X-2.5223 Y5.1423  
G01 X-2.5202 Y5.1455  
G01 X-2.5161 Y5.1495  
G01 X-2.5140 Y5.1517  
G01 X-2.5015 Y5.1733  
G01 X-2.4950 Y5.1975  
G01 X-2.4950 Y5.2225  
G01 X-2.5015 Y5.2467  
G01 X-2.5140 Y5.2683  
G01 X-2.5317 Y5.2860  
G01 X-2.5533 Y5.2985  
G01 X-2.5775 Y5.3050  
G01 X-3.3725 Y5.3050  
G01 X-3.3967 Y5.2985  
G01 X-3.4183 Y5.2860  
G01 X-3.4360 Y5.2683  
G01 X-3.4485 Y5.2467  
G01 X-3.4550 Y5.2225  
G01 X-3.4550 Y5.1975  
G01 X-3.4485 Y5.1733  
G01 X-3.4360 Y5.1517  
G01 X-3.4183 Y5.1340  
G01 X-3.4141 Y5.1315  
G01 X-3.4124 Y5.1307  
G01 X-3.4116 Y5.1301  
G01 X-3.4108 Y5.1296  
G01 X-3.4094 Y5.1284  
G01 X-3.4079 Y5.1272  
G01 X-3.4072 Y5.1265  
G01 X-3.4065 Y5.1259  
G01 X-3.4054 Y5.1244  
G01 X-3.4041 Y5.1229  
G01 X-3.4036 Y5.1221  
G01 X-3.4030 Y5.1213  
G01 X-3.4022 Y5.1196  
G01 X-3.4013 Y5.1180  
G01 X-3.4009 Y5.1171  
G01 X-3.4005 Y5.1162  
G01 X-3.4000 Y5.1144  
G01 X-3.3994 Y5.1126  
G01 X-3.3993 Y5.1116  
G01 X-3.3990 Y5.1107  
G01 X-3.3989 Y5.1088  
G01 X-3.3987 Y5.1069  
G01 X-3.3987 Y5.1060  
G01 X-3.3987 Y5.1050  
G01 X-3.3989 Y5.1031  
G01 X-3.3990 Y5.1012  
G01 X-3.3993 Y5.1003  
G01 X-3.3994 Y5.0993  
G01 X-3.4000 Y5.0975  
G01 X-3.4005 Y5.0957  
G01 X-3.4009 Y5.0948  
G01 X-3.4013 Y5.0939  
G01 X-3.4022 Y5.0923  
G01 X-3.4030 Y5.0906  
G01 X-3.4036 Y5.0898  
G01 X-3.4041 Y5.0890  
G01 X-3.4054 Y5.0876  
G01 X-3.4065 Y5.0860  
G01 X-3.4072 Y5.0854  
G01 X-3.4079 Y5.0847  
G01 X-3.4094 Y5.0835  
G01 X-3.4108 Y5.0823  
G01 X-3.4116 Y5.0818  
G01 X-3.4124 Y5.0812  
G01 X-3.4140 Y5.0804  
G01 X-3.4304 Y5.0640  
G01 X-3.4420 Y5.0440  
G01 X-3.4480 Y5.0216  
G01 X-3.4480 Y4.7384  
G01 X-3.4420 Y4.7160  
G01 X-3.4304 Y4.6960  
G01 X-3.4277 Y4.6932  
G01 X-3.4252 Y4.6907  
G01 X-3.4236 Y4.6892  
G01 X-3.4205 Y4.6845  
G01 X-3.4205 Y4.6844  
G01 X-3.4202 Y4.6838  
G01 X-3.4002 Y4.6638  
G01 X-3.3741 Y4.6530  
G01 X-3.3459 Y4.6530  
G00 Z0.1000  
G00 X-3.3490 Y4.6782  
G01 Z-0.0070 F10    
G01 X-3.3563 Y4.6770  F20    
G01 X-3.3637 Y4.6770  
G01 X-3.3710 Y4.6782  
G01 X-3.3780 Y4.6804  
G01 X-3.3846 Y4.6838  
G01 X-3.3906 Y4.6882  
G01 X-3.3958 Y4.6934  
G01 X-3.4002 Y4.6994  
G01 X-3.4009 Y4.7007  
G01 X-3.4023 Y4.7018  
G01 X-3.4082 Y4.7077  
G01 X-3.4133 Y4.7144  
G01 X-3.4175 Y4.7216  
G01 X-3.4207 Y4.7294  
G01 X-3.4229 Y4.7375  
G01 X-3.4240 Y4.7458  
G01 X-3.4240 Y5.0142  
G01 X-3.4229 Y5.0225  
G01 X-3.4207 Y5.0306  
G01 X-3.4175 Y5.0384  
G01 X-3.4133 Y5.0456  
G01 X-3.4082 Y5.0523  
G01 X-3.4023 Y5.0582  
G01 X-3.3956 Y5.0633  
G01 X-3.3884 Y5.0675  
G01 X-3.3806 Y5.0707  
G01 X-3.3725 Y5.0729  
G01 X-3.3642 Y5.0740  
G01 X-2.6264 Y5.0740  
G01 X-2.6194 Y5.0810  
G01 X-2.5606 Y5.0810  
G01 X-2.5536 Y5.0740  
G01 X-2.3958 Y5.0740  
G01 X-2.3875 Y5.0729  
G01 X-2.3794 Y5.0707  
G01 X-2.3716 Y5.0675  
G01 X-2.3644 Y5.0633  
G01 X-2.3577 Y5.0582  
G01 X-2.2577 Y4.9582  
G01 X-2.2518 Y4.9523  
G01 X-2.2467 Y4.9456  
G01 X-2.2425 Y4.9384  
G01 X-2.2393 Y4.9306  
G01 X-2.2371 Y4.9225  
G01 X-2.2360 Y4.9142  
G01 X-2.2360 Y4.3458  
G01 X-2.2371 Y4.3375  
G01 X-2.2393 Y4.3294  
G01 X-2.2425 Y4.3216  
G01 X-2.2467 Y4.3144  
G01 X-2.2518 Y4.3077  
G01 X-2.2577 Y4.3018  
G01 X-2.2591 Y4.3007  
G01 X-2.2598 Y4.2994  
G01 X-2.2642 Y4.2934  
G01 X-2.2694 Y4.2882  
G01 X-2.2754 Y4.2838  
G01 X-2.2820 Y4.2804  
G01 X-2.2890 Y4.2782  
G01 X-2.2963 Y4.2770  
G01 X-2.3037 Y4.2770  
G01 X-2.3110 Y4.2782  
G01 X-2.3180 Y4.2804  
G01 X-2.3246 Y4.2838  
G01 X-2.3306 Y4.2882  
G01 X-2.3358 Y4.2934  
G01 X-2.3402 Y4.2994  
G01 X-2.3409 Y4.3007  
G01 X-2.3423 Y4.3018  
G01 X-2.3482 Y4.3077  
G01 X-2.3533 Y4.3144  
G01 X-2.3538 Y4.3152  
G01 X-2.3542 Y4.3130  
G01 X-2.3564 Y4.3060  
G01 X-2.3598 Y4.2994  
G01 X-2.3642 Y4.2934  
G01 X-2.3694 Y4.2882  
G01 X-2.3754 Y4.2838  
G01 X-2.3820 Y4.2804  
G01 X-2.3890 Y4.2782  
G01 X-2.3963 Y4.2770  
G01 X-2.4037 Y4.2770  
G01 X-2.4110 Y4.2782  
G01 X-2.4180 Y4.2804  
G01 X-2.4246 Y4.2838  
G01 X-2.4306 Y4.2882  
G01 X-2.4358 Y4.2934  
G01 X-2.4402 Y4.2994  
G01 X-2.4436 Y4.3060  
G01 X-2.4458 Y4.3130  
G01 X-2.4470 Y4.3203  
G01 X-2.4470 Y4.3797  
G01 X-2.4458 Y4.3870  
G01 X-2.4436 Y4.3940  
G01 X-2.4402 Y4.4006  
G01 X-2.4358 Y4.4066  
G01 X-2.4306 Y4.4118  
G01 X-2.4246 Y4.4162  
G01 X-2.4180 Y4.4196  
G01 X-2.4110 Y4.4218  
G01 X-2.4037 Y4.4230  
G01 X-2.3963 Y4.4230  
G01 X-2.3890 Y4.4218  
G01 X-2.3820 Y4.4196  
G01 X-2.3754 Y4.4162  
G01 X-2.3694 Y4.4118  
G01 X-2.3642 Y4.4066  
G01 X-2.3640 Y4.4064  
G01 X-2.3640 Y4.8835  
G01 X-2.4265 Y4.9460  
G01 X-2.5536 Y4.9460  
G01 X-2.5606 Y4.9390  
G01 X-2.6194 Y4.9390  
G01 X-2.6264 Y4.9460  
G01 X-3.2960 Y4.9460  
G01 X-3.2960 Y4.7458  
G01 X-3.2971 Y4.7375  
G01 X-3.2993 Y4.7294  
G01 X-3.3025 Y4.7216  
G01 X-3.3067 Y4.7144  
G01 X-3.3118 Y4.7077  
G01 X-3.3177 Y4.7018  
G01 X-3.3191 Y4.7007  
G01 X-3.3198 Y4.6994  
G01 X-3.3242 Y4.6934  
G01 X-3.3294 Y4.6882  
G01 X-3.3354 Y4.6838  
G01 X-3.3420 Y4.6804  
G01 X-3.3490 Y4.6782  
G00 Z0.1000  
G00 X-3.3647 Y5.1390  
G01 Z-0.0070 F10    
G01 X-3.3739 Y5.1402  F20    
G01 X-3.3829 Y5.1426  
G01 X-3.3915 Y5.1462  
G01 X-3.3995 Y5.1508  
G01 X-3.4069 Y5.1565  
G01 X-3.4135 Y5.1631  
G01 X-3.4192 Y5.1705  
G01 X-3.4238 Y5.1785  
G01 X-3.4274 Y5.1871  
G01 X-3.4298 Y5.1961  
G01 X-3.4310 Y5.2053  
G01 X-3.4310 Y5.2147  
G01 X-3.4298 Y5.2239  
G01 X-3.4274 Y5.2329  
G01 X-3.4238 Y5.2415  
G01 X-3.4192 Y5.2495  
G01 X-3.4135 Y5.2569  
G01 X-3.4069 Y5.2635  
G01 X-3.3995 Y5.2692  
G01 X-3.3915 Y5.2738  
G01 X-3.3829 Y5.2774  
G01 X-3.3739 Y5.2798  
G01 X-3.3647 Y5.2810  
G01 X-2.5853 Y5.2810  
G01 X-2.5761 Y5.2798  
G01 X-2.5671 Y5.2774  
G01 X-2.5585 Y5.2738  
G01 X-2.5505 Y5.2692  
G01 X-2.5431 Y5.2635  
G01 X-2.5365 Y5.2569  
G01 X-2.5308 Y5.2495  
G01 X-2.5262 Y5.2415  
G01 X-2.5226 Y5.2329  
G01 X-2.5202 Y5.2239  
G01 X-2.5190 Y5.2147  
G01 X-2.5190 Y5.2053  
G01 X-2.5202 Y5.1961  
G01 X-2.5226 Y5.1871  
G01 X-2.5262 Y5.1785  
G01 X-2.5308 Y5.1705  
G01 X-2.5365 Y5.1631  
G01 X-2.5431 Y5.1565  
G01 X-2.5505 Y5.1508  
G01 X-2.5585 Y5.1462  
G01 X-2.5671 Y5.1426  
