(.../EAGLE-7.2.0/ulp/pcb-gcode.ulp)
(Copyright 2005 - 2012 by John Johnson)
(See readme.txt for licensing terms.)
(This file generated from the board:)
(.../HVSquareWave/eagle/gatedriver_ixys.brd)
(Current profile is .../EAGLE-7.2.0/ulp/profiles/mach.pp  )
(This file generated 7/9/2015 11:30:43 AM)
(Settings from pcb-machine.h)
(spindle on time = 3.0000)
(spindle speed = 5000.0000)
(tool change at 0.0000  0.0000  1.0000  )
(feed rate xy = F0     )
(feed rate z  = F20    )
(Z Axis Settings)
(  High     Up        Down     Drill)
(0.5000  	0.1000  	-0.0070 	-0.0625 )
(Settings from pcb-defaults.h)
(isolate min = 0.0010)
(isolate max = 0.0560)
(isolate step = 0.0050)
(Generated top outlines, top drill, bottom outlines, bottom drill, )
(Unit of measure: inch)
( Tool|       Size       |  Min Sub |  Max Sub |   Count )
( T01 | 0.600mm 0.0236in | 0.0000in | 0.0000in |       0 )
( T02 | 0.813mm 0.0320in | 0.0000in | 0.0000in |       0 )
( T03 | 1.000mm 0.0394in | 0.0000in | 0.0000in |       0 )
( T04 | 1.016mm 0.0400in | 0.0000in | 0.0000in |       0 )
( T05 | 1.118mm 0.0440in | 0.0000in | 0.0000in |       0 )
( T06 | 1.270mm 0.0500in | 0.0000in | 0.0000in |       0 )
( T07 | 1.397mm 0.0550in | 0.0000in | 0.0000in |       0 )
( T08 | 1.700mm 0.0669in | 0.0000in | 0.0000in |       0 )
( T09 | 1.778mm 0.0700in | 0.0000in | 0.0000in |       0 )
( T10 | 2.007mm 0.0790in | 0.0000in | 0.0000in |       0 )
( T11 | 3.200mm 0.1260in | 0.0000in | 0.0000in |       0 )
(Inch Mode)
G20
(Absolute Coordinates)
G90
S5000
G00 Z0.5000  
G00 X0.0000  Y0.0000  
M03
G04 P3.000000
M05
G00 Z1.0000  
M06 T01  ; 0.0236  
G01 Z0.0000  F20    
M06 
G00 Z0.1000  
M03
G04 P3.000000
G82 X-1.0000 Y3.1600  Z-0.0625 F20    R0.1000  P1.000000
G82 X-2.3000 Y3.2600  
G82 X-2.3000 Y3.8100  
M05
G00 Z1.0000  
G00 X0.0000  Y0.0000  
M06 T02  ; 0.0320  
G01 Z0.0000  F20    
M06 
G00 Z0.1000  
M03
G04 P3.000000
G82 X-0.5000 Y5.0800  Z-0.0625 F20    R0.1000  P1.000000
G82 X-0.9000 Y5.0800  
G82 X-2.3000 Y4.3500  
G82 X-2.4000 Y4.3500  
G82 X-2.5000 Y4.3500  
G82 X-2.5000 Y4.0500  
G82 X-2.4000 Y4.0500  
G82 X-2.3000 Y4.0500  
G82 X-2.8700 Y4.3500  
G82 X-3.0700 Y4.3500  
G82 X-3.3600 Y4.3500  
G82 X-3.3600 Y4.7500  
G82 X-3.3600 Y5.0100  
G82 X-3.3600 Y5.2100  
G82 X-4.4100 Y5.2900  
G82 X-4.4100 Y5.0900  
G82 X-4.4300 Y3.6600  
G82 X-4.4300 Y3.4600  
G82 X-4.7400 Y2.9500  
G82 X-5.1400 Y2.9500  
G82 X-4.4200 Y2.4500  
G82 X-4.4200 Y2.2500  
G82 X-3.3200 Y2.2300  
G82 X-3.3200 Y2.4300  
G82 X-3.3200 Y1.9800  
G82 X-3.3200 Y1.5800  
G82 X-3.0300 Y1.5800  
G82 X-2.8300 Y1.5800  
G82 X-2.5000 Y1.5800  
G82 X-2.4000 Y1.5800  
G82 X-2.3000 Y1.5800  
G82 X-2.3000 Y1.2800  
G82 X-2.4000 Y1.2800  
G82 X-2.5000 Y1.2800  
G82 X-3.3300 Y0.9000  
G82 X-3.3300 Y0.7000  
G82 X-4.3800 Y0.6500  
G82 X-4.3800 Y0.8500  
G82 X-2.3000 Y2.6400  
G82 X-2.1000 Y2.6400  
G82 X-2.1000 Y3.0100  
G82 X-2.3000 Y3.0100  
G82 X-1.6500 Y3.0200  
G82 X-1.6500 Y2.9200  
G82 X-1.6500 Y2.8200  
G82 X-1.6500 Y2.7200  
G82 X-1.3500 Y2.7200  
G82 X-1.3500 Y2.8200  
G82 X-1.3500 Y2.9200  
G82 X-1.3500 Y3.0200  
G82 X-3.3500 Y3.4400  
G82 X-3.3500 Y3.6400  
M05
G00 Z1.0000  
G00 X0.0000  Y0.0000  
M06 T03  ; 0.0394  
G01 Z0.0000  F20    
M06 
G00 Z0.1000  
M03
G04 P3.000000
G82 X-0.2400 Y3.5300  Z-0.0625 F20    R0.1000  P1.000000
G82 X-0.2400 Y3.7300  
G82 X-0.2400 Y3.9300  
G82 X-0.5400 Y3.9300  
G82 X-0.5400 Y3.7300  
G82 X-0.5400 Y3.5300  
G82 X-1.1500 Y3.4400  
G82 X-1.1500 Y3.6400  
G82 X-1.1500 Y4.2400  
G82 X-1.1500 Y4.3400  
G82 X-1.1500 Y4.4400  
G82 X-1.7500 Y4.3400  
G82 X-1.7500 Y4.2400  
G82 X-1.7500 Y3.6400  
G82 X-1.7500 Y3.4400  
G82 X-0.5400 Y4.2300  
G82 X-0.2400 Y4.2300  
G82 X-1.1400 Y1.7000  
G82 X-1.1400 Y1.6000  
G82 X-1.1400 Y1.5000  
G82 X-1.1400 Y0.9000  
G82 X-1.1400 Y0.7000  
G82 X-1.7400 Y0.7000  
G82 X-1.7400 Y0.9000  
G82 X-1.7400 Y1.5000  
G82 X-1.7400 Y1.6000  
M05
G00 Z1.0000  
G00 X0.0000  Y0.0000  
M06 T04  ; 0.0400  
G01 Z0.0000  F20    
M06 
G00 Z0.1000  
M03
G04 P3.000000
G82 X-2.5000 Y0.7000  Z-0.0625 F20    R0.1000  P1.000000
G82 X-2.5000 Y0.9000  
G82 X-2.5800 Y2.2300  
G82 X-2.5800 Y2.4300  
G82 X-2.6000 Y3.4400  
G82 X-2.6000 Y3.6400  
G82 X-2.5900 Y5.0100  
G82 X-2.5900 Y5.2100  
G82 X-5.1200 Y5.2900  
G82 X-5.1200 Y5.0900  
G82 X-5.1400 Y3.6600  
G82 X-5.1400 Y3.4600  
G82 X-5.1300 Y2.4500  
G82 X-5.1300 Y2.2500  
G82 X-5.1400 Y0.8500  
G82 X-5.1400 Y0.6500  
M05
G00 Z1.0000  
G00 X0.0000  Y0.0000  
M06 T05  ; 0.0440  
G01 Z0.0000  F20    
M06 
G00 Z0.1000  
M03
G04 P3.000000
G82 X-4.7200 Y5.7900  Z-0.0625 F20    R0.1000  P1.000000
G82 X-5.1200 Y5.7900  
G82 X-5.1400 Y0.2200  
G82 X-4.7400 Y0.2200  
M05
G00 Z1.0000  
G00 X0.0000  Y0.0000  
M06 T06  ; 0.0500  
G01 Z0.0000  F20    
M06 
G00 Z0.1000  
M03
G04 P3.000000
G82 X-0.6500 Y2.9200  Z-0.0625 F20    R0.1000  P1.000000
M05
G00 Z1.0000  
G00 X0.0000  Y0.0000  
M06 T07  ; 0.0550  
G01 Z0.0000  F20    
M06 
G00 Z0.1000  
M03
G04 P3.000000
G82 X-5.7400 Y0.8500  Z-0.0625 F20    R0.1000  P1.000000
G82 X-5.7400 Y1.4500  
G82 X-5.7400 Y1.8500  
G82 X-5.7400 Y2.4500  
G82 X-5.7400 Y3.6600  
G82 X-5.7400 Y4.2600  
G82 X-5.7400 Y4.6900  
G82 X-5.7400 Y5.2900  
M05
G00 Z1.0000  
G00 X0.0000  Y0.0000  
M06 T08  ; 0.0669  
G01 Z0.0000  F20    
M06 
G00 Z0.1000  
M03
G04 P3.000000
G82 X-0.5720 Y5.6500  Z-0.0625 F20    R0.1000  P1.000000
G82 X-0.7280 Y5.6500  
G82 X-1.3520 Y5.6500  
G82 X-1.5080 Y5.6500  
M05
G00 Z1.0000  
G00 X0.0000  Y0.0000  
M06 T09  ; 0.0700  
G01 Z0.0000  F20    
M06 
G00 Z0.1000  
M03
G04 P3.000000
G82 X-0.5496 Y2.8196  Z-0.0625 F20    R0.1000  P1.000000
G82 X-0.5496 Y3.0204  
G82 X-0.7504 Y3.0204  
G82 X-0.7504 Y2.8196  
M05
G00 Z1.0000  
G00 X0.0000  Y0.0000  
M06 T10  ; 0.0790  
G01 Z0.0000  F20    
M06 
G00 Z0.1000  
M03
G04 P3.000000
G82 X-4.1000 Y0.2200  Z-0.0625 F20    R0.1000  P1.000000
G82 X-4.2970 Y2.9480  
G82 X-5.7400 Y2.9530  
G82 X-4.2900 Y5.7900  
M05
G00 Z1.0000  
G00 X0.0000  Y0.0000  
M06 T11  ; 0.1260  
G01 Z0.0000  F20    
M06 
G00 Z0.1000  
M03
G04 P3.000000
G82 X-0.2500 Y0.2500  Z-0.0625 F20    R0.1000  P1.000000
G82 X-0.2500 Y5.7500  
G82 X-5.7500 Y5.7500  
G82 X-5.7500 Y0.2500  
T01 
G00 Z0.5000  
M05
M02
