(.../EAGLE-7.2.0/ulp/pcb-gcode.ulp)
(Copyright 2005 - 2012 by John Johnson)
(See readme.txt for licensing terms.)
(This file generated from the board:)
(.../HVSquareWave/eagle/gatedriver_ixys.brd)
(Current profile is .../EAGLE-7.2.0/ulp/profiles/mach.pp  )
(This file generated 7/9/2015 11:29:27 AM)
(Settings from pcb-machine.h)
(spindle on time = 3.0000)
(  Tool Size)
(0.0400  )
(spindle speed = 5000.0000)
(tool change at 0.0000  0.0000  1.0000  )
(feed rate xy = F20    )
(feed rate z  = F10    )
(Z Axis Settings)
(  High     Up        Down     Drill)
(0.5000  	0.1000  	-0.0070 	-0.0625 )
(Settings from pcb-defaults.h)
(isolate min = 0.0010)
(isolate max = 0.0560)
(isolate step = 0.0050)
(Generated top outlines, top drill, bottom outlines, bottom drill, )
(Unit of measure: inch)
(Inch Mode)
G20
(Absolute Coordinates)
G90
S5000
G00 Z0.5000  
G00 X0.0000  Y0.0000  
M03
G04 P3.000000
G00 Z0.1000  
G00 X0.0515  Y0.0555  
G01 Z-0.0070 F10    
G01 X0.0483  Y0.0603  F20    
G01 X0.0461  Y0.0655  
G01 X0.0450  Y0.0711  
G01 X0.0450  Y5.9289  
G01 X0.0461  Y5.9345  
G01 X0.0483  Y5.9397  
G01 X0.0515  Y5.9445  
G01 X0.0555  Y5.9485  
G01 X0.0603  Y5.9517  
G01 X0.0655  Y5.9539  
G01 X0.0711  Y5.9550  
G01 X4.1795  Y5.9550  
G01 X4.1814  Y5.9551  
G01 X4.1823  Y5.9550  
G01 X4.1833  Y5.9550  
G01 X4.1852  Y5.9546  
G01 X4.1871  Y5.9544  
G01 X4.1880  Y5.9541  
G01 X4.1889  Y5.9539  
G01 X4.1907  Y5.9532  
G01 X4.1925  Y5.9525  
G01 X4.1933  Y5.9521  
G01 X4.1942  Y5.9517  
G01 X4.1958  Y5.9506  
G01 X4.1974  Y5.9497  
G01 X4.1981  Y5.9491  
G01 X4.1989  Y5.9485  
G01 X4.2003  Y5.9472  
G01 X4.2017  Y5.9459  
G01 X4.2023  Y5.9452  
G01 X4.2030  Y5.9445  
G01 X4.2040  Y5.9429  
G01 X4.2052  Y5.9414  
G01 X4.2056  Y5.9405  
G01 X4.2061  Y5.9397  
G01 X4.2069  Y5.9380  
G01 X4.2077  Y5.9363  
G01 X4.2080  Y5.9353  
G01 X4.2083  Y5.9345  
G01 X4.2087  Y5.9326  
G01 X4.2092  Y5.9307  
G01 X4.2093  Y5.9298  
G01 X4.2094  Y5.9289  
G01 X4.2094  Y5.9269  
G01 X4.2096  Y5.9250  
G01 X4.2094  Y5.9241  
G01 X4.2094  Y5.9231  
G01 X4.2091  Y5.9213  
G01 X4.2088  Y5.9194  
G01 X4.2085  Y5.9185  
G01 X4.2083  Y5.9175  
G01 X4.2076  Y5.9158  
G01 X4.2070  Y5.9140  
G01 X4.2065  Y5.9131  
G01 X4.2061  Y5.9123  
G01 X4.2051  Y5.9107  
G01 X4.1929  Y5.8895  
G01 X4.1857  Y5.8630  
G01 X4.1857  Y5.7170  
G01 X4.1929  Y5.6905  
G01 X4.2066  Y5.6667  
G01 X4.2260  Y5.6473  
G01 X4.2498  Y5.6336  
G01 X4.2763  Y5.6265  
G01 X4.3037  Y5.6265  
G01 X4.3302  Y5.6336  
G01 X4.3540  Y5.6473  
G01 X4.3734  Y5.6667  
G01 X4.3871  Y5.6905  
G01 X4.3942  Y5.7170  
G01 X4.3942  Y5.8630  
G01 X4.3871  Y5.8895  
G01 X4.3749  Y5.9107  
G01 X4.3739  Y5.9123  
G01 X4.3735  Y5.9131  
G01 X4.3730  Y5.9140  
G01 X4.3724  Y5.9158  
G01 X4.3717  Y5.9175  
G01 X4.3715  Y5.9185  
G01 X4.3712  Y5.9194  
G01 X4.3709  Y5.9213  
G01 X4.3706  Y5.9231  
G01 X4.3706  Y5.9241  
G01 X4.3704  Y5.9250  
G01 X4.3706  Y5.9269  
G01 X4.3706  Y5.9289  
G01 X4.3707  Y5.9298  
G01 X4.3708  Y5.9307  
G01 X4.3713  Y5.9326  
G01 X4.3717  Y5.9345  
G01 X4.3720  Y5.9353  
G01 X4.3723  Y5.9363  
G01 X4.3731  Y5.9380  
G01 X4.3739  Y5.9397  
G01 X4.3744  Y5.9405  
G01 X4.3748  Y5.9414  
G01 X4.3760  Y5.9429  
G01 X4.3770  Y5.9445  
G01 X4.3777  Y5.9452  
G01 X4.3783  Y5.9459  
G01 X4.3797  Y5.9472  
G01 X4.3811  Y5.9485  
G01 X4.3819  Y5.9491  
G01 X4.3826  Y5.9497  
G01 X4.3842  Y5.9506  
G01 X4.3858  Y5.9517  
G01 X4.3867  Y5.9521  
G01 X4.3875  Y5.9525  
G01 X4.3893  Y5.9532  
G01 X4.3911  Y5.9539  
G01 X4.3920  Y5.9541  
G01 X4.3929  Y5.9544  
G01 X4.3948  Y5.9546  
G01 X4.3967  Y5.9550  
G01 X4.3977  Y5.9550  
G01 X4.3986  Y5.9551  
G01 X4.4005  Y5.9550  
G01 X5.9289  Y5.9550  
G01 X5.9345  Y5.9539  
G01 X5.9397  Y5.9517  
G01 X5.9445  Y5.9485  
G01 X5.9485  Y5.9445  
G01 X5.9517  Y5.9397  
G01 X5.9539  Y5.9345  
G01 X5.9550  Y5.9289  
G01 X5.9550  Y0.0711  
G01 X5.9539  Y0.0655  
G01 X5.9517  Y0.0603  
G01 X5.9485  Y0.0555  
G01 X5.9445  Y0.0515  
G01 X5.9397  Y0.0483  
G01 X5.9345  Y0.0461  
G01 X5.9289  Y0.0450  
G01 X4.1988  Y0.0450  
G01 X4.1960  Y0.0456  
G01 X4.1932  Y0.0461  
G01 X4.1880  Y0.0483  
G01 X4.1851  Y0.0502  
G01 X4.1832  Y0.0515  
G01 X4.1792  Y0.0555  
G01 X4.1760  Y0.0603  
G01 X4.1738  Y0.0655  
G01 X4.1732  Y0.0684  
G01 X4.1727  Y0.0711  
G01 X4.1727  Y0.0769  
G01 X4.1733  Y0.0797  
G01 X4.1738  Y0.0825  
G01 X4.1760  Y0.0877  
G01 X4.1779  Y0.0906  
G01 X4.1792  Y0.0925  
G01 X4.1793  Y0.0926  
G01 X4.1832  Y0.0965  
G01 X4.1834  Y0.0967  
G01 X4.1971  Y0.1205  
G01 X4.2042  Y0.1470  
G01 X4.2042  Y0.2930  
G01 X4.1971  Y0.3195  
G01 X4.1834  Y0.3433  
G01 X4.1640  Y0.3627  
G01 X4.1402  Y0.3764  
G01 X4.1137  Y0.3835  
G01 X4.0863  Y0.3835  
G01 X4.0598  Y0.3764  
G01 X4.0360  Y0.3627  
G01 X4.0166  Y0.3433  
G01 X4.0029  Y0.3195  
G01 X3.9957  Y0.2930  
G01 X3.9957  Y0.1470  
G01 X4.0029  Y0.1205  
G01 X4.0166  Y0.0967  
G01 X4.0168  Y0.0965  
G01 X4.0208  Y0.0925  
G01 X4.0221  Y0.0906  
G01 X4.0240  Y0.0877  
G01 X4.0262  Y0.0825  
G01 X4.0268  Y0.0796  
G01 X4.0273  Y0.0769  
G01 X4.0273  Y0.0711  
G01 X4.0267  Y0.0683  
G01 X4.0262  Y0.0655  
G01 X4.0240  Y0.0603  
G01 X4.0239  Y0.0601  
G01 X4.0208  Y0.0555  
G01 X4.0168  Y0.0515  
G01 X4.0149  Y0.0502  
G01 X4.0120  Y0.0483  
G01 X4.0068  Y0.0461  
G01 X4.0039  Y0.0455  
G01 X4.0012  Y0.0450  
G01 X0.0711  Y0.0450  
G01 X0.0655  Y0.0461  
G01 X0.0603  Y0.0483  
G01 X0.0555  Y0.0515  
G01 X0.0515  Y0.0555  
G00 Z0.1000  
G00 X0.1837  Y0.1636  
G01 Z-0.0070 F10    
G01 X0.2083  Y0.1494  F20    
G01 X0.2358  Y0.1420  
G01 X0.2642  Y0.1420  
G01 X0.2917  Y0.1494  
G01 X0.3163  Y0.1636  
G01 X0.3364  Y0.1837  
G01 X0.3506  Y0.2083  
G01 X0.3580  Y0.2358  
G01 X0.3580  Y0.2642  
G01 X0.3506  Y0.2917  
G01 X0.3364  Y0.3163  
G01 X0.3163  Y0.3364  
G01 X0.2917  Y0.3506  
G01 X0.2642  Y0.3580  
G01 X0.2358  Y0.3580  
G01 X0.2083  Y0.3506  
G01 X0.1837  Y0.3364  
G01 X0.1636  Y0.3163  
G01 X0.1494  Y0.2917  
G01 X0.1420  Y0.2642  
G01 X0.1420  Y0.2358  
G01 X0.1494  Y0.2083  
G01 X0.1636  Y0.1837  
G01 X0.1837  Y0.1636  
G00 Z0.1000  
G00 X1.0941  Y0.6402  
G01 Z-0.0070 F10    
G01 X1.1112  Y0.6304  F20    
G01 X1.1302  Y0.6253  
G01 X1.1498  Y0.6253  
G01 X1.1688  Y0.6304  
G01 X1.1859  Y0.6402  
G01 X1.1998  Y0.6541  
G01 X1.2096  Y0.6712  
G01 X1.2147  Y0.6902  
G01 X1.2147  Y0.7098  
G01 X1.2096  Y0.7288  
G01 X1.1998  Y0.7459  
G01 X1.1859  Y0.7598  
G01 X1.1688  Y0.7696  
G01 X1.1617  Y0.7715  
G01 X1.1608  Y0.7716  
G01 X1.1590  Y0.7722  
G01 X1.1571  Y0.7727  
G01 X1.1563  Y0.7732  
G01 X1.1554  Y0.7735  
G01 X1.1537  Y0.7744  
G01 X1.1520  Y0.7753  
G01 X1.1513  Y0.7758  
G01 X1.1504  Y0.7763  
G01 X1.1490  Y0.7776  
G01 X1.1475  Y0.7787  
G01 X1.1469  Y0.7794  
G01 X1.1461  Y0.7801  
G01 X1.1450  Y0.7816  
G01 X1.1437  Y0.7830  
G01 X1.1432  Y0.7839  
G01 X1.1427  Y0.7846  
G01 X1.1418  Y0.7863  
G01 X1.1409  Y0.7880  
G01 X1.1406  Y0.7889  
G01 X1.1401  Y0.7897  
G01 X1.1400  Y0.7902  
G01 X1.1399  Y0.7897  
G01 X1.1394  Y0.7889  
G01 X1.1391  Y0.7880  
G01 X1.1382  Y0.7863  
G01 X1.1373  Y0.7846  
G01 X1.1368  Y0.7839  
G01 X1.1363  Y0.7830  
G01 X1.1350  Y0.7816  
G01 X1.1339  Y0.7801  
G01 X1.1331  Y0.7794  
G01 X1.1325  Y0.7787  
G01 X1.1310  Y0.7776  
G01 X1.1296  Y0.7763  
G01 X1.1287  Y0.7758  
G01 X1.1280  Y0.7753  
G01 X1.1263  Y0.7744  
G01 X1.1246  Y0.7735  
G01 X1.1237  Y0.7731  
G01 X1.1229  Y0.7727  
G01 X1.1210  Y0.7722  
G01 X1.1192  Y0.7716  
G01 X1.1183  Y0.7715  
G01 X1.1112  Y0.7696  
G01 X1.0941  Y0.7598  
G01 X1.0802  Y0.7459  
G01 X1.0704  Y0.7288  
G01 X1.0653  Y0.7098  
G01 X1.0653  Y0.6902  
G01 X1.0704  Y0.6712  
G01 X1.0802  Y0.6541  
G01 X1.0941  Y0.6402  
G00 Z0.1000  
G00 X1.1013  Y0.6670  
G01 Z-0.0070 F10    
G01 X1.0967  Y0.6734  F20    
G01 X1.0930  Y0.6805  
G01 X1.0906  Y0.6881  
G01 X1.0893  Y0.6960  
G01 X1.0893  Y0.7040  
G01 X1.0906  Y0.7119  
G01 X1.0930  Y0.7195  
G01 X1.0967  Y0.7266  
G01 X1.1013  Y0.7330  
G01 X1.1070  Y0.7387  
G01 X1.1134  Y0.7433  
G01 X1.1205  Y0.7470  
G01 X1.1281  Y0.7494  
G01 X1.1360  Y0.7507  
G01 X1.1440  Y0.7507  
G01 X1.1519  Y0.7494  
G01 X1.1595  Y0.7470  
G01 X1.1666  Y0.7433  
G01 X1.1730  Y0.7387  
G01 X1.1787  Y0.7330  
G01 X1.1833  Y0.7266  
G01 X1.1870  Y0.7195  
G01 X1.1894  Y0.7119  
G01 X1.1907  Y0.7040  
G01 X1.1907  Y0.6960  
G01 X1.1894  Y0.6881  
G01 X1.1870  Y0.6805  
G01 X1.1833  Y0.6734  
G01 X1.1787  Y0.6670  
G01 X1.1730  Y0.6613  
G01 X1.1666  Y0.6567  
G01 X1.1595  Y0.6530  
G01 X1.1519  Y0.6506  
G01 X1.1440  Y0.6493  
G01 X1.1360  Y0.6493  
G01 X1.1281  Y0.6506  
G01 X1.1205  Y0.6530  
G01 X1.1134  Y0.6567  
G01 X1.1070  Y0.6613  
G01 X1.1013  Y0.6670  
G00 Z0.1000  
G00 X1.1112  Y0.8304  
G01 Z-0.0070 F10    
G01 X1.1183  Y0.8285  F20    
G01 X1.1192  Y0.8284  
G01 X1.1210  Y0.8278  
G01 X1.1229  Y0.8273  
G01 X1.1237  Y0.8269  
G01 X1.1246  Y0.8265  
G01 X1.1263  Y0.8256  
G01 X1.1280  Y0.8247  
G01 X1.1287  Y0.8242  
G01 X1.1296  Y0.8237  
G01 X1.1310  Y0.8224  
G01 X1.1325  Y0.8213  
G01 X1.1331  Y0.8205  
G01 X1.1339  Y0.8199  
G01 X1.1350  Y0.8184  
G01 X1.1363  Y0.8170  
G01 X1.1368  Y0.8161  
G01 X1.1373  Y0.8154  
G01 X1.1382  Y0.8137  
G01 X1.1391  Y0.8120  
G01 X1.1394  Y0.8111  
G01 X1.1399  Y0.8103  
G01 X1.1400  Y0.8098  
G01 X1.1401  Y0.8103  
G01 X1.1406  Y0.8111  
G01 X1.1409  Y0.8120  
G01 X1.1418  Y0.8137  
G01 X1.1427  Y0.8154  
G01 X1.1432  Y0.8161  
G01 X1.1437  Y0.8170  
G01 X1.1450  Y0.8184  
G01 X1.1461  Y0.8199  
G01 X1.1469  Y0.8205  
G01 X1.1475  Y0.8213  
G01 X1.1490  Y0.8224  
G01 X1.1504  Y0.8237  
G01 X1.1513  Y0.8242  
G01 X1.1520  Y0.8247  
G01 X1.1537  Y0.8256  
G01 X1.1554  Y0.8265  
G01 X1.1563  Y0.8269  
G01 X1.1571  Y0.8273  
G01 X1.1590  Y0.8278  
G01 X1.1608  Y0.8284  
G01 X1.1617  Y0.8285  
G01 X1.1688  Y0.8304  
G01 X1.1859  Y0.8402  
G01 X1.1998  Y0.8541  
G01 X1.2096  Y0.8712  
G01 X1.2147  Y0.8902  
G01 X1.2147  Y0.9098  
G01 X1.2096  Y0.9288  
G01 X1.1998  Y0.9459  
G01 X1.1859  Y0.9598  
G01 X1.1688  Y0.9696  
G01 X1.1498  Y0.9747  
G01 X1.1302  Y0.9747  
G01 X1.1112  Y0.9696  
G01 X1.0941  Y0.9598  
G01 X1.0802  Y0.9459  
G01 X1.0704  Y0.9288  
G01 X1.0653  Y0.9098  
G01 X1.0653  Y0.8902  
G01 X1.0704  Y0.8712  
G01 X1.0802  Y0.8541  
G01 X1.0941  Y0.8402  
G01 X1.1112  Y0.8304  
G00 Z0.1000  
G00 X1.1134  Y0.8567  
G01 Z-0.0070 F10    
G01 X1.1070  Y0.8613  F20    
G01 X1.1013  Y0.8670  
G01 X1.0967  Y0.8734  
G01 X1.0930  Y0.8805  
G01 X1.0906  Y0.8881  
G01 X1.0893  Y0.8960  
G01 X1.0893  Y0.9040  
G01 X1.0906  Y0.9119  
G01 X1.0930  Y0.9195  
G01 X1.0967  Y0.9266  
G01 X1.1013  Y0.9330  
G01 X1.1070  Y0.9387  
G01 X1.1134  Y0.9433  
G01 X1.1205  Y0.9470  
G01 X1.1281  Y0.9494  
G01 X1.1360  Y0.9507  
G01 X1.1440  Y0.9507  
G01 X1.1519  Y0.9494  
G01 X1.1595  Y0.9470  
G01 X1.1666  Y0.9433  
G01 X1.1730  Y0.9387  
G01 X1.1787  Y0.9330  
G01 X1.1833  Y0.9266  
G01 X1.1870  Y0.9195  
G01 X1.1894  Y0.9119  
G01 X1.1907  Y0.9040  
G01 X1.1907  Y0.8960  
G01 X1.1894  Y0.8881  
G01 X1.1870  Y0.8805  
G01 X1.1833  Y0.8734  
G01 X1.1787  Y0.8670  
G01 X1.1730  Y0.8613  
G01 X1.1666  Y0.8567  
G01 X1.1595  Y0.8530  
G01 X1.1519  Y0.8506  
G01 X1.1440  Y0.8493  
G01 X1.1360  Y0.8493  
G01 X1.1281  Y0.8506  
G01 X1.1205  Y0.8530  
G01 X1.1134  Y0.8567  
G00 Z0.1000  
G00 X1.6802  Y0.8541  
G01 Z-0.0070 F10    
G01 X1.6941  Y0.8402  F20    
G01 X1.7112  Y0.8304  
G01 X1.7183  Y0.8285  
G01 X1.7192  Y0.8284  
G01 X1.7210  Y0.8278  
G01 X1.7229  Y0.8273  
G01 X1.7237  Y0.8268  
G01 X1.7246  Y0.8265  
G01 X1.7263  Y0.8256  
G01 X1.7280  Y0.8247  
G01 X1.7287  Y0.8242  
G01 X1.7296  Y0.8237  
G01 X1.7310  Y0.8224  
G01 X1.7325  Y0.8213  
G01 X1.7331  Y0.8205  
G01 X1.7339  Y0.8199  
G01 X1.7350  Y0.8184  
G01 X1.7363  Y0.8170  
G01 X1.7368  Y0.8161  
G01 X1.7373  Y0.8154  
G01 X1.7382  Y0.8137  
G01 X1.7391  Y0.8120  
G01 X1.7394  Y0.8111  
G01 X1.7399  Y0.8103  
G01 X1.7400  Y0.8098  
G01 X1.7401  Y0.8103  
G01 X1.7406  Y0.8111  
G01 X1.7409  Y0.8120  
G01 X1.7418  Y0.8137  
G01 X1.7427  Y0.8154  
G01 X1.7432  Y0.8161  
G01 X1.7437  Y0.8170  
G01 X1.7450  Y0.8184  
G01 X1.7461  Y0.8199  
G01 X1.7469  Y0.8205  
G01 X1.7475  Y0.8213  
G01 X1.7490  Y0.8224  
G01 X1.7504  Y0.8237  
G01 X1.7513  Y0.8242  
G01 X1.7520  Y0.8247  
G01 X1.7537  Y0.8256  
G01 X1.7554  Y0.8265  
G01 X1.7563  Y0.8268  
G01 X1.7571  Y0.8273  
G01 X1.7590  Y0.8278  
G01 X1.7608  Y0.8284  
G01 X1.7617  Y0.8285  
G01 X1.7688  Y0.8304  
G01 X1.7859  Y0.8402  
G01 X1.7998  Y0.8541  
G01 X1.8096  Y0.8712  
G01 X1.8147  Y0.8902  
G01 X1.8147  Y0.9098  
G01 X1.8096  Y0.9288  
G01 X1.7998  Y0.9459  
G01 X1.7859  Y0.9598  
G01 X1.7688  Y0.9696  
G01 X1.7498  Y0.9747  
G01 X1.7302  Y0.9747  
G01 X1.7112  Y0.9696  
G01 X1.6941  Y0.9598  
G01 X1.6802  Y0.9459  
G01 X1.6704  Y0.9288  
G01 X1.6653  Y0.9098  
G01 X1.6653  Y0.8902  
G01 X1.6704  Y0.8712  
G01 X1.6802  Y0.8541  
G00 Z0.1000  
G00 X1.7013  Y0.8670  
G01 Z-0.0070 F10    
G01 X1.6967  Y0.8734  F20    
G01 X1.6930  Y0.8805  
G01 X1.6906  Y0.8881  
G01 X1.6893  Y0.8960  
G01 X1.6893  Y0.9040  
G01 X1.6906  Y0.9119  
G01 X1.6930  Y0.9195  
G01 X1.6967  Y0.9266  
G01 X1.7013  Y0.9330  
G01 X1.7070  Y0.9387  
G01 X1.7134  Y0.9433  
G01 X1.7205  Y0.9470  
G01 X1.7281  Y0.9494  
G01 X1.7360  Y0.9507  
G01 X1.7440  Y0.9507  
G01 X1.7519  Y0.9494  
G01 X1.7595  Y0.9470  
G01 X1.7666  Y0.9433  
G01 X1.7730  Y0.9387  
G01 X1.7787  Y0.9330  
G01 X1.7833  Y0.9266  
G01 X1.7870  Y0.9195  
G01 X1.7894  Y0.9119  
G01 X1.7907  Y0.9040  
G01 X1.7907  Y0.8960  
G01 X1.7894  Y0.8881  
G01 X1.7870  Y0.8805  
G01 X1.7833  Y0.8734  
G01 X1.7787  Y0.8670  
G01 X1.7730  Y0.8613  
G01 X1.7666  Y0.8567  
G01 X1.7595  Y0.8530  
G01 X1.7519  Y0.8506  
G01 X1.7440  Y0.8493  
G01 X1.7360  Y0.8493  
G01 X1.7281  Y0.8506  
G01 X1.7205  Y0.8530  
G01 X1.7134  Y0.8567  
G01 X1.7070  Y0.8613  
G01 X1.7013  Y0.8670  
G00 Z0.1000  
G00 X1.7112  Y0.7696  
G01 Z-0.0070 F10    
G01 X1.6941  Y0.7598  F20    
G01 X1.6802  Y0.7459  
G01 X1.6704  Y0.7288  
G01 X1.6653  Y0.7098  
G01 X1.6653  Y0.6902  
G01 X1.6704  Y0.6712  
G01 X1.6802  Y0.6541  
G01 X1.6941  Y0.6402  
G01 X1.7112  Y0.6304  
G01 X1.7302  Y0.6253  
G01 X1.7498  Y0.6253  
G01 X1.7688  Y0.6304  
G01 X1.7859  Y0.6402  
G01 X1.7998  Y0.6541  
G01 X1.8096  Y0.6712  
G01 X1.8147  Y0.6902  
G01 X1.8147  Y0.7098  
G01 X1.8096  Y0.7288  
G01 X1.7998  Y0.7459  
G01 X1.7859  Y0.7598  
G01 X1.7688  Y0.7696  
G01 X1.7617  Y0.7715  
G01 X1.7608  Y0.7716  
G01 X1.7590  Y0.7722  
G01 X1.7571  Y0.7727  
G01 X1.7563  Y0.7732  
G01 X1.7554  Y0.7735  
G01 X1.7537  Y0.7744  
G01 X1.7520  Y0.7753  
G01 X1.7513  Y0.7758  
G01 X1.7504  Y0.7763  
G01 X1.7490  Y0.7776  
G01 X1.7475  Y0.7787  
G01 X1.7469  Y0.7794  
G01 X1.7461  Y0.7801  
G01 X1.7450  Y0.7816  
G01 X1.7437  Y0.7830  
G01 X1.7432  Y0.7839  
G01 X1.7427  Y0.7846  
G01 X1.7418  Y0.7863  
G01 X1.7409  Y0.7880  
G01 X1.7406  Y0.7889  
G01 X1.7401  Y0.7897  
G01 X1.7400  Y0.7902  
G01 X1.7399  Y0.7897  
G01 X1.7394  Y0.7889  
G01 X1.7391  Y0.7880  
G01 X1.7382  Y0.7863  
G01 X1.7373  Y0.7846  
G01 X1.7368  Y0.7839  
G01 X1.7363  Y0.7830  
G01 X1.7350  Y0.7816  
G01 X1.7339  Y0.7801  
G01 X1.7331  Y0.7794  
G01 X1.7325  Y0.7787  
G01 X1.7310  Y0.7776  
G01 X1.7296  Y0.7763  
G01 X1.7287  Y0.7758  
G01 X1.7280  Y0.7753  
G01 X1.7263  Y0.7744  
G01 X1.7246  Y0.7735  
G01 X1.7237  Y0.7732  
G01 X1.7229  Y0.7727  
G01 X1.7210  Y0.7722  
G01 X1.7192  Y0.7716  
G01 X1.7183  Y0.7715  
G01 X1.7112  Y0.7696  
G00 Z0.1000  
G00 X1.7134  Y0.7433  
G01 Z-0.0070 F10    
G01 X1.7205  Y0.7470  F20    
G01 X1.7281  Y0.7494  
G01 X1.7360  Y0.7507  
G01 X1.7440  Y0.7507  
G01 X1.7519  Y0.7494  
G01 X1.7595  Y0.7470  
G01 X1.7666  Y0.7433  
G01 X1.7730  Y0.7387  
G01 X1.7787  Y0.7330  
G01 X1.7833  Y0.7266  
G01 X1.7870  Y0.7195  
G01 X1.7894  Y0.7119  
G01 X1.7907  Y0.7040  
G01 X1.7907  Y0.6960  
G01 X1.7894  Y0.6881  
G01 X1.7870  Y0.6805  
G01 X1.7833  Y0.6734  
G01 X1.7787  Y0.6670  
G01 X1.7730  Y0.6613  
G01 X1.7666  Y0.6567  
G01 X1.7595  Y0.6530  
G01 X1.7519  Y0.6506  
G01 X1.7440  Y0.6493  
G01 X1.7360  Y0.6493  
G01 X1.7281  Y0.6506  
G01 X1.7205  Y0.6530  
G01 X1.7134  Y0.6567  
G01 X1.7070  Y0.6613  
G01 X1.7013  Y0.6670  
G01 X1.6967  Y0.6734  
G01 X1.6930  Y0.6805  
G01 X1.6906  Y0.6881  
G01 X1.6893  Y0.6960  
G01 X1.6893  Y0.7040  
G01 X1.6906  Y0.7119  
G01 X1.6930  Y0.7195  
G01 X1.6967  Y0.7266  
G01 X1.7013  Y0.7330  
G01 X1.7070  Y0.7387  
G01 X1.7134  Y0.7433  
G00 Z0.1000  
G00 X1.7112  Y1.4304  
G01 Z-0.0070 F10    
G01 X1.7302  Y1.4253  F20    
G01 X1.7498  Y1.4253  
G01 X1.7688  Y1.4304  
G01 X1.7859  Y1.4402  
G01 X1.7998  Y1.4541  
G01 X1.8096  Y1.4712  
G01 X1.8147  Y1.4902  
G01 X1.8147  Y1.5098  
G01 X1.8096  Y1.5288  
G01 X1.8067  Y1.5339  
G01 X1.8061  Y1.5346  
G01 X1.8053  Y1.5363  
G01 X1.8043  Y1.5380  
G01 X1.8040  Y1.5389  
G01 X1.8036  Y1.5397  
G01 X1.8031  Y1.5416  
G01 X1.8025  Y1.5434  
G01 X1.8024  Y1.5443  
G01 X1.8021  Y1.5453  
G01 X1.8020  Y1.5472  
G01 X1.8017  Y1.5490  
G01 X1.8018  Y1.5500  
G01 X1.8017  Y1.5510  
G01 X1.8020  Y1.5528  
G01 X1.8021  Y1.5547  
G01 X1.8024  Y1.5557  
G01 X1.8025  Y1.5566  
G01 X1.8031  Y1.5584  
G01 X1.8036  Y1.5603  
G01 X1.8040  Y1.5611  
G01 X1.8043  Y1.5620  
G01 X1.8053  Y1.5637  
G01 X1.8061  Y1.5654  
G01 X1.8067  Y1.5661  
G01 X1.8096  Y1.5712  
G01 X1.8147  Y1.5902  
G01 X1.8147  Y1.6098  
G01 X1.8096  Y1.6288  
G01 X1.7998  Y1.6459  
G01 X1.7859  Y1.6598  
G01 X1.7688  Y1.6696  
G01 X1.7498  Y1.6747  
G01 X1.7302  Y1.6747  
G01 X1.7112  Y1.6696  
G01 X1.6941  Y1.6598  
G01 X1.6802  Y1.6459  
G01 X1.6704  Y1.6288  
G01 X1.6653  Y1.6098  
G01 X1.6653  Y1.5902  
G01 X1.6704  Y1.5712  
G01 X1.6733  Y1.5661  
G01 X1.6739  Y1.5654  
G01 X1.6747  Y1.5637  
G01 X1.6757  Y1.5620  
G01 X1.6760  Y1.5611  
G01 X1.6764  Y1.5603  
G01 X1.6769  Y1.5584  
G01 X1.6775  Y1.5566  
G01 X1.6776  Y1.5557  
G01 X1.6779  Y1.5547  
G01 X1.6780  Y1.5528  
G01 X1.6783  Y1.5510  
G01 X1.6782  Y1.5500  
G01 X1.6783  Y1.5490  
G01 X1.6780  Y1.5472  
G01 X1.6779  Y1.5453  
G01 X1.6776  Y1.5443  
G01 X1.6775  Y1.5434  
G01 X1.6769  Y1.5416  
G01 X1.6764  Y1.5397  
G01 X1.6760  Y1.5389  
G01 X1.6757  Y1.5380  
G01 X1.6747  Y1.5363  
G01 X1.6739  Y1.5346  
G01 X1.6733  Y1.5339  
G01 X1.6704  Y1.5288  
G01 X1.6653  Y1.5098  
G01 X1.6653  Y1.4902  
G01 X1.6704  Y1.4712  
G01 X1.6802  Y1.4541  
G01 X1.6941  Y1.4402  
G01 X1.7112  Y1.4304  
G00 Z0.1000  
G00 X1.7134  Y1.4567  
G01 Z-0.0070 F10    
G01 X1.7070  Y1.4613  F20    
G01 X1.7013  Y1.4670  
G01 X1.6967  Y1.4734  
G01 X1.6930  Y1.4805  
G01 X1.6906  Y1.4881  
G01 X1.6893  Y1.4960  
G01 X1.6893  Y1.5040  
G01 X1.6906  Y1.5119  
G01 X1.6930  Y1.5195  
G01 X1.6967  Y1.5266  
G01 X1.7013  Y1.5330  
G01 X1.7070  Y1.5387  
G01 X1.7134  Y1.5433  
G01 X1.7205  Y1.5470  
G01 X1.7281  Y1.5494  
G01 X1.7317  Y1.5500  
G01 X1.7281  Y1.5506  
G01 X1.7205  Y1.5530  
G01 X1.7134  Y1.5567  
G01 X1.7070  Y1.5613  
G01 X1.7013  Y1.5670  
G01 X1.6967  Y1.5734  
G01 X1.6930  Y1.5805  
G01 X1.6906  Y1.5881  
G01 X1.6893  Y1.5960  
G01 X1.6893  Y1.6040  
G01 X1.6906  Y1.6119  
G01 X1.6930  Y1.6195  
G01 X1.6967  Y1.6266  
G01 X1.7013  Y1.6330  
G01 X1.7070  Y1.6387  
G01 X1.7134  Y1.6433  
G01 X1.7205  Y1.6470  
G01 X1.7281  Y1.6494  
G01 X1.7360  Y1.6507  
G01 X1.7440  Y1.6507  
G01 X1.7519  Y1.6494  
G01 X1.7595  Y1.6470  
G01 X1.7666  Y1.6433  
G01 X1.7730  Y1.6387  
G01 X1.7787  Y1.6330  
G01 X1.7833  Y1.6266  
G01 X1.7870  Y1.6195  
G01 X1.7894  Y1.6119  
G01 X1.7907  Y1.6040  
G01 X1.7907  Y1.5960  
G01 X1.7894  Y1.5881  
G01 X1.7870  Y1.5805  
G01 X1.7833  Y1.5734  
G01 X1.7787  Y1.5670  
G01 X1.7730  Y1.5613  
G01 X1.7666  Y1.5567  
G01 X1.7595  Y1.5530  
G01 X1.7519  Y1.5506  
G01 X1.7483  Y1.5500  
G01 X1.7519  Y1.5494  
G01 X1.7595  Y1.5470  
G01 X1.7666  Y1.5433  
G01 X1.7730  Y1.5387  
G01 X1.7787  Y1.5330  
G01 X1.7833  Y1.5266  
G01 X1.7870  Y1.5195  
G01 X1.7894  Y1.5119  
G01 X1.7907  Y1.5040  
G01 X1.7907  Y1.4960  
G01 X1.7894  Y1.4881  
G01 X1.7870  Y1.4805  
G01 X1.7833  Y1.4734  
G01 X1.7787  Y1.4670  
G01 X1.7730  Y1.4613  
G01 X1.7666  Y1.4567  
G01 X1.7595  Y1.4530  
G01 X1.7519  Y1.4506  
G01 X1.7440  Y1.4493  
G01 X1.7360  Y1.4493  
G01 X1.7281  Y1.4506  
G01 X1.7205  Y1.4530  
G01 X1.7134  Y1.4567  
G00 Z0.1000  
G00 X2.2598  Y1.4938  
G01 Z-0.0070 F10    
G01 X2.2859  Y1.4830  F20    
G01 X2.3141  Y1.4830  
G01 X2.3363  Y1.4922  
G01 X2.3415  Y1.4944  
G01 X2.3419  Y1.4944  
G01 X2.3471  Y1.4955  
G01 X2.3529  Y1.4955  
G01 X2.3585  Y1.4944  
G01 X2.3859  Y1.4830  
G01 X2.4141  Y1.4830  
G01 X2.4363  Y1.4922  
G01 X2.4415  Y1.4944  
G01 X2.4419  Y1.4944  
G01 X2.4471  Y1.4955  
G01 X2.4529  Y1.4955  
G01 X2.4585  Y1.4944  
G01 X2.4859  Y1.4830  
G01 X2.5141  Y1.4830  
G01 X2.5402  Y1.4938  
G01 X2.5602  Y1.5138  
G01 X2.5710  Y1.5399  
G01 X2.5710  Y1.6201  
G01 X2.5602  Y1.6462  
G01 X2.5402  Y1.6662  
G01 X2.5141  Y1.6770  
G01 X2.4859  Y1.6770  
G01 X2.4585  Y1.6656  
G01 X2.4532  Y1.6646  
G01 X2.4529  Y1.6645  
G01 X2.4471  Y1.6645  
G01 X2.4415  Y1.6656  
G01 X2.4414  Y1.6657  
G01 X2.4363  Y1.6678  
G01 X2.4141  Y1.6770  
G01 X2.3859  Y1.6770  
G01 X2.3585  Y1.6656  
G01 X2.3532  Y1.6646  
G01 X2.3529  Y1.6645  
G01 X2.3471  Y1.6645  
G01 X2.3415  Y1.6656  
G01 X2.3414  Y1.6657  
G01 X2.3363  Y1.6678  
G01 X2.3141  Y1.6770  
G01 X2.2859  Y1.6770  
G01 X2.2598  Y1.6662  
G01 X2.2398  Y1.6462  
G01 X2.2290  Y1.6201  
G01 X2.2290  Y1.5399  
G01 X2.2398  Y1.5138  
G01 X2.2598  Y1.4938  
G00 Z0.1000  
G00 X2.2642  Y1.5234  
G01 Z-0.0070 F10    
G01 X2.2598  Y1.5294  F20    
G01 X2.2564  Y1.5360  
G01 X2.2542  Y1.5430  
G01 X2.2530  Y1.5503  
G01 X2.2530  Y1.6097  
G01 X2.2542  Y1.6170  
G01 X2.2564  Y1.6240  
G01 X2.2598  Y1.6306  
G01 X2.2642  Y1.6366  
G01 X2.2694  Y1.6418  
G01 X2.2754  Y1.6462  
G01 X2.2820  Y1.6496  
G01 X2.2890  Y1.6518  
G01 X2.2963  Y1.6530  
G01 X2.3037  Y1.6530  
G01 X2.3110  Y1.6518  
G01 X2.3180  Y1.6496  
G01 X2.3246  Y1.6462  
G01 X2.3306  Y1.6418  
G01 X2.3358  Y1.6366  
G01 X2.3402  Y1.6306  
G01 X2.3436  Y1.6240  
G01 X2.3458  Y1.6170  
G01 X2.3470  Y1.6097  
G01 X2.3470  Y1.5503  
G01 X2.3458  Y1.5430  
G01 X2.3436  Y1.5360  
G01 X2.3402  Y1.5294  
G01 X2.3358  Y1.5234  
G01 X2.3306  Y1.5182  
G01 X2.3246  Y1.5138  
G01 X2.3180  Y1.5104  
G01 X2.3110  Y1.5082  
G01 X2.3037  Y1.5070  
G01 X2.2963  Y1.5070  
G01 X2.2890  Y1.5082  
G01 X2.2820  Y1.5104  
G01 X2.2754  Y1.5138  
G01 X2.2694  Y1.5182  
G01 X2.2642  Y1.5234  
G00 Z0.1000  
G00 X2.3642  Y1.5234  
G01 Z-0.0070 F10    
G01 X2.3598  Y1.5294  F20    
G01 X2.3564  Y1.5360  
G01 X2.3542  Y1.5430  
G01 X2.3530  Y1.5503  
G01 X2.3530  Y1.6097  
G01 X2.3542  Y1.6170  
G01 X2.3564  Y1.6240  
G01 X2.3598  Y1.6306  
G01 X2.3642  Y1.6366  
G01 X2.3694  Y1.6418  
G01 X2.3754  Y1.6462  
G01 X2.3820  Y1.6496  
G01 X2.3890  Y1.6518  
G01 X2.3963  Y1.6530  
G01 X2.4037  Y1.6530  
G01 X2.4110  Y1.6518  
G01 X2.4180  Y1.6496  
G01 X2.4246  Y1.6462  
G01 X2.4306  Y1.6418  
G01 X2.4358  Y1.6366  
G01 X2.4402  Y1.6306  
G01 X2.4436  Y1.6240  
G01 X2.4458  Y1.6170  
G01 X2.4470  Y1.6097  
G01 X2.4470  Y1.5503  
G01 X2.4458  Y1.5430  
G01 X2.4436  Y1.5360  
G01 X2.4402  Y1.5294  
G01 X2.4358  Y1.5234  
G01 X2.4306  Y1.5182  
G01 X2.4246  Y1.5138  
G01 X2.4180  Y1.5104  
G01 X2.4110  Y1.5082  
G01 X2.4037  Y1.5070  
G01 X2.3963  Y1.5070  
G01 X2.3890  Y1.5082  
G01 X2.3820  Y1.5104  
G01 X2.3754  Y1.5138  
G01 X2.3694  Y1.5182  
G01 X2.3642  Y1.5234  
G00 Z0.1000  
G00 X2.4642  Y1.5234  
G01 Z-0.0070 F10    
G01 X2.4598  Y1.5294  F20    
G01 X2.4564  Y1.5360  
G01 X2.4542  Y1.5430  
G01 X2.4530  Y1.5503  
G01 X2.4530  Y1.6097  
G01 X2.4542  Y1.6170  
G01 X2.4564  Y1.6240  
G01 X2.4598  Y1.6306  
G01 X2.4642  Y1.6366  
G01 X2.4694  Y1.6418  
G01 X2.4754  Y1.6462  
G01 X2.4820  Y1.6496  
G01 X2.4890  Y1.6518  
G01 X2.4963  Y1.6530  
G01 X2.5037  Y1.6530  
G01 X2.5110  Y1.6518  
G01 X2.5180  Y1.6496  
G01 X2.5246  Y1.6462  
G01 X2.5306  Y1.6418  
G01 X2.5358  Y1.6366  
G01 X2.5402  Y1.6306  
G01 X2.5436  Y1.6240  
G01 X2.5458  Y1.6170  
G01 X2.5470  Y1.6097  
G01 X2.5470  Y1.5503  
G01 X2.5458  Y1.5430  
G01 X2.5436  Y1.5360  
G01 X2.5402  Y1.5294  
G01 X2.5358  Y1.5234  
G01 X2.5306  Y1.5182  
G01 X2.5246  Y1.5138  
G01 X2.5180  Y1.5104  
G01 X2.5110  Y1.5082  
G01 X2.5037  Y1.5070  
G01 X2.4963  Y1.5070  
G01 X2.4890  Y1.5082  
G01 X2.4820  Y1.5104  
G01 X2.4754  Y1.5138  
G01 X2.4694  Y1.5182  
G01 X2.4642  Y1.5234  
G00 Z0.1000  
G00 X2.4402  Y1.3662  
G01 Z-0.0070 F10    
G01 X2.4141  Y1.3770  F20    
G01 X2.3859  Y1.3770  
G01 X2.3585  Y1.3656  
G01 X2.3532  Y1.3646  
G01 X2.3529  Y1.3645  
G01 X2.3471  Y1.3645  
G01 X2.3415  Y1.3656  
G01 X2.3414  Y1.3657  
G01 X2.3363  Y1.3678  
G01 X2.3141  Y1.3770  
G01 X2.2859  Y1.3770  
G01 X2.2598  Y1.3662  
G01 X2.2398  Y1.3462  
G01 X2.2290  Y1.3201  
G01 X2.2290  Y1.2399  
G01 X2.2398  Y1.2138  
G01 X2.2598  Y1.1938  
G01 X2.2859  Y1.1830  
G01 X2.3141  Y1.1830  
G01 X2.3363  Y1.1922  
G01 X2.3415  Y1.1944  
G01 X2.3419  Y1.1944  
G01 X2.3471  Y1.1955  
G01 X2.3529  Y1.1955  
G01 X2.3585  Y1.1944  
G01 X2.3859  Y1.1830  
G01 X2.4141  Y1.1830  
G01 X2.4402  Y1.1938  
G01 X2.4602  Y1.2138  
G01 X2.4642  Y1.2234  
G01 X2.4598  Y1.2294  
G01 X2.4564  Y1.2360  
G01 X2.4542  Y1.2430  
G01 X2.4530  Y1.2503  
G01 X2.4530  Y1.3097  
G01 X2.4542  Y1.3170  
G01 X2.4564  Y1.3240  
G01 X2.4598  Y1.3306  
G01 X2.4642  Y1.3366  
G01 X2.4602  Y1.3462  
G01 X2.4402  Y1.3662  
G00 Z0.1000  
G00 X2.4358  Y1.3366  
G01 Z-0.0070 F10    
G01 X2.4402  Y1.3306  F20    
G01 X2.4436  Y1.3240  
G01 X2.4458  Y1.3170  
G01 X2.4470  Y1.3097  
G01 X2.4470  Y1.2503  
G01 X2.4458  Y1.2430  
G01 X2.4436  Y1.2360  
G01 X2.4402  Y1.2294  
G01 X2.4358  Y1.2234  
G01 X2.4306  Y1.2182  
G01 X2.4246  Y1.2138  
G01 X2.4180  Y1.2104  
G01 X2.4110  Y1.2082  
G01 X2.4037  Y1.2070  
G01 X2.3963  Y1.2070  
G01 X2.3890  Y1.2082  
G01 X2.3820  Y1.2104  
G01 X2.3754  Y1.2138  
G01 X2.3694  Y1.2182  
G01 X2.3642  Y1.2234  
G01 X2.3598  Y1.2294  
G01 X2.3564  Y1.2360  
G01 X2.3542  Y1.2430  
G01 X2.3530  Y1.2503  
G01 X2.3530  Y1.3097  
G01 X2.3542  Y1.3170  
G01 X2.3564  Y1.3240  
G01 X2.3598  Y1.3306  
G01 X2.3642  Y1.3366  
G01 X2.3694  Y1.3418  
G01 X2.3754  Y1.3462  
G01 X2.3820  Y1.3496  
G01 X2.3890  Y1.3518  
G01 X2.3963  Y1.3530  
G01 X2.4037  Y1.3530  
G01 X2.4110  Y1.3518  
G01 X2.4180  Y1.3496  
G01 X2.4246  Y1.3462  
G01 X2.4306  Y1.3418  
G01 X2.4358  Y1.3366  
G00 Z0.1000  
G00 X2.3358  Y1.3366  
G01 Z-0.0070 F10    
G01 X2.3402  Y1.3306  F20    
G01 X2.3436  Y1.3240  
G01 X2.3458  Y1.3170  
G01 X2.3470  Y1.3097  
G01 X2.3470  Y1.2503  
G01 X2.3458  Y1.2430  
G01 X2.3436  Y1.2360  
G01 X2.3402  Y1.2294  
G01 X2.3358  Y1.2234  
G01 X2.3306  Y1.2182  
G01 X2.3246  Y1.2138  
G01 X2.3180  Y1.2104  
G01 X2.3110  Y1.2082  
G01 X2.3037  Y1.2070  
G01 X2.2963  Y1.2070  
G01 X2.2890  Y1.2082  
G01 X2.2820  Y1.2104  
G01 X2.2754  Y1.2138  
G01 X2.2694  Y1.2182  
G01 X2.2642  Y1.2234  
G01 X2.2598  Y1.2294  
G01 X2.2564  Y1.2360  
G01 X2.2542  Y1.2430  
G01 X2.2530  Y1.2503  
G01 X2.2530  Y1.3097  
G01 X2.2542  Y1.3170  
G01 X2.2564  Y1.3240  
G01 X2.2598  Y1.3306  
G01 X2.2642  Y1.3366  
G01 X2.2694  Y1.3418  
G01 X2.2754  Y1.3462  
G01 X2.2820  Y1.3496  
G01 X2.2890  Y1.3518  
G01 X2.2963  Y1.3530  
G01 X2.3037  Y1.3530  
G01 X2.3110  Y1.3518  
G01 X2.3180  Y1.3496  
G01 X2.3246  Y1.3462  
G01 X2.3306  Y1.3418  
G01 X2.3358  Y1.3366  
G00 Z0.1000  
G00 X2.4050  Y0.9394  
G01 Z-0.0070 F10    
G01 X2.4050  Y0.8606  F20    
G01 X2.4440  Y0.8216  
G01 X2.4448  Y0.8211  
G01 X2.4460  Y0.8196  
G01 X2.4474  Y0.8183  
G01 X2.4479  Y0.8175  
G01 X2.4485  Y0.8168  
G01 X2.4495  Y0.8151  
G01 X2.4505  Y0.8135  
G01 X2.4509  Y0.8126  
G01 X2.4514  Y0.8118  
G01 X2.4520  Y0.8100  
G01 X2.4527  Y0.8083  
G01 X2.4529  Y0.8073  
G01 X2.4532  Y0.8064  
G01 X2.4535  Y0.8045  
G01 X2.4538  Y0.8026  
G01 X2.4538  Y0.8017  
G01 X2.4540  Y0.8007  
G01 X2.4538  Y0.7988  
G01 X2.4538  Y0.7969  
G01 X2.4537  Y0.7960  
G01 X2.4536  Y0.7950  
G01 X2.4531  Y0.7932  
G01 X2.4527  Y0.7913  
G01 X2.4524  Y0.7904  
G01 X2.4521  Y0.7895  
G01 X2.4513  Y0.7878  
G01 X2.4505  Y0.7861  
G01 X2.4500  Y0.7853  
G01 X2.4496  Y0.7844  
G01 X2.4484  Y0.7829  
G01 X2.4474  Y0.7813  
G01 X2.4467  Y0.7806  
G01 X2.4461  Y0.7799  
G01 X2.4447  Y0.7786  
G01 X2.4433  Y0.7773  
G01 X2.4425  Y0.7767  
G01 X2.4418  Y0.7761  
G01 X2.4417  Y0.7760  
G01 X2.4240  Y0.7583  
G01 X2.4115  Y0.7367  
G01 X2.4050  Y0.7125  
G01 X2.4050  Y0.6875  
G01 X2.4115  Y0.6633  
G01 X2.4240  Y0.6417  
G01 X2.4417  Y0.6240  
G01 X2.4633  Y0.6115  
G01 X2.4875  Y0.6050  
G01 X2.5125  Y0.6050  
G01 X2.5367  Y0.6115  
G01 X2.5583  Y0.6240  
G01 X2.5760  Y0.6417  
G01 X2.5885  Y0.6633  
G01 X2.5950  Y0.6875  
G01 X2.5950  Y0.7125  
G01 X2.5885  Y0.7367  
G01 X2.5760  Y0.7583  
G01 X2.5583  Y0.7760  
G01 X2.5582  Y0.7761  
G01 X2.5575  Y0.7767  
G01 X2.5567  Y0.7773  
G01 X2.5553  Y0.7786  
G01 X2.5539  Y0.7799  
G01 X2.5533  Y0.7806  
G01 X2.5526  Y0.7813  
G01 X2.5516  Y0.7829  
G01 X2.5504  Y0.7844  
G01 X2.5500  Y0.7853  
G01 X2.5495  Y0.7861  
G01 X2.5487  Y0.7878  
G01 X2.5479  Y0.7895  
G01 X2.5476  Y0.7904  
G01 X2.5473  Y0.7913  
G01 X2.5469  Y0.7932  
G01 X2.5464  Y0.7950  
G01 X2.5463  Y0.7960  
G01 X2.5462  Y0.7969  
G01 X2.5462  Y0.7988  
G01 X2.5460  Y0.8007  
G01 X2.5462  Y0.8017  
G01 X2.5462  Y0.8026  
G01 X2.5465  Y0.8045  
G01 X2.5468  Y0.8064  
G01 X2.5471  Y0.8073  
G01 X2.5473  Y0.8083  
G01 X2.5480  Y0.8100  
G01 X2.5486  Y0.8118  
G01 X2.5491  Y0.8126  
G01 X2.5495  Y0.8135  
G01 X2.5505  Y0.8151  
G01 X2.5515  Y0.8168  
G01 X2.5521  Y0.8175  
G01 X2.5526  Y0.8183  
G01 X2.5540  Y0.8196  
G01 X2.5552  Y0.8211  
G01 X2.5560  Y0.8216  
G01 X2.5950  Y0.8606  
G01 X2.5950  Y0.9394  
G01 X2.5394  Y0.9950  
G01 X2.4606  Y0.9950  
G01 X2.4050  Y0.9394  
G00 Z0.1000  
G00 X2.4290  Y0.9294  
G01 Z-0.0070 F10    
G01 X2.4706  Y0.9710  F20    
G01 X2.5294  Y0.9710  
G01 X2.5710  Y0.9294  
G01 X2.5710  Y0.8706  
G01 X2.5294  Y0.8290  
G01 X2.4706  Y0.8290  
G01 X2.4290  Y0.8706  
G01 X2.4290  Y0.9294  
G00 Z0.1000  
G00 X2.4531  Y0.7535  
G01 Z-0.0070 F10    
G01 X2.4605  Y0.7592  F20    
G01 X2.4685  Y0.7638  
G01 X2.4771  Y0.7674  
G01 X2.4861  Y0.7698  
G01 X2.4953  Y0.7710  
G01 X2.5047  Y0.7710  
G01 X2.5139  Y0.7698  
G01 X2.5229  Y0.7674  
G01 X2.5315  Y0.7638  
G01 X2.5395  Y0.7592  
G01 X2.5469  Y0.7535  
G01 X2.5535  Y0.7469  
G01 X2.5592  Y0.7395  
G01 X2.5638  Y0.7315  
G01 X2.5674  Y0.7229  
G01 X2.5698  Y0.7139  
G01 X2.5710  Y0.7047  
G01 X2.5710  Y0.6953  
G01 X2.5698  Y0.6861  
G01 X2.5674  Y0.6771  
G01 X2.5638  Y0.6685  
G01 X2.5592  Y0.6605  
G01 X2.5535  Y0.6531  
G01 X2.5469  Y0.6465  
G01 X2.5395  Y0.6408  
G01 X2.5315  Y0.6362  
G01 X2.5229  Y0.6326  
G01 X2.5139  Y0.6302  
G01 X2.5047  Y0.6290  
G01 X2.4953  Y0.6290  
G01 X2.4861  Y0.6302  
G01 X2.4771  Y0.6326  
G01 X2.4685  Y0.6362  
G01 X2.4605  Y0.6408  
G01 X2.4531  Y0.6465  
G01 X2.4465  Y0.6531  
G01 X2.4408  Y0.6605  
G01 X2.4362  Y0.6685  
G01 X2.4326  Y0.6771  
G01 X2.4302  Y0.6861  
G01 X2.4290  Y0.6953  
G01 X2.4290  Y0.7047  
G01 X2.4302  Y0.7139  
G01 X2.4326  Y0.7229  
G01 X2.4362  Y0.7315  
G01 X2.4408  Y0.7395  
G01 X2.4465  Y0.7469  
G01 X2.4531  Y0.7535  
G00 Z0.1000  
G00 X3.2182  Y0.7463  
G01 Z-0.0070 F10    
G01 X3.2100  Y0.7158  F20    
G01 X3.2100  Y0.6842  
G01 X3.2182  Y0.6537  
G01 X3.2340  Y0.6263  
G01 X3.2563  Y0.6040  
G01 X3.2837  Y0.5882  
G01 X3.3142  Y0.5800  
G01 X3.6658  Y0.5800  
G01 X3.6963  Y0.5882  
G01 X3.7237  Y0.6040  
G01 X3.9490  Y0.8293  
G01 X3.9760  Y0.8563  
G01 X3.9918  Y0.8837  
G01 X4.0000  Y0.9142  
G01 X4.0000  Y1.0909  
G01 X4.0011  Y1.0965  
G01 X4.0033  Y1.1017  
G01 X4.0065  Y1.1065  
G01 X4.0105  Y1.1105  
G01 X4.0153  Y1.1137  
G01 X4.0205  Y1.1159  
G01 X4.0261  Y1.1170  
G01 X4.0650  Y1.1170  
G01 X4.0815  Y1.1239  
G01 X4.0941  Y1.1365  
G01 X4.1010  Y1.1530  
G01 X4.1010  Y1.3310  
G01 X4.0976  Y1.3392  
G01 X4.0965  Y1.3448  
G01 X4.0965  Y1.3505  
G01 X4.0976  Y1.3561  
G01 X4.0990  Y1.3595  
G01 X4.0990  Y1.5410  
G01 X4.0981  Y1.5431  
G01 X4.0970  Y1.5487  
G01 X4.0970  Y1.6051  
G01 X4.0981  Y1.6107  
G01 X4.1020  Y1.6200  
G01 X4.1020  Y1.6882  
G01 X4.1017  Y1.6900  
G01 X4.1010  Y1.6933  
G01 X4.1010  Y1.7985  
G01 X4.0981  Y1.8055  
G01 X4.0970  Y1.8111  
G01 X4.0970  Y1.8168  
G01 X4.0974  Y1.8191  
G01 X4.0981  Y1.8224  
G01 X4.1000  Y1.8270  
G01 X4.1000  Y2.0050  
G01 X4.0931  Y2.0215  
G01 X4.0805  Y2.0341  
G01 X4.0640  Y2.0410  
G01 X4.0261  Y2.0410  
G01 X4.0205  Y2.0421  
G01 X4.0153  Y2.0443  
G01 X4.0105  Y2.0475  
G01 X4.0065  Y2.0515  
G01 X4.0033  Y2.0563  
G01 X4.0011  Y2.0615  
G01 X4.0000  Y2.0671  
G01 X4.0000  Y2.2158  
G01 X3.9918  Y2.2463  
G01 X3.9760  Y2.2737  
G01 X3.9530  Y2.2967  
G01 X3.9493  Y2.3004  
G01 X3.9490  Y2.3007  
G01 X3.7237  Y2.5260  
G01 X3.6963  Y2.5418  
G01 X3.6658  Y2.5500  
G01 X3.3042  Y2.5500  
G01 X3.2737  Y2.5418  
G01 X3.2463  Y2.5260  
G01 X3.2240  Y2.5037  
G01 X3.2082  Y2.4763  
G01 X3.2000  Y2.4458  
G01 X3.2000  Y2.4142  
G01 X3.2082  Y2.3837  
G01 X3.2240  Y2.3563  
G01 X3.2463  Y2.3340  
G01 X3.2609  Y2.3255  
G01 X3.2618  Y2.3252  
G01 X3.2634  Y2.3241  
G01 X3.2650  Y2.3232  
G01 X3.2658  Y2.3225  
G01 X3.2665  Y2.3220  
G01 X3.2679  Y2.3207  
G01 X3.2693  Y2.3194  
G01 X3.2699  Y2.3186  
G01 X3.2706  Y2.3180  
G01 X3.2716  Y2.3164  
G01 X3.2728  Y2.3149  
G01 X3.2732  Y2.3140  
G01 X3.2738  Y2.3132  
G01 X3.2745  Y2.3115  
G01 X3.2753  Y2.3097  
G01 X3.2756  Y2.3088  
G01 X3.2759  Y2.3079  
G01 X3.2763  Y2.3061  
G01 X3.2768  Y2.3042  
G01 X3.2769  Y2.3033  
G01 X3.2771  Y2.3023  
G01 X3.2771  Y2.3004  
G01 X3.2772  Y2.2985  
G01 X3.2771  Y2.2976  
G01 X3.2771  Y2.2966  
G01 X3.2767  Y2.2948  
G01 X3.2764  Y2.2929  
G01 X3.2761  Y2.2920  
G01 X3.2759  Y2.2910  
G01 X3.2752  Y2.2893  
G01 X3.2746  Y2.2875  
G01 X3.2741  Y2.2866  
G01 X3.2738  Y2.2857  
G01 X3.2727  Y2.2842  
G01 X3.2717  Y2.2825  
G01 X3.2711  Y2.2818  
G01 X3.2706  Y2.2810  
G01 X3.2692  Y2.2796  
G01 X3.2680  Y2.2782  
G01 X3.2672  Y2.2776  
G01 X3.2490  Y2.2594  
G01 X3.2490  Y2.2006  
G01 X3.2906  Y2.1590  
G01 X3.3494  Y2.1590  
G01 X3.3910  Y2.2006  
G01 X3.3910  Y2.2594  
G01 X3.3879  Y2.2625  
G01 X3.3868  Y2.2642  
G01 X3.3847  Y2.2673  
G01 X3.3832  Y2.2709  
G01 X3.3825  Y2.2725  
G01 X3.3817  Y2.2768  
G01 X3.3814  Y2.2781  
G01 X3.3814  Y2.2839  
G01 X3.3825  Y2.2895  
G01 X3.3835  Y2.2917  
G01 X3.3847  Y2.2947  
G01 X3.3879  Y2.2995  
G01 X3.3919  Y2.3035  
G01 X3.3936  Y2.3046  
G01 X3.3967  Y2.3067  
G01 X3.4003  Y2.3082  
G01 X3.4020  Y2.3089  
G01 X3.4063  Y2.3097  
G01 X3.4076  Y2.3100  
G01 X3.5911  Y2.3100  
G01 X3.5967  Y2.3089  
G01 X3.6020  Y2.3067  
G01 X3.6068  Y2.3035  
G01 X3.7495  Y2.1608  
G01 X3.7535  Y2.1568  
G01 X3.7567  Y2.1520  
G01 X3.7589  Y2.1467  
G01 X3.7600  Y2.1411  
G01 X3.7600  Y2.0671  
G01 X3.7589  Y2.0615  
G01 X3.7567  Y2.0563  
G01 X3.7535  Y2.0515  
G01 X3.7495  Y2.0475  
G01 X3.7447  Y2.0443  
G01 X3.7395  Y2.0421  
G01 X3.7339  Y2.0410  
G01 X3.6960  Y2.0410  
G01 X3.6795  Y2.0341  
G01 X3.6669  Y2.0215  
G01 X3.6600  Y2.0050  
G01 X3.6600  Y1.8641  
G01 X3.6589  Y1.8585  
G01 X3.6567  Y1.8533  
G01 X3.6535  Y1.8485  
G01 X3.6495  Y1.8445  
G01 X3.6447  Y1.8413  
G01 X3.6395  Y1.8391  
G01 X3.6339  Y1.8380  
G01 X3.5156  Y1.8380  
G01 X3.5100  Y1.8391  
G01 X3.5047  Y1.8413  
G01 X3.5000  Y1.8445  
G01 X3.4185  Y1.9259  
G01 X3.4145  Y1.9300  
G01 X3.4113  Y1.9347  
G01 X3.4091  Y1.9400  
G01 X3.4080  Y1.9456  
G01 X3.4080  Y1.9916  
G01 X3.4020  Y2.0140  
G01 X3.3904  Y2.0340  
G01 X3.3837  Y2.0408  
G01 X3.3820  Y2.0433  
G01 X3.3805  Y2.0456  
G01 X3.3802  Y2.0462  
G01 X3.3602  Y2.0662  
G01 X3.3341  Y2.0770  
G01 X3.3059  Y2.0770  
G01 X3.2798  Y2.0662  
G01 X3.2598  Y2.0462  
G01 X3.2595  Y2.0456  
G01 X3.2579  Y2.0431  
G01 X3.2564  Y2.0408  
G01 X3.2496  Y2.0340  
G01 X3.2380  Y2.0140  
G01 X3.2320  Y1.9916  
G01 X3.2320  Y1.9356  
G01 X3.2309  Y1.9300  
G01 X3.2287  Y1.9247  
G01 X3.2255  Y1.9200  
G01 X3.1394  Y1.8338  
G01 X3.1382  Y1.8325  
G01 X3.1374  Y1.8318  
G01 X3.1366  Y1.8311  
G01 X3.1196  Y1.8140  
G01 X3.1080  Y1.7940  
G01 X3.1020  Y1.7716  
G01 X3.1020  Y1.6813  
G01 X3.1020  Y1.6784  
G01 X3.1020  Y1.6756  
G01 X3.1016  Y1.6733  
G01 X3.1009  Y1.6700  
G01 X3.0997  Y1.6672  
G01 X3.0987  Y1.6647  
G01 X3.0971  Y1.6623  
G01 X3.0955  Y1.6599  
G01 X3.0935  Y1.6579  
G01 X3.0915  Y1.6559  
G01 X3.0877  Y1.6534  
G01 X3.0867  Y1.6527  
G01 X3.0837  Y1.6515  
G01 X3.0815  Y1.6505  
G01 X3.0798  Y1.6502  
G01 X3.0759  Y1.6494  
G01 X3.0730  Y1.6494  
G01 X3.0701  Y1.6494  
G01 X3.0679  Y1.6499  
G01 X3.0645  Y1.6505  
G01 X3.0634  Y1.6510  
G01 X3.0006  Y1.6510  
G01 X2.9590  Y1.6094  
G01 X2.9590  Y1.5506  
G01 X3.0006  Y1.5090  
G01 X3.0634  Y1.5090  
G01 X3.0645  Y1.5095  
G01 X3.0680  Y1.5101  
G01 X3.0701  Y1.5106  
G01 X3.0730  Y1.5106  
G01 X3.0759  Y1.5106  
G01 X3.0799  Y1.5098  
G01 X3.0815  Y1.5095  
G01 X3.0838  Y1.5085  
G01 X3.0867  Y1.5073  
G01 X3.0878  Y1.5066  
G01 X3.0915  Y1.5041  
G01 X3.0935  Y1.5021  
G01 X3.0955  Y1.5001  
G01 X3.0971  Y1.4977  
G01 X3.0987  Y1.4953  
G01 X3.0998  Y1.4927  
G01 X3.1009  Y1.4900  
G01 X3.1016  Y1.4866  
G01 X3.1020  Y1.4844  
G01 X3.1020  Y1.4815  
G01 X3.1020  Y1.4787  
G01 X3.1020  Y1.4084  
G01 X3.1080  Y1.3860  
G01 X3.1196  Y1.3660  
G01 X3.1366  Y1.3489  
G01 X3.2315  Y1.2541  
G01 X3.2355  Y1.2500  
G01 X3.2387  Y1.2453  
G01 X3.2409  Y1.2400  
G01 X3.2420  Y1.2344  
G01 X3.2420  Y0.8884  
G01 X3.2480  Y0.8660  
G01 X3.2596  Y0.8460  
G01 X3.2620  Y0.8436  
G01 X3.2627  Y0.8430  
G01 X3.2640  Y0.8416  
G01 X3.2653  Y0.8402  
G01 X3.2659  Y0.8394  
G01 X3.2665  Y0.8387  
G01 X3.2675  Y0.8370  
G01 X3.2685  Y0.8355  
G01 X3.2689  Y0.8346  
G01 X3.2694  Y0.8337  
G01 X3.2700  Y0.8319  
G01 X3.2707  Y0.8302  
G01 X3.2709  Y0.8292  
G01 X3.2712  Y0.8283  
G01 X3.2714  Y0.8264  
G01 X3.2718  Y0.8246  
G01 X3.2718  Y0.8236  
G01 X3.2719  Y0.8227  
G01 X3.2718  Y0.8208  
G01 X3.2718  Y0.8189  
G01 X3.2716  Y0.8179  
G01 X3.2716  Y0.8170  
G01 X3.2711  Y0.8151  
G01 X3.2707  Y0.8133  
G01 X3.2703  Y0.8124  
G01 X3.2701  Y0.8115  
G01 X3.2692  Y0.8097  
G01 X3.2685  Y0.8080  
G01 X3.2680  Y0.8072  
G01 X3.2676  Y0.8063  
G01 X3.2664  Y0.8048  
G01 X3.2653  Y0.8032  
G01 X3.2647  Y0.8026  
G01 X3.2641  Y0.8018  
G01 X3.2627  Y0.8005  
G01 X3.2613  Y0.7992  
G01 X3.2605  Y0.7987  
G01 X3.2598  Y0.7980  
G01 X3.2581  Y0.7971  
G01 X3.2566  Y0.7960  
G01 X3.2561  Y0.7958  
G01 X3.2340  Y0.7737  
G01 X3.2182  Y0.7463  
G00 Z0.1000  
G00 X3.2458  Y0.7465  
G01 Z-0.0070 F10    
G01 X3.2516  Y0.7556  F20    
G01 X3.2583  Y0.7641  
G01 X3.2659  Y0.7717  
G01 X3.2744  Y0.7784  
G01 X3.2835  Y0.7842  
G01 X3.2932  Y0.7888  
G01 X3.3034  Y0.7924  
G01 X3.3139  Y0.7948  
G01 X3.3246  Y0.7960  
G01 X3.6102  Y0.7960  
G01 X3.7840  Y0.9698  
G01 X3.7840  Y1.1410  
G01 X3.7032  Y1.1410  
G01 X3.6979  Y1.1424  
G01 X3.6931  Y1.1452  
G01 X3.6892  Y1.1491  
G01 X3.6864  Y1.1539  
G01 X3.6850  Y1.1592  
G01 X3.6850  Y1.3248  
G01 X3.6864  Y1.3301  
G01 X3.6892  Y1.3349  
G01 X3.6931  Y1.3388  
G01 X3.6979  Y1.3416  
G01 X3.7032  Y1.3430  
G01 X4.0588  Y1.3430  
G01 X4.0641  Y1.3416  
G01 X4.0689  Y1.3388  
G01 X4.0728  Y1.3349  
G01 X4.0756  Y1.3301  
G01 X4.0770  Y1.3248  
G01 X4.0770  Y1.1592  
G01 X4.0756  Y1.1539  
G01 X4.0728  Y1.1491  
G01 X4.0689  Y1.1452  
G01 X4.0641  Y1.1424  
G01 X4.0588  Y1.1410  
G01 X3.9760  Y1.1410  
G01 X3.9760  Y0.9246  
G01 X3.9748  Y0.9139  
G01 X3.9724  Y0.9034  
G01 X3.9688  Y0.8932  
G01 X3.9642  Y0.8835  
G01 X3.9584  Y0.8744  
G01 X3.9517  Y0.8659  
G01 X3.9441  Y0.8583  
G01 X3.7217  Y0.6359  
G01 X3.7141  Y0.6283  
G01 X3.7056  Y0.6216  
G01 X3.6965  Y0.6158  
G01 X3.6868  Y0.6112  
G01 X3.6766  Y0.6076  
G01 X3.6661  Y0.6052  
G01 X3.6554  Y0.6040  
G01 X3.3246  Y0.6040  
G01 X3.3139  Y0.6052  
G01 X3.3034  Y0.6076  
G01 X3.2932  Y0.6112  
G01 X3.2835  Y0.6158  
G01 X3.2744  Y0.6216  
G01 X3.2659  Y0.6283  
G01 X3.2583  Y0.6359  
G01 X3.2516  Y0.6444  
G01 X3.2458  Y0.6535  
G01 X3.2412  Y0.6632  
G01 X3.2376  Y0.6734  
G01 X3.2352  Y0.6839  
G01 X3.2340  Y0.6946  
G01 X3.2340  Y0.7054  
G01 X3.2352  Y0.7161  
G01 X3.2376  Y0.7266  
G01 X3.2412  Y0.7368  
G01 X3.2458  Y0.7465  
G00 Z0.1000  
G00 X3.2818  Y0.8577  
G01 Z-0.0070 F10    
G01 X3.2767  Y0.8644  F20    
G01 X3.2725  Y0.8716  
G01 X3.2693  Y0.8794  
G01 X3.2671  Y0.8875  
G01 X3.2660  Y0.8958  
G01 X3.2660  Y1.2535  
G01 X3.1477  Y1.3718  
G01 X3.1418  Y1.3777  
G01 X3.1367  Y1.3844  
G01 X3.1325  Y1.3916  
G01 X3.1293  Y1.3994  
G01 X3.1271  Y1.4075  
G01 X3.1260  Y1.4158  
G01 X3.1260  Y1.7642  
G01 X3.1271  Y1.7725  
G01 X3.1293  Y1.7806  
G01 X3.1325  Y1.7884  
G01 X3.1367  Y1.7956  
G01 X3.1418  Y1.8023  
G01 X3.2560  Y1.9165  
G01 X3.2560  Y1.9842  
G01 X3.2571  Y1.9925  
G01 X3.2593  Y2.0006  
G01 X3.2625  Y2.0084  
G01 X3.2667  Y2.0156  
G01 X3.2718  Y2.0223  
G01 X3.2777  Y2.0282  
G01 X3.2791  Y2.0293  
G01 X3.2798  Y2.0306  
G01 X3.2842  Y2.0366  
G01 X3.2894  Y2.0418  
G01 X3.2954  Y2.0462  
G01 X3.3020  Y2.0496  
G01 X3.3090  Y2.0518  
G01 X3.3163  Y2.0530  
G01 X3.3237  Y2.0530  
G01 X3.3310  Y2.0518  
G01 X3.3380  Y2.0496  
G01 X3.3446  Y2.0462  
G01 X3.3506  Y2.0418  
G01 X3.3558  Y2.0366  
G01 X3.3602  Y2.0306  
G01 X3.3609  Y2.0293  
G01 X3.3623  Y2.0282  
G01 X3.3682  Y2.0223  
G01 X3.3733  Y2.0156  
G01 X3.3775  Y2.0084  
G01 X3.3807  Y2.0006  
G01 X3.3829  Y1.9925  
G01 X3.3840  Y1.9842  
G01 X3.3840  Y1.9265  
G01 X3.4965  Y1.8140  
G01 X3.8822  Y1.8140  
G01 X3.8905  Y1.8129  
G01 X3.8986  Y1.8107  
G01 X3.8992  Y1.8105  
G01 X4.0588  Y1.8105  
G01 X4.0641  Y1.8091  
G01 X4.0689  Y1.8063  
G01 X4.0728  Y1.8024  
G01 X4.0756  Y1.7976  
G01 X4.0770  Y1.7923  
G01 X4.0770  Y1.7017  
G01 X4.0756  Y1.6964  
G01 X4.0733  Y1.6924  
G01 X4.0738  Y1.6919  
G01 X4.0766  Y1.6871  
G01 X4.0780  Y1.6818  
G01 X4.0780  Y1.6262  
G01 X4.0766  Y1.6209  
G01 X4.0738  Y1.6161  
G01 X4.0713  Y1.6136  
G01 X4.0716  Y1.6131  
G01 X4.0730  Y1.6078  
G01 X4.0730  Y1.5522  
G01 X4.0716  Y1.5469  
G01 X4.0706  Y1.5451  
G01 X4.0708  Y1.5449  
G01 X4.0736  Y1.5401  
G01 X4.0750  Y1.5348  
G01 X4.0750  Y1.4792  
G01 X4.0736  Y1.4739  
G01 X4.0708  Y1.4691  
G01 X4.0694  Y1.4678  
G01 X4.0708  Y1.4664  
G01 X4.0736  Y1.4616  
G01 X4.0750  Y1.4563  
G01 X4.0750  Y1.3657  
G01 X4.0736  Y1.3604  
G01 X4.0708  Y1.3556  
G01 X4.0669  Y1.3517  
G01 X4.0621  Y1.3489  
G01 X4.0568  Y1.3475  
G01 X3.8920  Y1.3475  
G01 X3.8905  Y1.3471  
G01 X3.8822  Y1.3460  
G01 X3.4865  Y1.3460  
G01 X3.3940  Y1.2535  
G01 X3.3940  Y0.8958  
G01 X3.3929  Y0.8875  
G01 X3.3907  Y0.8794  
G01 X3.3875  Y0.8716  
G01 X3.3833  Y0.8644  
G01 X3.3782  Y0.8577  
G01 X3.3723  Y0.8518  
G01 X3.3656  Y0.8467  
G01 X3.3584  Y0.8425  
G01 X3.3506  Y0.8393  
G01 X3.3425  Y0.8371  
G01 X3.3342  Y0.8360  
G01 X3.3258  Y0.8360  
G01 X3.3175  Y0.8371  
G01 X3.3094  Y0.8393  
G01 X3.3016  Y0.8425  
G01 X3.2944  Y0.8467  
G01 X3.2877  Y0.8518  
G01 X3.2818  Y0.8577  
G00 Z0.1000  
G00 X3.3300  Y1.3705  
G01 Z-0.0070 F10    
G01 X3.4118  Y1.4523  F20    
G01 X3.4177  Y1.4582  
G01 X3.4244  Y1.4633  
G01 X3.4316  Y1.4675  
G01 X3.4394  Y1.4707  
G01 X3.4475  Y1.4729  
G01 X3.4558  Y1.4740  
G01 X3.6844  Y1.4740  
G01 X3.6830  Y1.4792  
G01 X3.6830  Y1.5310  
G01 X3.3610  Y1.5310  
G01 X3.3602  Y1.5294  
G01 X3.3558  Y1.5234  
G01 X3.3506  Y1.5182  
G01 X3.3446  Y1.5138  
G01 X3.3380  Y1.5104  
G01 X3.3310  Y1.5082  
G01 X3.3237  Y1.5070  
G01 X3.3163  Y1.5070  
G01 X3.3090  Y1.5082  
G01 X3.3020  Y1.5104  
G01 X3.2954  Y1.5138  
G01 X3.2894  Y1.5182  
G01 X3.2842  Y1.5234  
G01 X3.2798  Y1.5294  
G01 X3.2764  Y1.5360  
G01 X3.2742  Y1.5430  
G01 X3.2730  Y1.5503  
G01 X3.2730  Y1.5661  
G01 X3.2722  Y1.5685  
G01 X3.2710  Y1.5761  
G01 X3.2710  Y1.5839  
G01 X3.2722  Y1.5915  
G01 X3.2730  Y1.5939  
G01 X3.2730  Y1.6097  
G01 X3.2742  Y1.6170  
G01 X3.2764  Y1.6240  
G01 X3.2798  Y1.6306  
G01 X3.2842  Y1.6366  
G01 X3.2894  Y1.6418  
G01 X3.2954  Y1.6462  
G01 X3.3020  Y1.6496  
G01 X3.3090  Y1.6518  
G01 X3.3163  Y1.6530  
G01 X3.3237  Y1.6530  
G01 X3.3310  Y1.6518  
G01 X3.3380  Y1.6496  
G01 X3.3446  Y1.6462  
G01 X3.3506  Y1.6418  
G01 X3.3558  Y1.6366  
G01 X3.3602  Y1.6306  
G01 X3.3610  Y1.6290  
G01 X3.6860  Y1.6290  
G01 X3.6860  Y1.6818  
G01 X3.6871  Y1.6860  
G01 X3.4658  Y1.6860  
G01 X3.4575  Y1.6871  
G01 X3.4494  Y1.6893  
G01 X3.4416  Y1.6925  
G01 X3.4344  Y1.6967  
G01 X3.4277  Y1.7018  
G01 X3.4218  Y1.7077  
G01 X3.3250  Y1.8045  
G01 X3.2540  Y1.7335  
G01 X3.2540  Y1.4465  
G01 X3.3300  Y1.3705  
G00 Z0.1000  
G00 X3.0770  Y1.5605  
G01 Z-0.0070 F10    
G01 X3.0495  Y1.5330  F20    
G01 X3.0105  Y1.5330  
G01 X2.9830  Y1.5605  
G01 X2.9830  Y1.5995  
G01 X3.0105  Y1.6270  
G01 X3.0495  Y1.6270  
G01 X3.0770  Y1.5995  
G01 X3.0770  Y1.5605  
G00 Z0.1000  
G00 X2.9010  Y1.5506  
G01 Z-0.0070 F10    
G01 X2.9010  Y1.6094  F20    
G01 X2.8594  Y1.6510  
G01 X2.8006  Y1.6510  
G01 X2.7590  Y1.6094  
G01 X2.7590  Y1.5506  
G01 X2.8006  Y1.5090  
G01 X2.8594  Y1.5090  
G01 X2.9010  Y1.5506  
G00 Z0.1000  
G00 X2.8770  Y1.5605  
G01 Z-0.0070 F10    
G01 X2.8495  Y1.5330  F20    
G01 X2.8105  Y1.5330  
G01 X2.7830  Y1.5605  
G01 X2.7830  Y1.5995  
G01 X2.8105  Y1.6270  
G01 X2.8495  Y1.6270  
G01 X2.8770  Y1.5995  
G01 X2.8770  Y1.5605  
G00 Z0.1000  
G00 X2.6750  Y2.1906  
G01 Z-0.0070 F10    
G01 X2.6750  Y2.2694  F20    
G01 X2.6360  Y2.3084  
G01 X2.6352  Y2.3089  
G01 X2.6340  Y2.3104  
G01 X2.6326  Y2.3117  
G01 X2.6321  Y2.3125  
G01 X2.6315  Y2.3132  
G01 X2.6305  Y2.3149  
G01 X2.6295  Y2.3165  
G01 X2.6291  Y2.3174  
G01 X2.6286  Y2.3182  
G01 X2.6280  Y2.3200  
G01 X2.6273  Y2.3217  
G01 X2.6271  Y2.3227  
G01 X2.6268  Y2.3236  
G01 X2.6265  Y2.3255  
G01 X2.6262  Y2.3274  
G01 X2.6262  Y2.3283  
G01 X2.6260  Y2.3293  
G01 X2.6262  Y2.3312  
G01 X2.6262  Y2.3331  
G01 X2.6263  Y2.3340  
G01 X2.6264  Y2.3350  
G01 X2.6269  Y2.3368  
G01 X2.6273  Y2.3387  
G01 X2.6276  Y2.3395  
G01 X2.6279  Y2.3405  
G01 X2.6287  Y2.3422  
G01 X2.6295  Y2.3439  
G01 X2.6300  Y2.3447  
G01 X2.6304  Y2.3456  
G01 X2.6316  Y2.3471  
G01 X2.6326  Y2.3487  
G01 X2.6333  Y2.3494  
G01 X2.6339  Y2.3501  
G01 X2.6353  Y2.3514  
G01 X2.6367  Y2.3527  
G01 X2.6375  Y2.3533  
G01 X2.6382  Y2.3539  
G01 X2.6383  Y2.3540  
G01 X2.6560  Y2.3717  
G01 X2.6685  Y2.3933  
G01 X2.6750  Y2.4175  
G01 X2.6750  Y2.4425  
G01 X2.6685  Y2.4667  
G01 X2.6560  Y2.4883  
G01 X2.6383  Y2.5060  
G01 X2.6167  Y2.5185  
G01 X2.5925  Y2.5250  
G01 X2.5675  Y2.5250  
G01 X2.5433  Y2.5185  
G01 X2.5217  Y2.5060  
G01 X2.5040  Y2.4883  
G01 X2.4915  Y2.4667  
G01 X2.4850  Y2.4425  
G01 X2.4850  Y2.4175  
G01 X2.4915  Y2.3933  
G01 X2.5040  Y2.3717  
G01 X2.5217  Y2.3540  
G01 X2.5218  Y2.3539  
G01 X2.5225  Y2.3533  
G01 X2.5233  Y2.3527  
G01 X2.5247  Y2.3514  
G01 X2.5261  Y2.3501  
G01 X2.5267  Y2.3494  
G01 X2.5274  Y2.3487  
G01 X2.5284  Y2.3471  
G01 X2.5296  Y2.3456  
G01 X2.5300  Y2.3447  
G01 X2.5305  Y2.3439  
G01 X2.5313  Y2.3422  
G01 X2.5321  Y2.3405  
G01 X2.5324  Y2.3395  
G01 X2.5327  Y2.3387  
G01 X2.5331  Y2.3368  
G01 X2.5336  Y2.3350  
G01 X2.5337  Y2.3340  
G01 X2.5338  Y2.3331  
G01 X2.5338  Y2.3312  
G01 X2.5340  Y2.3293  
G01 X2.5338  Y2.3283  
G01 X2.5338  Y2.3274  
G01 X2.5335  Y2.3255  
G01 X2.5332  Y2.3236  
G01 X2.5329  Y2.3227  
G01 X2.5327  Y2.3217  
G01 X2.5320  Y2.3200  
G01 X2.5314  Y2.3182  
G01 X2.5309  Y2.3174  
G01 X2.5305  Y2.3165  
G01 X2.5295  Y2.3149  
G01 X2.5285  Y2.3132  
G01 X2.5279  Y2.3125  
G01 X2.5274  Y2.3117  
G01 X2.5260  Y2.3104  
G01 X2.5248  Y2.3089  
G01 X2.5240  Y2.3084  
G01 X2.4850  Y2.2694  
G01 X2.4850  Y2.1906  
G01 X2.5406  Y2.1350  
G01 X2.6194  Y2.1350  
G01 X2.6750  Y2.1906  
G00 Z0.1000  
G00 X2.6510  Y2.2006  
G01 Z-0.0070 F10    
G01 X2.6094  Y2.1590  F20    
G01 X2.5506  Y2.1590  
G01 X2.5090  Y2.2006  
G01 X2.5090  Y2.2594  
G01 X2.5506  Y2.3010  
G01 X2.6094  Y2.3010  
G01 X2.6510  Y2.2594  
G01 X2.6510  Y2.2006  
G00 Z0.1000  
G00 X2.6269  Y2.3765  
G01 Z-0.0070 F10    
G01 X2.6195  Y2.3708  F20    
G01 X2.6115  Y2.3662  
G01 X2.6029  Y2.3626  
G01 X2.5939  Y2.3602  
G01 X2.5847  Y2.3590  
G01 X2.5753  Y2.3590  
G01 X2.5661  Y2.3602  
G01 X2.5571  Y2.3626  
G01 X2.5485  Y2.3662  
G01 X2.5405  Y2.3708  
G01 X2.5331  Y2.3765  
G01 X2.5265  Y2.3831  
G01 X2.5208  Y2.3905  
G01 X2.5162  Y2.3985  
G01 X2.5126  Y2.4071  
G01 X2.5102  Y2.4161  
G01 X2.5090  Y2.4253  
G01 X2.5090  Y2.4347  
G01 X2.5102  Y2.4439  
G01 X2.5126  Y2.4529  
G01 X2.5162  Y2.4615  
G01 X2.5208  Y2.4695  
G01 X2.5265  Y2.4769  
G01 X2.5331  Y2.4835  
G01 X2.5405  Y2.4892  
G01 X2.5485  Y2.4938  
G01 X2.5571  Y2.4974  
G01 X2.5661  Y2.4998  
G01 X2.5753  Y2.5010  
G01 X2.5847  Y2.5010  
G01 X2.5939  Y2.4998  
G01 X2.6029  Y2.4974  
G01 X2.6115  Y2.4938  
G01 X2.6195  Y2.4892  
G01 X2.6269  Y2.4835  
G01 X2.6335  Y2.4769  
G01 X2.6392  Y2.4695  
G01 X2.6438  Y2.4615  
G01 X2.6474  Y2.4529  
G01 X2.6498  Y2.4439  
G01 X2.6510  Y2.4347  
G01 X2.6510  Y2.4253  
G01 X2.6498  Y2.4161  
G01 X2.6474  Y2.4071  
G01 X2.6438  Y2.3985  
G01 X2.6392  Y2.3905  
G01 X2.6335  Y2.3831  
G01 X2.6269  Y2.3765  
G00 Z0.1000  
G00 X2.3710  Y2.6106  
G01 Z-0.0070 F10    
G01 X2.3710  Y2.6694  F20    
G01 X2.3294  Y2.7110  
G01 X2.2706  Y2.7110  
G01 X2.2290  Y2.6694  
G01 X2.2290  Y2.6106  
G01 X2.2706  Y2.5690  
G01 X2.3294  Y2.5690  
G01 X2.3710  Y2.6106  
G00 Z0.1000  
G00 X2.3470  Y2.6205  
G01 Z-0.0070 F10    
G01 X2.3195  Y2.5930  F20    
G01 X2.2805  Y2.5930  
G01 X2.2530  Y2.6205  
G01 X2.2530  Y2.6595  
G01 X2.2805  Y2.6870  
G01 X2.3195  Y2.6870  
G01 X2.3470  Y2.6595  
G01 X2.3470  Y2.6205  
G00 Z0.1000  
G00 X2.1710  Y2.6106  
G01 Z-0.0070 F10    
G01 X2.1710  Y2.6694  F20    
G01 X2.1294  Y2.7110  
G01 X2.0706  Y2.7110  
G01 X2.0290  Y2.6694  
G01 X2.0290  Y2.6106  
G01 X2.0706  Y2.5690  
G01 X2.1294  Y2.5690  
G01 X2.1710  Y2.6106  
G00 Z0.1000  
G00 X2.1470  Y2.6205  
G01 Z-0.0070 F10    
G01 X2.1195  Y2.5930  F20    
G01 X2.0805  Y2.5930  
G01 X2.0530  Y2.6205  
G01 X2.0530  Y2.6595  
G01 X2.0805  Y2.6870  
G01 X2.1195  Y2.6870  
G01 X2.1470  Y2.6595  
G01 X2.1470  Y2.6205  
G00 Z0.1000  
G00 X2.1294  Y2.9390  
G01 Z-0.0070 F10    
G01 X2.1710  Y2.9806  F20    
G01 X2.1710  Y3.0394  
G01 X2.1294  Y3.0810  
G01 X2.0706  Y3.0810  
G01 X2.0290  Y3.0394  
G01 X2.0290  Y2.9806  
G01 X2.0706  Y2.9390  
G01 X2.1294  Y2.9390  
G00 Z0.1000  
G00 X2.1195  Y2.9630  
G01 Z-0.0070 F10    
G01 X2.0805  Y2.9630  F20    
G01 X2.0530  Y2.9905  
G01 X2.0530  Y3.0295  
G01 X2.0805  Y3.0570  
G01 X2.1195  Y3.0570  
G01 X2.1470  Y3.0295  
G01 X2.1470  Y2.9905  
G01 X2.1195  Y2.9630  
G00 Z0.1000  
G00 X2.2290  Y2.9806  
G01 Z-0.0070 F10    
G01 X2.2706  Y2.9390  F20    
G01 X2.3294  Y2.9390  
G01 X2.3710  Y2.9806  
G01 X2.3710  Y3.0394  
G01 X2.3294  Y3.0810  
G01 X2.2706  Y3.0810  
G01 X2.2290  Y3.0394  
G01 X2.2290  Y2.9806  
G00 Z0.1000  
G00 X2.2530  Y2.9905  
G01 Z-0.0070 F10    
G01 X2.2530  Y3.0295  F20    
G01 X2.2805  Y3.0570  
G01 X2.3195  Y3.0570  
G01 X2.3470  Y3.0295  
G01 X2.3470  Y2.9905  
G01 X2.3195  Y2.9630  
G01 X2.2805  Y2.9630  
G01 X2.2530  Y2.9905  
G00 Z0.1000  
G00 X2.2660  Y3.1780  
G01 Z-0.0070 F10    
G01 X2.2884  Y3.1720  F20    
G01 X2.3116  Y3.1720  
G01 X2.3340  Y3.1780  
G01 X2.3540  Y3.1896  
G01 X2.3704  Y3.2060  
G01 X2.3820  Y3.2260  
G01 X2.3880  Y3.2484  
G01 X2.3880  Y3.8216  
G01 X2.3820  Y3.8440  
G01 X2.3704  Y3.8640  
G01 X2.3540  Y3.8804  
G01 X2.3340  Y3.8920  
G01 X2.3159  Y3.8968  
G01 X2.3141  Y3.8972  
G01 X2.3132  Y3.8976  
G01 X2.3123  Y3.8978  
G01 X2.3106  Y3.8987  
G01 X2.3088  Y3.8994  
G01 X2.3080  Y3.8999  
G01 X2.3071  Y3.9003  
G01 X2.3056  Y3.9015  
G01 X2.3040  Y3.9026  
G01 X2.3034  Y3.9032  
G01 X2.3026  Y3.9038  
G01 X2.3013  Y3.9053  
G01 X2.3000  Y3.9066  
G01 X2.2987  Y3.9053  
G01 X2.2974  Y3.9038  
G01 X2.2966  Y3.9032  
G01 X2.2960  Y3.9026  
G01 X2.2944  Y3.9015  
G01 X2.2929  Y3.9003  
G01 X2.2920  Y3.8999  
G01 X2.2912  Y3.8994  
G01 X2.2894  Y3.8987  
G01 X2.2877  Y3.8978  
G01 X2.2868  Y3.8976  
G01 X2.2859  Y3.8972  
G01 X2.2841  Y3.8968  
G01 X2.2660  Y3.8920  
G01 X2.2460  Y3.8804  
G01 X2.2296  Y3.8640  
G01 X2.2180  Y3.8440  
G01 X2.2120  Y3.8216  
G01 X2.2120  Y3.2484  
G01 X2.2180  Y3.2260  
G01 X2.2296  Y3.2060  
G01 X2.2460  Y3.1896  
G01 X2.2660  Y3.1780  
G00 Z0.1000  
G00 X2.2716  Y3.2025  
G01 Z-0.0070 F10    
G01 X2.2644  Y3.2067  F20    
G01 X2.2577  Y3.2118  
G01 X2.2518  Y3.2177  
G01 X2.2467  Y3.2244  
G01 X2.2425  Y3.2316  
G01 X2.2393  Y3.2394  
G01 X2.2371  Y3.2475  
G01 X2.2360  Y3.2558  
G01 X2.2360  Y3.8142  
G01 X2.2371  Y3.8225  
G01 X2.2393  Y3.8306  
G01 X2.2425  Y3.8384  
G01 X2.2467  Y3.8456  
G01 X2.2518  Y3.8523  
G01 X2.2577  Y3.8582  
G01 X2.2644  Y3.8633  
G01 X2.2716  Y3.8675  
G01 X2.2794  Y3.8707  
G01 X2.2875  Y3.8729  
G01 X2.2958  Y3.8740  
G01 X2.3042  Y3.8740  
G01 X2.3125  Y3.8729  
G01 X2.3206  Y3.8707  
G01 X2.3284  Y3.8675  
G01 X2.3356  Y3.8633  
G01 X2.3423  Y3.8582  
G01 X2.3482  Y3.8523  
G01 X2.3533  Y3.8456  
G01 X2.3575  Y3.8384  
G01 X2.3607  Y3.8306  
G01 X2.3629  Y3.8225  
G01 X2.3640  Y3.8142  
G01 X2.3640  Y3.2558  
G01 X2.3629  Y3.2475  
G01 X2.3607  Y3.2394  
G01 X2.3575  Y3.2316  
G01 X2.3533  Y3.2244  
G01 X2.3482  Y3.2177  
G01 X2.3423  Y3.2118  
G01 X2.3356  Y3.2067  
G01 X2.3284  Y3.2025  
G01 X2.3206  Y3.1993  
G01 X2.3125  Y3.1971  
G01 X2.3042  Y3.1960  
G01 X2.2958  Y3.1960  
G01 X2.2875  Y3.1971  
G01 X2.2794  Y3.1993  
G01 X2.2716  Y3.2025  
G00 Z0.1000  
G00 X2.5417  Y3.3640  
G01 Z-0.0070 F10    
G01 X2.5633  Y3.3515  F20    
G01 X2.5875  Y3.3450  
G01 X2.6125  Y3.3450  
G01 X2.6367  Y3.3515  
G01 X2.6583  Y3.3640  
G01 X2.6760  Y3.3817  
G01 X2.6885  Y3.4033  
G01 X2.6950  Y3.4275  
G01 X2.6950  Y3.4525  
G01 X2.6885  Y3.4767  
G01 X2.6760  Y3.4983  
G01 X2.6583  Y3.5160  
G01 X2.6582  Y3.5161  
G01 X2.6575  Y3.5167  
G01 X2.6567  Y3.5173  
G01 X2.6553  Y3.5186  
G01 X2.6539  Y3.5199  
G01 X2.6533  Y3.5206  
G01 X2.6526  Y3.5213  
G01 X2.6516  Y3.5229  
G01 X2.6504  Y3.5244  
G01 X2.6500  Y3.5253  
G01 X2.6495  Y3.5261  
G01 X2.6487  Y3.5278  
G01 X2.6479  Y3.5295  
G01 X2.6476  Y3.5304  
G01 X2.6473  Y3.5313  
G01 X2.6469  Y3.5332  
G01 X2.6464  Y3.5350  
G01 X2.6463  Y3.5360  
G01 X2.6462  Y3.5369  
G01 X2.6462  Y3.5388  
G01 X2.6460  Y3.5407  
G01 X2.6462  Y3.5417  
G01 X2.6462  Y3.5426  
G01 X2.6465  Y3.5445  
G01 X2.6468  Y3.5464  
G01 X2.6471  Y3.5473  
G01 X2.6473  Y3.5483  
G01 X2.6480  Y3.5500  
G01 X2.6486  Y3.5518  
G01 X2.6491  Y3.5526  
G01 X2.6495  Y3.5535  
G01 X2.6505  Y3.5551  
G01 X2.6515  Y3.5568  
G01 X2.6521  Y3.5575  
G01 X2.6526  Y3.5583  
G01 X2.6540  Y3.5596  
G01 X2.6552  Y3.5611  
G01 X2.6560  Y3.5616  
G01 X2.6950  Y3.6006  
G01 X2.6950  Y3.6794  
G01 X2.6394  Y3.7350  
G01 X2.5606  Y3.7350  
G01 X2.5050  Y3.6794  
G01 X2.5050  Y3.6006  
G01 X2.5440  Y3.5616  
G01 X2.5448  Y3.5611  
G01 X2.5460  Y3.5596  
G01 X2.5474  Y3.5583  
G01 X2.5479  Y3.5575  
G01 X2.5485  Y3.5568  
G01 X2.5495  Y3.5551  
G01 X2.5505  Y3.5535  
G01 X2.5509  Y3.5526  
G01 X2.5514  Y3.5518  
G01 X2.5520  Y3.5500  
G01 X2.5527  Y3.5483  
G01 X2.5529  Y3.5473  
G01 X2.5532  Y3.5464  
G01 X2.5535  Y3.5445  
G01 X2.5538  Y3.5426  
G01 X2.5538  Y3.5417  
G01 X2.5540  Y3.5407  
G01 X2.5538  Y3.5388  
G01 X2.5538  Y3.5369  
G01 X2.5537  Y3.5360  
G01 X2.5536  Y3.5350  
G01 X2.5531  Y3.5332  
G01 X2.5527  Y3.5313  
G01 X2.5524  Y3.5304  
G01 X2.5521  Y3.5295  
G01 X2.5513  Y3.5278  
G01 X2.5505  Y3.5261  
G01 X2.5500  Y3.5253  
G01 X2.5496  Y3.5244  
G01 X2.5484  Y3.5229  
G01 X2.5474  Y3.5213  
G01 X2.5467  Y3.5206  
G01 X2.5461  Y3.5199  
G01 X2.5447  Y3.5186  
G01 X2.5433  Y3.5173  
G01 X2.5425  Y3.5167  
G01 X2.5418  Y3.5161  
G01 X2.5417  Y3.5160  
G01 X2.5240  Y3.4983  
G01 X2.5115  Y3.4767  
G01 X2.5050  Y3.4525  
G01 X2.5050  Y3.4275  
G01 X2.5115  Y3.4033  
G01 X2.5240  Y3.3817  
G01 X2.5417  Y3.3640  
G00 Z0.1000  
G00 X2.5465  Y3.3931  
G01 Z-0.0070 F10    
G01 X2.5408  Y3.4005  F20    
G01 X2.5362  Y3.4085  
G01 X2.5326  Y3.4171  
G01 X2.5302  Y3.4261  
G01 X2.5290  Y3.4353  
G01 X2.5290  Y3.4447  
G01 X2.5302  Y3.4539  
G01 X2.5326  Y3.4629  
G01 X2.5362  Y3.4715  
G01 X2.5408  Y3.4795  
G01 X2.5465  Y3.4869  
G01 X2.5531  Y3.4935  
G01 X2.5605  Y3.4992  
G01 X2.5685  Y3.5038  
G01 X2.5771  Y3.5074  
G01 X2.5861  Y3.5098  
G01 X2.5953  Y3.5110  
G01 X2.6047  Y3.5110  
G01 X2.6139  Y3.5098  
G01 X2.6229  Y3.5074  
G01 X2.6315  Y3.5038  
G01 X2.6395  Y3.4992  
G01 X2.6469  Y3.4935  
G01 X2.6535  Y3.4869  
G01 X2.6592  Y3.4795  
G01 X2.6638  Y3.4715  
G01 X2.6674  Y3.4629  
G01 X2.6698  Y3.4539  
G01 X2.6710  Y3.4447  
G01 X2.6710  Y3.4353  
G01 X2.6698  Y3.4261  
G01 X2.6674  Y3.4171  
G01 X2.6638  Y3.4085  
G01 X2.6592  Y3.4005  
G01 X2.6535  Y3.3931  
G01 X2.6469  Y3.3865  
G01 X2.6395  Y3.3808  
G01 X2.6315  Y3.3762  
G01 X2.6229  Y3.3726  
G01 X2.6139  Y3.3702  
G01 X2.6047  Y3.3690  
G01 X2.5953  Y3.3690  
G01 X2.5861  Y3.3702  
G01 X2.5771  Y3.3726  
G01 X2.5685  Y3.3762  
G01 X2.5605  Y3.3808  
G01 X2.5531  Y3.3865  
G01 X2.5465  Y3.3931  
G00 Z0.1000  
G00 X2.5706  Y3.5690  
G01 Z-0.0070 F10    
G01 X2.5290  Y3.6106  F20    
G01 X2.5290  Y3.6694  
G01 X2.5706  Y3.7110  
G01 X2.6294  Y3.7110  
G01 X2.6710  Y3.6694  
G01 X2.6710  Y3.6106  
G01 X2.6294  Y3.5690  
G01 X2.5706  Y3.5690  
G00 Z0.1000  
G00 X2.4602  Y3.9838  
G01 Z-0.0070 F10    
G01 X2.4642  Y3.9934  F20    
G01 X2.4598  Y3.9994  
G01 X2.4564  Y4.0060  
G01 X2.4542  Y4.0130  
G01 X2.4530  Y4.0203  
G01 X2.4530  Y4.0797  
G01 X2.4542  Y4.0870  
G01 X2.4564  Y4.0940  
G01 X2.4598  Y4.1006  
G01 X2.4642  Y4.1066  
G01 X2.4602  Y4.1162  
G01 X2.4402  Y4.1362  
G01 X2.4141  Y4.1470  
G01 X2.3859  Y4.1470  
G01 X2.3585  Y4.1356  
G01 X2.3532  Y4.1346  
G01 X2.3529  Y4.1345  
G01 X2.3471  Y4.1345  
G01 X2.3415  Y4.1356  
G01 X2.3414  Y4.1357  
G01 X2.3363  Y4.1378  
G01 X2.3141  Y4.1470  
G01 X2.2859  Y4.1470  
G01 X2.2598  Y4.1362  
G01 X2.2398  Y4.1162  
G01 X2.2290  Y4.0901  
G01 X2.2290  Y4.0099  
G01 X2.2398  Y3.9838  
G01 X2.2598  Y3.9638  
G01 X2.2877  Y3.9522  
G01 X2.2895  Y3.9516  
G01 X2.2903  Y3.9512  
G01 X2.2912  Y3.9508  
G01 X2.2928  Y3.9497  
G01 X2.2944  Y3.9488  
G01 X2.2952  Y3.9481  
G01 X2.2960  Y3.9476  
G01 X2.2973  Y3.9463  
G01 X2.2987  Y3.9450  
G01 X2.2993  Y3.9443  
G01 X2.3000  Y3.9436  
G01 X2.3007  Y3.9443  
G01 X2.3013  Y3.9450  
G01 X2.3027  Y3.9463  
G01 X2.3040  Y3.9476  
G01 X2.3048  Y3.9481  
G01 X2.3056  Y3.9488  
G01 X2.3072  Y3.9497  
G01 X2.3088  Y3.9508  
G01 X2.3097  Y3.9512  
G01 X2.3105  Y3.9516  
G01 X2.3123  Y3.9522  
G01 X2.3363  Y3.9622  
G01 X2.3415  Y3.9644  
G01 X2.3471  Y3.9655  
G01 X2.3529  Y3.9655  
G01 X2.3585  Y3.9644  
G01 X2.3859  Y3.9530  
G01 X2.4141  Y3.9530  
G01 X2.4402  Y3.9638  
G01 X2.4602  Y3.9838  
G00 Z0.1000  
G00 X2.4306  Y3.9882  
G01 Z-0.0070 F10    
G01 X2.4246  Y3.9838  F20    
G01 X2.4180  Y3.9804  
G01 X2.4110  Y3.9782  
G01 X2.4037  Y3.9770  
G01 X2.3963  Y3.9770  
G01 X2.3890  Y3.9782  
G01 X2.3820  Y3.9804  
G01 X2.3754  Y3.9838  
G01 X2.3694  Y3.9882  
G01 X2.3642  Y3.9934  
G01 X2.3598  Y3.9994  
G01 X2.3564  Y4.0060  
G01 X2.3542  Y4.0130  
G01 X2.3530  Y4.0203  
G01 X2.3530  Y4.0797  
G01 X2.3542  Y4.0870  
G01 X2.3564  Y4.0940  
G01 X2.3598  Y4.1006  
G01 X2.3642  Y4.1066  
G01 X2.3694  Y4.1118  
G01 X2.3754  Y4.1162  
G01 X2.3820  Y4.1196  
G01 X2.3890  Y4.1218  
G01 X2.3963  Y4.1230  
G01 X2.4037  Y4.1230  
G01 X2.4110  Y4.1218  
G01 X2.4180  Y4.1196  
G01 X2.4246  Y4.1162  
G01 X2.4306  Y4.1118  
G01 X2.4358  Y4.1066  
G01 X2.4402  Y4.1006  
G01 X2.4436  Y4.0940  
G01 X2.4458  Y4.0870  
G01 X2.4470  Y4.0797  
G01 X2.4470  Y4.0203  
G01 X2.4458  Y4.0130  
G01 X2.4436  Y4.0060  
G01 X2.4402  Y3.9994  
G01 X2.4358  Y3.9934  
G01 X2.4306  Y3.9882  
G00 Z0.1000  
G00 X2.3306  Y3.9882  
G01 Z-0.0070 F10    
G01 X2.3246  Y3.9838  F20    
G01 X2.3180  Y3.9804  
G01 X2.3110  Y3.9782  
G01 X2.3037  Y3.9770  
G01 X2.2963  Y3.9770  
G01 X2.2890  Y3.9782  
G01 X2.2820  Y3.9804  
G01 X2.2754  Y3.9838  
G01 X2.2694  Y3.9882  
G01 X2.2642  Y3.9934  
G01 X2.2598  Y3.9994  
G01 X2.2564  Y4.0060  
G01 X2.2542  Y4.0130  
G01 X2.2530  Y4.0203  
G01 X2.2530  Y4.0797  
G01 X2.2542  Y4.0870  
G01 X2.2564  Y4.0940  
G01 X2.2598  Y4.1006  
G01 X2.2642  Y4.1066  
G01 X2.2694  Y4.1118  
G01 X2.2754  Y4.1162  
G01 X2.2820  Y4.1196  
G01 X2.2890  Y4.1218  
G01 X2.2963  Y4.1230  
G01 X2.3037  Y4.1230  
G01 X2.3110  Y4.1218  
G01 X2.3180  Y4.1196  
G01 X2.3246  Y4.1162  
G01 X2.3306  Y4.1118  
G01 X2.3358  Y4.1066  
G01 X2.3402  Y4.1006  
G01 X2.3436  Y4.0940  
G01 X2.3458  Y4.0870  
G01 X2.3470  Y4.0797  
G01 X2.3470  Y4.0203  
G01 X2.3458  Y4.0130  
G01 X2.3436  Y4.0060  
G01 X2.3402  Y3.9994  
G01 X2.3358  Y3.9934  
G01 X2.3306  Y3.9882  
G00 Z0.1000  
G00 X2.3363  Y4.2622  
G01 Z-0.0070 F10    
G01 X2.3363  Y4.2622  F20    
G01 X2.3415  Y4.2644  
G01 X2.3419  Y4.2644  
G01 X2.3471  Y4.2655  
G01 X2.3529  Y4.2655  
G01 X2.3585  Y4.2644  
G01 X2.3859  Y4.2530  
G01 X2.4141  Y4.2530  
G01 X2.4363  Y4.2622  
G01 X2.4415  Y4.2644  
G01 X2.4419  Y4.2644  
G01 X2.4471  Y4.2655  
G01 X2.4529  Y4.2655  
G01 X2.4585  Y4.2644  
G01 X2.4859  Y4.2530  
G01 X2.5141  Y4.2530  
G01 X2.5402  Y4.2638  
G01 X2.5602  Y4.2838  
G01 X2.5710  Y4.3099  
G01 X2.5710  Y4.3901  
G01 X2.5602  Y4.4162  
G01 X2.5402  Y4.4362  
G01 X2.5141  Y4.4470  
G01 X2.4859  Y4.4470  
G01 X2.4585  Y4.4356  
G01 X2.4532  Y4.4346  
G01 X2.4529  Y4.4345  
G01 X2.4471  Y4.4345  
G01 X2.4415  Y4.4356  
G01 X2.4414  Y4.4357  
G01 X2.4363  Y4.4378  
G01 X2.4141  Y4.4470  
G01 X2.3859  Y4.4470  
G01 X2.3585  Y4.4356  
G01 X2.3532  Y4.4346  
G01 X2.3529  Y4.4345  
G01 X2.3471  Y4.4345  
G01 X2.3415  Y4.4356  
G01 X2.3414  Y4.4357  
G01 X2.3363  Y4.4378  
G01 X2.3141  Y4.4470  
G01 X2.2859  Y4.4470  
G01 X2.2598  Y4.4362  
G01 X2.2398  Y4.4162  
G01 X2.2290  Y4.3901  
G01 X2.2290  Y4.3099  
G01 X2.2398  Y4.2838  
G01 X2.2598  Y4.2638  
G01 X2.2859  Y4.2530  
G01 X2.3141  Y4.2530  
G01 X2.3363  Y4.2622  
G00 Z0.1000  
G00 X2.3306  Y4.2882  
G01 Z-0.0070 F10    
G01 X2.3246  Y4.2838  F20    
G01 X2.3180  Y4.2804  
G01 X2.3110  Y4.2782  
G01 X2.3037  Y4.2770  
G01 X2.2963  Y4.2770  
G01 X2.2890  Y4.2782  
G01 X2.2820  Y4.2804  
G01 X2.2754  Y4.2838  
G01 X2.2694  Y4.2882  
G01 X2.2642  Y4.2934  
G01 X2.2598  Y4.2994  
G01 X2.2564  Y4.3060  
G01 X2.2542  Y4.3130  
G01 X2.2530  Y4.3203  
G01 X2.2530  Y4.3797  
G01 X2.2542  Y4.3870  
G01 X2.2564  Y4.3940  
G01 X2.2598  Y4.4006  
G01 X2.2642  Y4.4066  
G01 X2.2694  Y4.4118  
G01 X2.2754  Y4.4162  
G01 X2.2820  Y4.4196  
G01 X2.2890  Y4.4218  
G01 X2.2963  Y4.4230  
G01 X2.3037  Y4.4230  
G01 X2.3110  Y4.4218  
G01 X2.3180  Y4.4196  
G01 X2.3246  Y4.4162  
G01 X2.3306  Y4.4118  
G01 X2.3358  Y4.4066  
G01 X2.3402  Y4.4006  
G01 X2.3436  Y4.3940  
G01 X2.3458  Y4.3870  
G01 X2.3470  Y4.3797  
G01 X2.3470  Y4.3203  
G01 X2.3458  Y4.3130  
G01 X2.3436  Y4.3060  
G01 X2.3402  Y4.2994  
G01 X2.3358  Y4.2934  
G01 X2.3306  Y4.2882  
G00 Z0.1000  
G00 X2.3642  Y4.2934  
G01 Z-0.0070 F10    
G01 X2.3598  Y4.2994  F20    
G01 X2.3564  Y4.3060  
G01 X2.3542  Y4.3130  
G01 X2.3530  Y4.3203  
G01 X2.3530  Y4.3797  
G01 X2.3542  Y4.3870  
G01 X2.3564  Y4.3940  
G01 X2.3598  Y4.4006  
G01 X2.3642  Y4.4066  
G01 X2.3694  Y4.4118  
G01 X2.3754  Y4.4162  
G01 X2.3820  Y4.4196  
G01 X2.3890  Y4.4218  
G01 X2.3963  Y4.4230  
G01 X2.4037  Y4.4230  
G01 X2.4110  Y4.4218  
G01 X2.4180  Y4.4196  
G01 X2.4246  Y4.4162  
G01 X2.4306  Y4.4118  
G01 X2.4358  Y4.4066  
G01 X2.4402  Y4.4006  
G01 X2.4436  Y4.3940  
G01 X2.4458  Y4.3870  
G01 X2.4470  Y4.3797  
G01 X2.4470  Y4.3203  
G01 X2.4458  Y4.3130  
G01 X2.4436  Y4.3060  
G01 X2.4402  Y4.2994  
G01 X2.4358  Y4.2934  
G01 X2.4306  Y4.2882  
G01 X2.4246  Y4.2838  
G01 X2.4180  Y4.2804  
G01 X2.4110  Y4.2782  
G01 X2.4037  Y4.2770  
G01 X2.3963  Y4.2770  
G01 X2.3890  Y4.2782  
G01 X2.3820  Y4.2804  
G01 X2.3754  Y4.2838  
G01 X2.3694  Y4.2882  
G01 X2.3642  Y4.2934  
G00 Z0.1000  
G00 X2.4642  Y4.2934  
G01 Z-0.0070 F10    
G01 X2.4598  Y4.2994  F20    
G01 X2.4564  Y4.3060  
G01 X2.4542  Y4.3130  
G01 X2.4530  Y4.3203  
G01 X2.4530  Y4.3797  
G01 X2.4542  Y4.3870  
G01 X2.4564  Y4.3940  
G01 X2.4598  Y4.4006  
G01 X2.4642  Y4.4066  
G01 X2.4694  Y4.4118  
G01 X2.4754  Y4.4162  
G01 X2.4820  Y4.4196  
G01 X2.4890  Y4.4218  
G01 X2.4963  Y4.4230  
G01 X2.5037  Y4.4230  
G01 X2.5110  Y4.4218  
G01 X2.5180  Y4.4196  
G01 X2.5246  Y4.4162  
G01 X2.5306  Y4.4118  
G01 X2.5358  Y4.4066  
G01 X2.5402  Y4.4006  
G01 X2.5436  Y4.3940  
G01 X2.5458  Y4.3870  
G01 X2.5470  Y4.3797  
G01 X2.5470  Y4.3203  
G01 X2.5458  Y4.3130  
G01 X2.5436  Y4.3060  
G01 X2.5402  Y4.2994  
G01 X2.5358  Y4.2934  
G01 X2.5306  Y4.2882  
G01 X2.5246  Y4.2838  
G01 X2.5180  Y4.2804  
G01 X2.5110  Y4.2782  
G01 X2.5037  Y4.2770  
G01 X2.4963  Y4.2770  
G01 X2.4890  Y4.2782  
G01 X2.4820  Y4.2804  
G01 X2.4754  Y4.2838  
G01 X2.4694  Y4.2882  
G01 X2.4642  Y4.2934  
G00 Z0.1000  
G00 X2.7990  Y4.3206  
G01 Z-0.0070 F10    
G01 X2.8406  Y4.2790  F20    
G01 X2.8994  Y4.2790  
G01 X2.9410  Y4.3206  
G01 X2.9410  Y4.3794  
G01 X2.8994  Y4.4210  
G01 X2.8406  Y4.4210  
G01 X2.7990  Y4.3794  
G01 X2.7990  Y4.3206  
G00 Z0.1000  
G00 X2.8230  Y4.3305  
G01 Z-0.0070 F10    
G01 X2.8230  Y4.3695  F20    
G01 X2.8505  Y4.3970  
G01 X2.8895  Y4.3970  
G01 X2.9170  Y4.3695  
G01 X2.9170  Y4.3305  
G01 X2.8895  Y4.3030  
G01 X2.8505  Y4.3030  
G01 X2.8230  Y4.3305  
G00 Z0.1000  
G00 X2.9990  Y4.3206  
G01 Z-0.0070 F10    
G01 X3.0406  Y4.2790  F20    
G01 X3.1034  Y4.2790  
G01 X3.1045  Y4.2795  
G01 X3.1080  Y4.2801  
G01 X3.1101  Y4.2806  
G01 X3.1130  Y4.2806  
G01 X3.1159  Y4.2806  
G01 X3.1199  Y4.2798  
G01 X3.1215  Y4.2795  
G01 X3.1238  Y4.2785  
G01 X3.1267  Y4.2773  
G01 X3.1278  Y4.2766  
G01 X3.1315  Y4.2741  
G01 X3.1335  Y4.2721  
G01 X3.1355  Y4.2701  
G01 X3.1371  Y4.2677  
G01 X3.1387  Y4.2653  
G01 X3.1398  Y4.2627  
G01 X3.1409  Y4.2600  
G01 X3.1416  Y4.2566  
G01 X3.1420  Y4.2544  
G01 X3.1420  Y4.2515  
G01 X3.1420  Y4.2487  
G01 X3.1420  Y4.1184  
G01 X3.1480  Y4.0960  
G01 X3.1596  Y4.0760  
G01 X3.2515  Y3.9841  
G01 X3.2555  Y3.9800  
G01 X3.2587  Y3.9753  
G01 X3.2609  Y3.9700  
G01 X3.2620  Y3.9644  
G01 X3.2620  Y3.6284  
G01 X3.2680  Y3.6060  
G01 X3.2796  Y3.5860  
G01 X3.2820  Y3.5836  
G01 X3.2827  Y3.5830  
G01 X3.2840  Y3.5816  
G01 X3.2853  Y3.5802  
G01 X3.2859  Y3.5794  
G01 X3.2865  Y3.5787  
G01 X3.2875  Y3.5770  
G01 X3.2885  Y3.5755  
G01 X3.2889  Y3.5746  
G01 X3.2894  Y3.5737  
G01 X3.2900  Y3.5719  
G01 X3.2907  Y3.5702  
G01 X3.2909  Y3.5692  
G01 X3.2912  Y3.5683  
G01 X3.2914  Y3.5664  
G01 X3.2918  Y3.5646  
G01 X3.2918  Y3.5636  
G01 X3.2919  Y3.5627  
G01 X3.2918  Y3.5608  
G01 X3.2918  Y3.5589  
G01 X3.2916  Y3.5579  
G01 X3.2916  Y3.5570  
G01 X3.2911  Y3.5551  
G01 X3.2907  Y3.5533  
G01 X3.2903  Y3.5524  
G01 X3.2901  Y3.5515  
G01 X3.2892  Y3.5497  
G01 X3.2885  Y3.5480  
G01 X3.2880  Y3.5472  
G01 X3.2876  Y3.5463  
G01 X3.2864  Y3.5448  
G01 X3.2853  Y3.5432  
G01 X3.2847  Y3.5426  
G01 X3.2841  Y3.5418  
G01 X3.2827  Y3.5405  
G01 X3.2813  Y3.5392  
G01 X3.2805  Y3.5387  
G01 X3.2798  Y3.5380  
G01 X3.2781  Y3.5371  
G01 X3.2766  Y3.5360  
G01 X3.2761  Y3.5358  
G01 X3.2540  Y3.5137  
G01 X3.2382  Y3.4863  
G01 X3.2300  Y3.4558  
G01 X3.2300  Y3.4242  
G01 X3.2382  Y3.3937  
G01 X3.2540  Y3.3663  
G01 X3.2763  Y3.3440  
G01 X3.3037  Y3.3282  
G01 X3.3342  Y3.3200  
G01 X3.5758  Y3.3200  
G01 X3.6063  Y3.3282  
G01 X3.6337  Y3.3440  
G01 X3.9660  Y3.6763  
G01 X3.9818  Y3.7037  
G01 X3.9900  Y3.7342  
G01 X3.9900  Y3.8609  
G01 X3.9911  Y3.8665  
G01 X3.9933  Y3.8717  
G01 X3.9965  Y3.8765  
G01 X4.0005  Y3.8805  
G01 X4.0053  Y3.8837  
G01 X4.0105  Y3.8859  
G01 X4.0161  Y3.8870  
G01 X4.0550  Y3.8870  
G01 X4.0715  Y3.8939  
G01 X4.0841  Y3.9065  
G01 X4.0910  Y3.9230  
G01 X4.0910  Y4.1010  
G01 X4.0876  Y4.1092  
G01 X4.0865  Y4.1148  
G01 X4.0865  Y4.1205  
G01 X4.0876  Y4.1261  
G01 X4.0890  Y4.1295  
G01 X4.0890  Y4.3110  
G01 X4.0881  Y4.3131  
G01 X4.0870  Y4.3187  
G01 X4.0870  Y4.3751  
G01 X4.0881  Y4.3807  
G01 X4.0920  Y4.3900  
G01 X4.0920  Y4.4582  
G01 X4.0917  Y4.4600  
G01 X4.0910  Y4.4633  
G01 X4.0910  Y4.5685  
G01 X4.0881  Y4.5755  
G01 X4.0870  Y4.5811  
G01 X4.0870  Y4.5868  
G01 X4.0874  Y4.5891  
G01 X4.0881  Y4.5924  
G01 X4.0900  Y4.5970  
G01 X4.0900  Y4.7750  
G01 X4.0831  Y4.7915  
G01 X4.0705  Y4.8041  
G01 X4.0540  Y4.8110  
G01 X4.0161  Y4.8110  
G01 X4.0105  Y4.8121  
G01 X4.0053  Y4.8143  
G01 X4.0005  Y4.8175  
G01 X3.9965  Y4.8215  
G01 X3.9933  Y4.8263  
G01 X3.9911  Y4.8315  
G01 X3.9900  Y4.8371  
G01 X3.9900  Y4.9858  
G01 X3.9818  Y5.0163  
G01 X3.9660  Y5.0437  
G01 X3.9430  Y5.0667  
G01 X3.7037  Y5.3060  
G01 X3.6763  Y5.3218  
G01 X3.6458  Y5.3300  
G01 X3.3442  Y5.3300  
G01 X3.3137  Y5.3218  
G01 X3.2863  Y5.3060  
G01 X3.2640  Y5.2837  
G01 X3.2482  Y5.2563  
G01 X3.2400  Y5.2258  
G01 X3.2400  Y5.1942  
G01 X3.2482  Y5.1637  
G01 X3.2640  Y5.1363  
G01 X3.2863  Y5.1140  
G01 X3.3009  Y5.1055  
G01 X3.3018  Y5.1052  
G01 X3.3034  Y5.1041  
G01 X3.3050  Y5.1032  
G01 X3.3058  Y5.1025  
G01 X3.3065  Y5.1020  
G01 X3.3079  Y5.1007  
G01 X3.3093  Y5.0994  
G01 X3.3099  Y5.0986  
G01 X3.3106  Y5.0980  
G01 X3.3116  Y5.0964  
G01 X3.3128  Y5.0949  
G01 X3.3132  Y5.0940  
G01 X3.3138  Y5.0932  
G01 X3.3145  Y5.0915  
G01 X3.3153  Y5.0897  
G01 X3.3156  Y5.0888  
G01 X3.3159  Y5.0879  
G01 X3.3163  Y5.0861  
G01 X3.3168  Y5.0842  
G01 X3.3169  Y5.0833  
G01 X3.3171  Y5.0823  
G01 X3.3171  Y5.0804  
G01 X3.3172  Y5.0785  
G01 X3.3171  Y5.0776  
G01 X3.3171  Y5.0766  
G01 X3.3167  Y5.0748  
G01 X3.3164  Y5.0729  
G01 X3.3161  Y5.0720  
G01 X3.3159  Y5.0710  
G01 X3.3152  Y5.0693  
G01 X3.3146  Y5.0675  
G01 X3.3141  Y5.0666  
G01 X3.3138  Y5.0657  
G01 X3.3127  Y5.0642  
G01 X3.3117  Y5.0625  
G01 X3.3111  Y5.0618  
G01 X3.3106  Y5.0610  
G01 X3.3092  Y5.0596  
G01 X3.3080  Y5.0582  
G01 X3.3072  Y5.0576  
G01 X3.2890  Y5.0394  
G01 X3.2890  Y4.9806  
G01 X3.3306  Y4.9390  
G01 X3.3894  Y4.9390  
G01 X3.4310  Y4.9806  
G01 X3.4310  Y5.0394  
G01 X3.4279  Y5.0425  
G01 X3.4268  Y5.0442  
G01 X3.4247  Y5.0473  
G01 X3.4232  Y5.0509  
G01 X3.4225  Y5.0525  
G01 X3.4217  Y5.0568  
G01 X3.4214  Y5.0581  
G01 X3.4214  Y5.0639  
G01 X3.4225  Y5.0695  
G01 X3.4235  Y5.0717  
G01 X3.4247  Y5.0747  
G01 X3.4279  Y5.0795  
G01 X3.4319  Y5.0835  
G01 X3.4336  Y5.0846  
G01 X3.4367  Y5.0867  
G01 X3.4403  Y5.0882  
G01 X3.4420  Y5.0889  
G01 X3.4463  Y5.0897  
G01 X3.4476  Y5.0900  
G01 X3.5711  Y5.0900  
G01 X3.5767  Y5.0889  
G01 X3.5820  Y5.0867  
G01 X3.5868  Y5.0835  
G01 X3.7395  Y4.9308  
G01 X3.7435  Y4.9268  
G01 X3.7467  Y4.9220  
G01 X3.7489  Y4.9167  
G01 X3.7500  Y4.9111  
G01 X3.7500  Y4.8371  
G01 X3.7489  Y4.8315  
G01 X3.7467  Y4.8263  
G01 X3.7435  Y4.8215  
G01 X3.7395  Y4.8175  
G01 X3.7347  Y4.8143  
G01 X3.7295  Y4.8121  
G01 X3.7239  Y4.8110  
G01 X3.6860  Y4.8110  
G01 X3.6695  Y4.8041  
G01 X3.6569  Y4.7915  
G01 X3.6500  Y4.7750  
G01 X3.6500  Y4.6241  
G01 X3.6489  Y4.6185  
G01 X3.6467  Y4.6133  
G01 X3.6435  Y4.6085  
G01 X3.6395  Y4.6045  
G01 X3.6347  Y4.6013  
G01 X3.6295  Y4.5991  
G01 X3.6239  Y4.5980  
G01 X3.5756  Y4.5980  
G01 X3.5703  Y4.5991  
G01 X3.5700  Y4.5991  
G01 X3.5647  Y4.6013  
G01 X3.5600  Y4.6045  
G01 X3.4585  Y4.7059  
G01 X3.4545  Y4.7100  
G01 X3.4513  Y4.7147  
G01 X3.4512  Y4.7149  
G01 X3.4491  Y4.7200  
G01 X3.4481  Y4.7253  
G01 X3.4480  Y4.7256  
G01 X3.4480  Y4.7616  
G01 X3.4420  Y4.7840  
G01 X3.4304  Y4.8040  
G01 X3.4237  Y4.8108  
G01 X3.4220  Y4.8133  
G01 X3.4205  Y4.8156  
G01 X3.4202  Y4.8162  
G01 X3.4002  Y4.8362  
G01 X3.3741  Y4.8470  
G01 X3.3459  Y4.8470  
G01 X3.3198  Y4.8362  
G01 X3.2998  Y4.8162  
G01 X3.2995  Y4.8156  
G01 X3.2979  Y4.8131  
G01 X3.2964  Y4.8108  
G01 X3.2896  Y4.8040  
G01 X3.2780  Y4.7840  
G01 X3.2720  Y4.7616  
G01 X3.2720  Y4.7156  
G01 X3.2709  Y4.7100  
G01 X3.2687  Y4.7047  
G01 X3.2655  Y4.7000  
G01 X3.1766  Y4.6111  
G01 X3.1596  Y4.5940  
G01 X3.1480  Y4.5740  
G01 X3.1420  Y4.5516  
G01 X3.1420  Y4.4513  
G01 X3.1420  Y4.4484  
G01 X3.1420  Y4.4456  
G01 X3.1416  Y4.4433  
G01 X3.1409  Y4.4400  
G01 X3.1397  Y4.4372  
G01 X3.1387  Y4.4347  
G01 X3.1371  Y4.4323  
G01 X3.1355  Y4.4299  
G01 X3.1335  Y4.4279  
G01 X3.1315  Y4.4259  
G01 X3.1277  Y4.4234  
G01 X3.1267  Y4.4227  
G01 X3.1237  Y4.4215  
G01 X3.1215  Y4.4205  
G01 X3.1198  Y4.4202  
G01 X3.1159  Y4.4194  
G01 X3.1130  Y4.4194  
G01 X3.1101  Y4.4194  
G01 X3.1079  Y4.4199  
G01 X3.1045  Y4.4205  
G01 X3.1034  Y4.4210  
G01 X3.0406  Y4.4210  
G01 X2.9990  Y4.3794  
G01 X2.9990  Y4.3206  
G00 Z0.1000  
G00 X3.0230  Y4.3305  
G01 Z-0.0070 F10    
G01 X3.0230  Y4.3695  F20    
G01 X3.0505  Y4.3970  
G01 X3.0895  Y4.3970  
G01 X3.1170  Y4.3695  
G01 X3.1170  Y4.3305  
G01 X3.0895  Y4.3030  
G01 X3.0505  Y4.3030  
G01 X3.0230  Y4.3305  
G00 Z0.1000  
G00 X3.3130  Y4.3361  
G01 Z-0.0070 F10    
G01 X3.3122  Y4.3385  F20    
G01 X3.3110  Y4.3461  
G01 X3.3110  Y4.3539  
G01 X3.3122  Y4.3615  
G01 X3.3130  Y4.3639  
G01 X3.3130  Y4.3797  
G01 X3.3142  Y4.3870  
G01 X3.3164  Y4.3940  
G01 X3.3198  Y4.4006  
G01 X3.3242  Y4.4066  
G01 X3.3294  Y4.4118  
G01 X3.3354  Y4.4162  
G01 X3.3420  Y4.4196  
G01 X3.3490  Y4.4218  
G01 X3.3563  Y4.4230  
G01 X3.3637  Y4.4230  
G01 X3.3710  Y4.4218  
G01 X3.3780  Y4.4196  
G01 X3.3846  Y4.4162  
G01 X3.3906  Y4.4118  
G01 X3.3958  Y4.4066  
G01 X3.4002  Y4.4006  
G01 X3.4010  Y4.3990  
G01 X3.6760  Y4.3990  
G01 X3.6760  Y4.4460  
G01 X3.5258  Y4.4460  
G01 X3.5175  Y4.4471  
G01 X3.5094  Y4.4493  
G01 X3.5016  Y4.4525  
G01 X3.4944  Y4.4567  
G01 X3.4877  Y4.4618  
G01 X3.4818  Y4.4677  
G01 X3.3650  Y4.5845  
G01 X3.2940  Y4.5135  
G01 X3.2940  Y4.1565  
G01 X3.3550  Y4.0955  
G01 X3.4818  Y4.2223  
G01 X3.4877  Y4.2282  
G01 X3.4944  Y4.2333  
G01 X3.5016  Y4.2375  
G01 X3.5094  Y4.2407  
G01 X3.5175  Y4.2429  
G01 X3.5258  Y4.2440  
G01 X3.6744  Y4.2440  
G01 X3.6730  Y4.2492  
G01 X3.6730  Y4.3010  
G01 X3.4010  Y4.3010  
G01 X3.4002  Y4.2994  
G01 X3.3958  Y4.2934  
G01 X3.3906  Y4.2882  
G01 X3.3846  Y4.2838  
G01 X3.3780  Y4.2804  
G01 X3.3710  Y4.2782  
G01 X3.3637  Y4.2770  
G01 X3.3563  Y4.2770  
G01 X3.3490  Y4.2782  
G01 X3.3420  Y4.2804  
G01 X3.3354  Y4.2838  
G01 X3.3294  Y4.2882  
G01 X3.3242  Y4.2934  
G01 X3.3198  Y4.2994  
G01 X3.3164  Y4.3060  
G01 X3.3142  Y4.3130  
G01 X3.3130  Y4.3203  
G01 X3.3130  Y4.3361  
G00 Z0.1000  
G00 X3.1660  Y4.5442  
G01 Z-0.0070 F10    
G01 X3.1671  Y4.5525  F20    
G01 X3.1693  Y4.5606  
G01 X3.1725  Y4.5684  
G01 X3.1767  Y4.5756  
G01 X3.1818  Y4.5823  
G01 X3.1877  Y4.5882  
G01 X3.2960  Y4.6965  
G01 X3.2960  Y4.7542  
G01 X3.2971  Y4.7625  
G01 X3.2993  Y4.7706  
G01 X3.3025  Y4.7784  
G01 X3.3067  Y4.7856  
G01 X3.3118  Y4.7923  
G01 X3.3177  Y4.7982  
G01 X3.3191  Y4.7993  
G01 X3.3198  Y4.8006  
G01 X3.3242  Y4.8066  
G01 X3.3294  Y4.8118  
G01 X3.3354  Y4.8162  
G01 X3.3420  Y4.8196  
G01 X3.3490  Y4.8218  
G01 X3.3563  Y4.8230  
G01 X3.3637  Y4.8230  
G01 X3.3710  Y4.8218  
G01 X3.3780  Y4.8196  
G01 X3.3846  Y4.8162  
G01 X3.3906  Y4.8118  
G01 X3.3958  Y4.8066  
G01 X3.4002  Y4.8006  
G01 X3.4009  Y4.7993  
G01 X3.4023  Y4.7982  
G01 X3.4082  Y4.7923  
G01 X3.4133  Y4.7856  
G01 X3.4175  Y4.7784  
G01 X3.4207  Y4.7706  
G01 X3.4229  Y4.7625  
G01 X3.4240  Y4.7542  
G01 X3.4240  Y4.7065  
G01 X3.5565  Y4.5740  
G01 X3.6808  Y4.5740  
G01 X3.6831  Y4.5763  
G01 X3.6879  Y4.5791  
G01 X3.6932  Y4.5805  
G01 X3.8630  Y4.5805  
G01 X3.8668  Y4.5810  
G01 X3.8752  Y4.5810  
G01 X3.8790  Y4.5805  
G01 X4.0488  Y4.5805  
G01 X4.0541  Y4.5791  
G01 X4.0589  Y4.5763  
G01 X4.0628  Y4.5724  
G01 X4.0656  Y4.5676  
G01 X4.0670  Y4.5623  
G01 X4.0670  Y4.4717  
G01 X4.0656  Y4.4664  
G01 X4.0633  Y4.4624  
G01 X4.0638  Y4.4619  
G01 X4.0666  Y4.4571  
G01 X4.0680  Y4.4518  
G01 X4.0680  Y4.3962  
G01 X4.0666  Y4.3909  
G01 X4.0638  Y4.3861  
G01 X4.0613  Y4.3836  
G01 X4.0616  Y4.3831  
G01 X4.0630  Y4.3778  
G01 X4.0630  Y4.3222  
G01 X4.0616  Y4.3169  
G01 X4.0606  Y4.3151  
G01 X4.0608  Y4.3149  
G01 X4.0636  Y4.3101  
G01 X4.0650  Y4.3048  
G01 X4.0650  Y4.2492  
G01 X4.0636  Y4.2439  
G01 X4.0608  Y4.2391  
G01 X4.0594  Y4.2378  
G01 X4.0608  Y4.2364  
G01 X4.0636  Y4.2316  
G01 X4.0650  Y4.2263  
G01 X4.0650  Y4.1357  
G01 X4.0636  Y4.1304  
G01 X4.0608  Y4.1256  
G01 X4.0569  Y4.1217  
G01 X4.0521  Y4.1189  
G01 X4.0468  Y4.1175  
G01 X3.8820  Y4.1175  
G01 X3.8805  Y4.1171  
G01 X3.8722  Y4.1160  
G01 X3.5565  Y4.1160  
G01 X3.4140  Y3.9735  
G01 X3.4140  Y3.6358  
G01 X3.4129  Y3.6275  
G01 X3.4107  Y3.6194  
G01 X3.4075  Y3.6116  
G01 X3.4033  Y3.6044  
G01 X3.3982  Y3.5977  
G01 X3.3923  Y3.5918  
G01 X3.3856  Y3.5867  
G01 X3.3784  Y3.5825  
G01 X3.3706  Y3.5793  
G01 X3.3625  Y3.5771  
G01 X3.3542  Y3.5760  
G01 X3.3458  Y3.5760  
G01 X3.3375  Y3.5771  
G01 X3.3294  Y3.5793  
G01 X3.3216  Y3.5825  
G01 X3.3144  Y3.5867  
G01 X3.3077  Y3.5918  
G01 X3.3018  Y3.5977  
G01 X3.2967  Y3.6044  
G01 X3.2925  Y3.6116  
G01 X3.2893  Y3.6194  
G01 X3.2871  Y3.6275  
G01 X3.2860  Y3.6358  
G01 X3.2860  Y3.9835  
G01 X3.1818  Y4.0877  
G01 X3.1767  Y4.0944  
G01 X3.1725  Y4.1016  
G01 X3.1693  Y4.1094  
G01 X3.1671  Y4.1175  
G01 X3.1660  Y4.1258  
G01 X3.1660  Y4.5442  
G00 Z0.1000  
G00 X3.6782  Y4.5931  
G01 Z-0.0070 F10    
G01 X3.6754  Y4.5979  F20    
G01 X3.6740  Y4.6032  
G01 X3.6740  Y4.7688  
G01 X3.6754  Y4.7741  
G01 X3.6782  Y4.7789  
G01 X3.6821  Y4.7828  
G01 X3.6869  Y4.7856  
G01 X3.6922  Y4.7870  
G01 X3.7740  Y4.7870  
G01 X3.7740  Y4.9302  
G01 X3.5902  Y5.1140  
G01 X3.3546  Y5.1140  
G01 X3.3439  Y5.1152  
G01 X3.3334  Y5.1176  
G01 X3.3232  Y5.1212  
G01 X3.3135  Y5.1258  
G01 X3.3044  Y5.1316  
G01 X3.2959  Y5.1383  
G01 X3.2883  Y5.1459  
G01 X3.2816  Y5.1544  
G01 X3.2758  Y5.1635  
G01 X3.2712  Y5.1732  
G01 X3.2676  Y5.1834  
G01 X3.2652  Y5.1939  
G01 X3.2640  Y5.2046  
G01 X3.2640  Y5.2154  
G01 X3.2652  Y5.2261  
G01 X3.2676  Y5.2366  
G01 X3.2712  Y5.2468  
G01 X3.2758  Y5.2565  
G01 X3.2816  Y5.2656  
G01 X3.2883  Y5.2741  
G01 X3.2959  Y5.2817  
G01 X3.3044  Y5.2884  
G01 X3.3135  Y5.2942  
G01 X3.3232  Y5.2988  
G01 X3.3334  Y5.3024  
G01 X3.3439  Y5.3048  
G01 X3.3546  Y5.3060  
G01 X3.6354  Y5.3060  
G01 X3.6461  Y5.3048  
G01 X3.6566  Y5.3024  
G01 X3.6668  Y5.2988  
G01 X3.6765  Y5.2942  
G01 X3.6856  Y5.2884  
G01 X3.6941  Y5.2817  
G01 X3.9341  Y5.0417  
G01 X3.9417  Y5.0341  
G01 X3.9484  Y5.0256  
G01 X3.9542  Y5.0165  
G01 X3.9588  Y5.0068  
G01 X3.9624  Y4.9966  
G01 X3.9648  Y4.9861  
G01 X3.9660  Y4.9754  
G01 X3.9660  Y4.7870  
G01 X4.0478  Y4.7870  
G01 X4.0531  Y4.7856  
G01 X4.0579  Y4.7828  
G01 X4.0618  Y4.7789  
G01 X4.0646  Y4.7741  
G01 X4.0660  Y4.7688  
G01 X4.0660  Y4.6032  
G01 X4.0646  Y4.5979  
G01 X4.0618  Y4.5931  
G01 X4.0579  Y4.5892  
G01 X4.0531  Y4.5864  
G01 X4.0478  Y4.5850  
G01 X3.6922  Y4.5850  
G01 X3.6869  Y4.5864  
G01 X3.6821  Y4.5892  
G01 X3.6782  Y4.5931  
G00 Z0.1000  
G00 X3.6831  Y4.1088  
G01 Z-0.0070 F10    
G01 X3.6879  Y4.1116  F20    
G01 X3.6932  Y4.1130  
G01 X4.0488  Y4.1130  
G01 X4.0541  Y4.1116  
G01 X4.0589  Y4.1088  
G01 X4.0628  Y4.1049  
G01 X4.0656  Y4.1001  
G01 X4.0670  Y4.0948  
G01 X4.0670  Y3.9292  
G01 X4.0656  Y3.9239  
G01 X4.0628  Y3.9191  
G01 X4.0589  Y3.9152  
G01 X4.0541  Y3.9124  
G01 X4.0488  Y3.9110  
G01 X3.9660  Y3.9110  
G01 X3.9660  Y3.7446  
G01 X3.9648  Y3.7339  
G01 X3.9624  Y3.7234  
G01 X3.9588  Y3.7132  
G01 X3.9542  Y3.7035  
G01 X3.9484  Y3.6944  
G01 X3.9417  Y3.6859  
G01 X3.9341  Y3.6783  
G01 X3.6241  Y3.3683  
G01 X3.6156  Y3.3616  
G01 X3.6065  Y3.3558  
G01 X3.5968  Y3.3512  
G01 X3.5866  Y3.3476  
G01 X3.5761  Y3.3452  
G01 X3.5654  Y3.3440  
G01 X3.3446  Y3.3440  
G01 X3.3339  Y3.3452  
G01 X3.3234  Y3.3476  
G01 X3.3132  Y3.3512  
G01 X3.3035  Y3.3558  
G01 X3.2944  Y3.3616  
G01 X3.2859  Y3.3683  
G01 X3.2783  Y3.3759  
G01 X3.2716  Y3.3844  
G01 X3.2658  Y3.3935  
G01 X3.2612  Y3.4032  
G01 X3.2576  Y3.4134  
G01 X3.2552  Y3.4239  
G01 X3.2540  Y3.4346  
G01 X3.2540  Y3.4454  
G01 X3.2552  Y3.4561  
G01 X3.2576  Y3.4666  
G01 X3.2612  Y3.4768  
G01 X3.2658  Y3.4865  
G01 X3.2716  Y3.4956  
G01 X3.2783  Y3.5041  
G01 X3.2859  Y3.5117  
G01 X3.2944  Y3.5184  
G01 X3.3035  Y3.5242  
G01 X3.3132  Y3.5288  
G01 X3.3234  Y3.5324  
G01 X3.3339  Y3.5348  
G01 X3.3446  Y3.5360  
G01 X3.5202  Y3.5360  
G01 X3.7740  Y3.7898  
G01 X3.7740  Y3.9110  
G01 X3.6932  Y3.9110  
G01 X3.6879  Y3.9124  
G01 X3.6831  Y3.9152  
G01 X3.6792  Y3.9191  
G01 X3.6764  Y3.9239  
G01 X3.6750  Y3.9292  
G01 X3.6750  Y4.0948  
G01 X3.6764  Y4.1001  
G01 X3.6792  Y4.1049  
G01 X3.6831  Y4.1088  
G00 Z0.1000  
G00 X4.3590  Y3.6894  
G01 Z-0.0070 F10    
G01 X4.3590  Y3.6306  F20    
G01 X4.4006  Y3.5890  
G01 X4.4594  Y3.5890  
G01 X4.5010  Y3.6306  
G01 X4.5010  Y3.6894  
G01 X4.4594  Y3.7310  
G01 X4.4006  Y3.7310  
G01 X4.3590  Y3.6894  
G00 Z0.1000  
G00 X4.3830  Y3.6795  
G01 Z-0.0070 F10    
G01 X4.4105  Y3.7070  F20    
G01 X4.4495  Y3.7070  
G01 X4.4770  Y3.6795  
G01 X4.4770  Y3.6405  
G01 X4.4495  Y3.6130  
G01 X4.4105  Y3.6130  
G01 X4.3830  Y3.6405  
G01 X4.3830  Y3.6795  
G00 Z0.1000  
G00 X4.4006  Y3.5310  
G01 Z-0.0070 F10    
G01 X4.3590  Y3.4894  F20    
G01 X4.3590  Y3.4306  
G01 X4.4006  Y3.3890  
G01 X4.4594  Y3.3890  
G01 X4.5010  Y3.4306  
G01 X4.5010  Y3.4894  
G01 X4.4594  Y3.5310  
G01 X4.4006  Y3.5310  
G00 Z0.1000  
G00 X4.4105  Y3.5070  
G01 Z-0.0070 F10    
G01 X4.4495  Y3.5070  F20    
G01 X4.4770  Y3.4795  
G01 X4.4770  Y3.4405  
G01 X4.4495  Y3.4130  
G01 X4.4105  Y3.4130  
G01 X4.3830  Y3.4405  
G01 X4.3830  Y3.4795  
G01 X4.4105  Y3.5070  
G00 Z0.1000  
G00 X5.0515  Y3.4967  
G01 Z-0.0070 F10    
G01 X5.0450  Y3.4725  F20    
G01 X5.0450  Y3.4475  
G01 X5.0515  Y3.4233  
G01 X5.0640  Y3.4017  
G01 X5.0817  Y3.3840  
G01 X5.1033  Y3.3715  
G01 X5.1275  Y3.3650  
G01 X5.5225  Y3.3650  
G01 X5.5467  Y3.3715  
G01 X5.5683  Y3.3840  
G01 X5.5860  Y3.4017  
G01 X5.5985  Y3.4233  
G01 X5.6050  Y3.4475  
G01 X5.6050  Y3.5699  
G01 X5.6049  Y3.5709  
G01 X5.6050  Y3.5728  
G01 X5.6050  Y3.5747  
G01 X5.6052  Y3.5756  
G01 X5.6052  Y3.5766  
G01 X5.6057  Y3.5784  
G01 X5.6061  Y3.5803  
G01 X5.6065  Y3.5812  
G01 X5.6067  Y3.5821  
G01 X5.6076  Y3.5838  
G01 X5.6083  Y3.5856  
G01 X5.6088  Y3.5864  
G01 X5.6093  Y3.5872  
G01 X5.6104  Y3.5887  
G01 X5.6115  Y3.5903  
G01 X5.6121  Y3.5910  
G01 X5.6127  Y3.5918  
G01 X5.6142  Y3.5930  
G01 X5.6155  Y3.5944  
G01 X5.6163  Y3.5949  
G01 X5.6170  Y3.5955  
G01 X5.6187  Y3.5965  
G01 X5.6203  Y3.5975  
G01 X5.6211  Y3.5979  
G01 X5.6220  Y3.5984  
G01 X5.6238  Y3.5990  
G01 X5.6255  Y3.5997  
G01 X5.6265  Y3.5999  
G01 X5.6274  Y3.6002  
G01 X5.6293  Y3.6005  
G01 X5.6311  Y3.6008  
G01 X5.6321  Y3.6008  
G01 X5.6330  Y3.6010  
G01 X5.6349  Y3.6008  
G01 X5.6369  Y3.6008  
G01 X5.6378  Y3.6007  
G01 X5.6387  Y3.6006  
G01 X5.6406  Y3.6001  
G01 X5.6425  Y3.5997  
G01 X5.6433  Y3.5994  
G01 X5.6443  Y3.5991  
G01 X5.6460  Y3.5983  
G01 X5.6477  Y3.5975  
G01 X5.6485  Y3.5970  
G01 X5.6494  Y3.5966  
G01 X5.6509  Y3.5954  
G01 X5.6525  Y3.5944  
G01 X5.6532  Y3.5937  
G01 X5.6539  Y3.5931  
G01 X5.6552  Y3.5917  
G01 X5.6565  Y3.5903  
G01 X5.6571  Y3.5895  
G01 X5.6577  Y3.5888  
G01 X5.6586  Y3.5872  
G01 X5.6597  Y3.5856  
G01 X5.6601  Y3.5847  
G01 X5.6710  Y3.5658  
G01 X5.6870  Y3.5497  
G01 X5.7067  Y3.5384  
G01 X5.7286  Y3.5325  
G01 X5.7514  Y3.5325  
G01 X5.7733  Y3.5384  
G01 X5.7930  Y3.5497  
G01 X5.8090  Y3.5658  
G01 X5.8204  Y3.5855  
G01 X5.8262  Y3.6074  
G01 X5.8262  Y3.7126  
G01 X5.8204  Y3.7345  
G01 X5.8090  Y3.7542  
G01 X5.7930  Y3.7703  
G01 X5.7733  Y3.7816  
G01 X5.7514  Y3.7875  
G01 X5.7286  Y3.7875  
G01 X5.7067  Y3.7816  
G01 X5.6870  Y3.7703  
G01 X5.6710  Y3.7542  
G01 X5.6601  Y3.7353  
G01 X5.6597  Y3.7344  
G01 X5.6586  Y3.7328  
G01 X5.6577  Y3.7312  
G01 X5.6571  Y3.7305  
G01 X5.6565  Y3.7297  
G01 X5.6552  Y3.7283  
G01 X5.6539  Y3.7269  
G01 X5.6532  Y3.7263  
G01 X5.6525  Y3.7256  
G01 X5.6509  Y3.7246  
G01 X5.6494  Y3.7234  
G01 X5.6485  Y3.7230  
G01 X5.6477  Y3.7225  
G01 X5.6460  Y3.7217  
G01 X5.6443  Y3.7209  
G01 X5.6433  Y3.7206  
G01 X5.6425  Y3.7203  
G01 X5.6406  Y3.7199  
G01 X5.6387  Y3.7194  
G01 X5.6378  Y3.7193  
G01 X5.6369  Y3.7192  
G01 X5.6349  Y3.7192  
G01 X5.6330  Y3.7190  
G01 X5.6321  Y3.7192  
G01 X5.6311  Y3.7192  
G01 X5.6293  Y3.7195  
G01 X5.6274  Y3.7198  
G01 X5.6265  Y3.7201  
G01 X5.6255  Y3.7203  
G01 X5.6238  Y3.7210  
G01 X5.6220  Y3.7216  
G01 X5.6211  Y3.7221  
G01 X5.6203  Y3.7225  
G01 X5.6187  Y3.7235  
G01 X5.6170  Y3.7245  
G01 X5.6163  Y3.7251  
G01 X5.6155  Y3.7256  
G01 X5.6142  Y3.7270  
G01 X5.6127  Y3.7282  
G01 X5.6121  Y3.7290  
G01 X5.6115  Y3.7297  
G01 X5.6104  Y3.7313  
G01 X5.6093  Y3.7328  
G01 X5.6088  Y3.7336  
G01 X5.6083  Y3.7344  
G01 X5.6076  Y3.7362  
G01 X5.6067  Y3.7379  
G01 X5.6065  Y3.7388  
G01 X5.6061  Y3.7397  
G01 X5.6057  Y3.7416  
G01 X5.6052  Y3.7434  
G01 X5.6052  Y3.7444  
G01 X5.6050  Y3.7453  
G01 X5.6050  Y3.7472  
G01 X5.6049  Y3.7491  
G01 X5.6050  Y3.7501  
G01 X5.6050  Y4.1699  
G01 X5.6049  Y4.1709  
G01 X5.6050  Y4.1728  
G01 X5.6050  Y4.1747  
G01 X5.6052  Y4.1756  
G01 X5.6052  Y4.1766  
G01 X5.6057  Y4.1784  
G01 X5.6061  Y4.1803  
G01 X5.6065  Y4.1812  
G01 X5.6067  Y4.1821  
G01 X5.6076  Y4.1838  
G01 X5.6083  Y4.1856  
G01 X5.6088  Y4.1864  
G01 X5.6093  Y4.1872  
G01 X5.6104  Y4.1887  
G01 X5.6115  Y4.1903  
G01 X5.6121  Y4.1910  
G01 X5.6127  Y4.1918  
G01 X5.6142  Y4.1930  
G01 X5.6155  Y4.1944  
G01 X5.6163  Y4.1949  
G01 X5.6170  Y4.1955  
G01 X5.6187  Y4.1965  
G01 X5.6203  Y4.1975  
G01 X5.6211  Y4.1979  
G01 X5.6220  Y4.1984  
G01 X5.6238  Y4.1990  
G01 X5.6255  Y4.1997  
G01 X5.6265  Y4.1999  
G01 X5.6274  Y4.2002  
G01 X5.6293  Y4.2005  
G01 X5.6311  Y4.2008  
G01 X5.6321  Y4.2008  
G01 X5.6330  Y4.2010  
G01 X5.6349  Y4.2008  
G01 X5.6369  Y4.2008  
G01 X5.6378  Y4.2007  
G01 X5.6387  Y4.2006  
G01 X5.6406  Y4.2001  
G01 X5.6425  Y4.1997  
G01 X5.6433  Y4.1994  
G01 X5.6443  Y4.1991  
G01 X5.6460  Y4.1983  
G01 X5.6477  Y4.1975  
G01 X5.6485  Y4.1970  
G01 X5.6494  Y4.1966  
G01 X5.6509  Y4.1954  
G01 X5.6525  Y4.1944  
G01 X5.6532  Y4.1937  
G01 X5.6539  Y4.1931  
G01 X5.6552  Y4.1917  
G01 X5.6565  Y4.1903  
G01 X5.6571  Y4.1895  
G01 X5.6577  Y4.1888  
G01 X5.6586  Y4.1872  
G01 X5.6597  Y4.1856  
G01 X5.6601  Y4.1847  
G01 X5.6710  Y4.1658  
G01 X5.6870  Y4.1497  
G01 X5.7067  Y4.1384  
G01 X5.7286  Y4.1325  
G01 X5.7514  Y4.1325  
G01 X5.7733  Y4.1384  
G01 X5.7930  Y4.1497  
G01 X5.8090  Y4.1658  
G01 X5.8204  Y4.1855  
G01 X5.8262  Y4.2074  
G01 X5.8262  Y4.3126  
G01 X5.8204  Y4.3345  
G01 X5.8090  Y4.3542  
G01 X5.7930  Y4.3703  
G01 X5.7733  Y4.3816  
G01 X5.7514  Y4.3875  
G01 X5.7286  Y4.3875  
G01 X5.7067  Y4.3816  
G01 X5.6870  Y4.3703  
G01 X5.6710  Y4.3542  
G01 X5.6601  Y4.3353  
G01 X5.6597  Y4.3344  
G01 X5.6586  Y4.3328  
G01 X5.6577  Y4.3312  
G01 X5.6571  Y4.3305  
G01 X5.6565  Y4.3297  
G01 X5.6552  Y4.3283  
G01 X5.6539  Y4.3269  
G01 X5.6532  Y4.3263  
G01 X5.6525  Y4.3256  
G01 X5.6509  Y4.3246  
G01 X5.6494  Y4.3234  
G01 X5.6485  Y4.3230  
G01 X5.6477  Y4.3225  
G01 X5.6460  Y4.3217  
G01 X5.6443  Y4.3209  
G01 X5.6433  Y4.3206  
G01 X5.6425  Y4.3203  
G01 X5.6406  Y4.3199  
G01 X5.6387  Y4.3194  
G01 X5.6378  Y4.3193  
G01 X5.6369  Y4.3192  
G01 X5.6349  Y4.3192  
G01 X5.6330  Y4.3190  
G01 X5.6321  Y4.3192  
G01 X5.6311  Y4.3192  
G01 X5.6293  Y4.3195  
G01 X5.6274  Y4.3198  
G01 X5.6265  Y4.3201  
G01 X5.6255  Y4.3203  
G01 X5.6238  Y4.3210  
G01 X5.6220  Y4.3216  
G01 X5.6211  Y4.3221  
G01 X5.6203  Y4.3225  
G01 X5.6187  Y4.3235  
G01 X5.6170  Y4.3245  
G01 X5.6163  Y4.3251  
G01 X5.6155  Y4.3256  
G01 X5.6142  Y4.3270  
G01 X5.6127  Y4.3282  
G01 X5.6121  Y4.3290  
G01 X5.6115  Y4.3297  
G01 X5.6104  Y4.3313  
G01 X5.6093  Y4.3328  
G01 X5.6088  Y4.3336  
G01 X5.6083  Y4.3344  
G01 X5.6076  Y4.3362  
G01 X5.6067  Y4.3379  
G01 X5.6065  Y4.3388  
G01 X5.6061  Y4.3397  
G01 X5.6057  Y4.3416  
G01 X5.6052  Y4.3434  
G01 X5.6052  Y4.3444  
G01 X5.6050  Y4.3453  
G01 X5.6050  Y4.3472  
G01 X5.6049  Y4.3491  
G01 X5.6050  Y4.3501  
G01 X5.6050  Y4.5999  
G01 X5.6049  Y4.6009  
G01 X5.6050  Y4.6028  
G01 X5.6050  Y4.6047  
G01 X5.6052  Y4.6056  
G01 X5.6052  Y4.6066  
G01 X5.6057  Y4.6084  
G01 X5.6061  Y4.6103  
G01 X5.6065  Y4.6112  
G01 X5.6067  Y4.6121  
G01 X5.6076  Y4.6138  
G01 X5.6083  Y4.6156  
G01 X5.6088  Y4.6164  
G01 X5.6093  Y4.6172  
G01 X5.6104  Y4.6187  
G01 X5.6115  Y4.6203  
G01 X5.6122  Y4.6210  
G01 X5.6127  Y4.6218  
G01 X5.6142  Y4.6230  
G01 X5.6155  Y4.6244  
G01 X5.6163  Y4.6249  
G01 X5.6170  Y4.6255  
G01 X5.6187  Y4.6265  
G01 X5.6203  Y4.6275  
G01 X5.6211  Y4.6279  
G01 X5.6220  Y4.6284  
G01 X5.6238  Y4.6290  
G01 X5.6255  Y4.6297  
G01 X5.6265  Y4.6299  
G01 X5.6274  Y4.6302  
G01 X5.6293  Y4.6305  
G01 X5.6311  Y4.6308  
G01 X5.6321  Y4.6308  
G01 X5.6330  Y4.6310  
G01 X5.6349  Y4.6308  
G01 X5.6369  Y4.6308  
G01 X5.6378  Y4.6307  
G01 X5.6387  Y4.6306  
G01 X5.6406  Y4.6301  
G01 X5.6425  Y4.6297  
G01 X5.6433  Y4.6294  
G01 X5.6443  Y4.6291  
G01 X5.6460  Y4.6283  
G01 X5.6477  Y4.6275  
G01 X5.6485  Y4.6270  
G01 X5.6494  Y4.6266  
G01 X5.6509  Y4.6254  
G01 X5.6525  Y4.6244  
G01 X5.6532  Y4.6237  
G01 X5.6539  Y4.6231  
G01 X5.6552  Y4.6217  
G01 X5.6565  Y4.6203  
G01 X5.6571  Y4.6195  
G01 X5.6577  Y4.6188  
G01 X5.6586  Y4.6172  
G01 X5.6597  Y4.6156  
G01 X5.6601  Y4.6147  
G01 X5.6710  Y4.5958  
G01 X5.6870  Y4.5797  
G01 X5.7067  Y4.5684  
G01 X5.7286  Y4.5625  
G01 X5.7514  Y4.5625  
G01 X5.7733  Y4.5684  
G01 X5.7930  Y4.5797  
G01 X5.8090  Y4.5958  
G01 X5.8204  Y4.6155  
G01 X5.8262  Y4.6374  
G01 X5.8262  Y4.7426  
G01 X5.8204  Y4.7645  
G01 X5.8090  Y4.7842  
G01 X5.7930  Y4.8003  
G01 X5.7733  Y4.8116  
G01 X5.7514  Y4.8175  
G01 X5.7286  Y4.8175  
G01 X5.7067  Y4.8116  
G01 X5.6870  Y4.8003  
G01 X5.6710  Y4.7842  
G01 X5.6601  Y4.7653  
G01 X5.6597  Y4.7644  
G01 X5.6586  Y4.7628  
G01 X5.6577  Y4.7612  
G01 X5.6571  Y4.7605  
G01 X5.6565  Y4.7597  
G01 X5.6552  Y4.7583  
G01 X5.6539  Y4.7569  
G01 X5.6532  Y4.7563  
G01 X5.6525  Y4.7556  
G01 X5.6509  Y4.7546  
G01 X5.6494  Y4.7534  
G01 X5.6485  Y4.7530  
G01 X5.6477  Y4.7525  
G01 X5.6460  Y4.7517  
G01 X5.6443  Y4.7509  
G01 X5.6433  Y4.7506  
G01 X5.6425  Y4.7503  
G01 X5.6406  Y4.7499  
G01 X5.6387  Y4.7494  
G01 X5.6378  Y4.7493  
G01 X5.6369  Y4.7492  
G01 X5.6349  Y4.7492  
G01 X5.6330  Y4.7490  
G01 X5.6321  Y4.7492  
G01 X5.6311  Y4.7492  
G01 X5.6293  Y4.7495  
G01 X5.6274  Y4.7498  
G01 X5.6265  Y4.7501  
G01 X5.6255  Y4.7503  
G01 X5.6238  Y4.7510  
G01 X5.6220  Y4.7516  
G01 X5.6211  Y4.7521  
G01 X5.6203  Y4.7525  
G01 X5.6187  Y4.7535  
G01 X5.6170  Y4.7545  
G01 X5.6163  Y4.7551  
G01 X5.6155  Y4.7556  
G01 X5.6142  Y4.7570  
G01 X5.6127  Y4.7582  
G01 X5.6122  Y4.7590  
G01 X5.6115  Y4.7597  
G01 X5.6104  Y4.7613  
G01 X5.6093  Y4.7628  
G01 X5.6088  Y4.7636  
G01 X5.6083  Y4.7644  
G01 X5.6076  Y4.7662  
G01 X5.6067  Y4.7679  
G01 X5.6065  Y4.7688  
G01 X5.6061  Y4.7697  
G01 X5.6057  Y4.7716  
G01 X5.6052  Y4.7734  
G01 X5.6052  Y4.7744  
G01 X5.6050  Y4.7753  
G01 X5.6050  Y4.7772  
G01 X5.6049  Y4.7791  
G01 X5.6050  Y4.7801  
G01 X5.6050  Y5.1999  
G01 X5.6049  Y5.2009  
G01 X5.6050  Y5.2028  
G01 X5.6050  Y5.2047  
G01 X5.6052  Y5.2056  
G01 X5.6052  Y5.2066  
G01 X5.6057  Y5.2084  
G01 X5.6061  Y5.2103  
G01 X5.6065  Y5.2112  
G01 X5.6067  Y5.2121  
G01 X5.6076  Y5.2138  
G01 X5.6083  Y5.2156  
G01 X5.6088  Y5.2164  
G01 X5.6093  Y5.2172  
G01 X5.6104  Y5.2187  
G01 X5.6115  Y5.2203  
G01 X5.6122  Y5.2210  
G01 X5.6127  Y5.2218  
G01 X5.6142  Y5.2230  
G01 X5.6155  Y5.2244  
G01 X5.6163  Y5.2249  
G01 X5.6170  Y5.2255  
G01 X5.6187  Y5.2265  
G01 X5.6203  Y5.2275  
G01 X5.6211  Y5.2279  
G01 X5.6220  Y5.2284  
G01 X5.6238  Y5.2290  
G01 X5.6255  Y5.2297  
G01 X5.6265  Y5.2299  
G01 X5.6274  Y5.2302  
G01 X5.6293  Y5.2305  
G01 X5.6311  Y5.2308  
G01 X5.6321  Y5.2308  
G01 X5.6330  Y5.2310  
G01 X5.6349  Y5.2308  
G01 X5.6369  Y5.2308  
G01 X5.6378  Y5.2307  
G01 X5.6387  Y5.2306  
G01 X5.6406  Y5.2301  
G01 X5.6425  Y5.2297  
G01 X5.6433  Y5.2294  
G01 X5.6443  Y5.2291  
G01 X5.6460  Y5.2283  
G01 X5.6477  Y5.2275  
G01 X5.6485  Y5.2270  
G01 X5.6494  Y5.2266  
G01 X5.6509  Y5.2254  
G01 X5.6525  Y5.2244  
G01 X5.6532  Y5.2237  
G01 X5.6539  Y5.2231  
G01 X5.6552  Y5.2217  
G01 X5.6565  Y5.2203  
G01 X5.6571  Y5.2195  
G01 X5.6577  Y5.2188  
G01 X5.6586  Y5.2172  
G01 X5.6597  Y5.2156  
G01 X5.6601  Y5.2147  
G01 X5.6710  Y5.1958  
G01 X5.6870  Y5.1797  
G01 X5.7067  Y5.1684  
G01 X5.7286  Y5.1625  
G01 X5.7514  Y5.1625  
G01 X5.7733  Y5.1684  
G01 X5.7930  Y5.1797  
G01 X5.8090  Y5.1958  
G01 X5.8204  Y5.2155  
G01 X5.8262  Y5.2374  
G01 X5.8262  Y5.3426  
G01 X5.8204  Y5.3645  
G01 X5.8090  Y5.3842  
G01 X5.7930  Y5.4003  
G01 X5.7733  Y5.4116  
G01 X5.7514  Y5.4175  
G01 X5.7286  Y5.4175  
G01 X5.7067  Y5.4116  
G01 X5.6870  Y5.4003  
G01 X5.6710  Y5.3842  
G01 X5.6596  Y5.3645  
G01 X5.6537  Y5.3426  
G01 X5.6537  Y5.3411  
G01 X5.6539  Y5.3402  
G01 X5.6537  Y5.3383  
G01 X5.6537  Y5.3364  
G01 X5.6536  Y5.3355  
G01 X5.6535  Y5.3345  
G01 X5.6530  Y5.3327  
G01 X5.6526  Y5.3308  
G01 X5.6523  Y5.3299  
G01 X5.6520  Y5.3290  
G01 X5.6512  Y5.3273  
G01 X5.6504  Y5.3255  
G01 X5.6499  Y5.3247  
G01 X5.6495  Y5.3239  
G01 X5.6483  Y5.3223  
G01 X5.6473  Y5.3208  
G01 X5.6466  Y5.3201  
G01 X5.6460  Y5.3193  
G01 X5.6446  Y5.3181  
G01 X5.6432  Y5.3167  
G01 X5.6424  Y5.3162  
G01 X5.6417  Y5.3156  
G01 X5.6401  Y5.3146  
G01 X5.6385  Y5.3135  
G01 X5.6376  Y5.3132  
G01 X5.6368  Y5.3127  
G01 X5.6350  Y5.3121  
G01 X5.6332  Y5.3114  
G01 X5.6323  Y5.3112  
G01 X5.6314  Y5.3109  
G01 X5.6295  Y5.3106  
G01 X5.6276  Y5.3102  
G01 X5.6267  Y5.3102  
G01 X5.6257  Y5.3101  
G01 X5.6238  Y5.3102  
G01 X5.6219  Y5.3102  
G01 X5.6210  Y5.3104  
G01 X5.6200  Y5.3105  
G01 X5.6182  Y5.3110  
G01 X5.6163  Y5.3114  
G01 X5.6154  Y5.3117  
G01 X5.6145  Y5.3120  
G01 X5.6128  Y5.3128  
G01 X5.6110  Y5.3135  
G01 X5.6102  Y5.3141  
G01 X5.6094  Y5.3145  
G01 X5.6078  Y5.3157  
G01 X5.6063  Y5.3167  
G01 X5.6056  Y5.3174  
G01 X5.6048  Y5.3180  
G01 X5.6036  Y5.3194  
G01 X5.6022  Y5.3208  
G01 X5.6017  Y5.3216  
G01 X5.6011  Y5.3223  
G01 X5.6001  Y5.3239  
G01 X5.5991  Y5.3255  
G01 X5.5987  Y5.3264  
G01 X5.5860  Y5.3483  
G01 X5.5683  Y5.3660  
G01 X5.5467  Y5.3785  
G01 X5.5225  Y5.3850  
G01 X5.1075  Y5.3850  
G01 X5.0833  Y5.3785  
G01 X5.0617  Y5.3660  
G01 X5.0440  Y5.3483  
G01 X5.0315  Y5.3267  
G01 X5.0250  Y5.3025  
G01 X5.0250  Y5.2775  
G01 X5.0315  Y5.2533  
G01 X5.0440  Y5.2317  
G01 X5.0494  Y5.2262  
G01 X5.0527  Y5.2214  
G01 X5.0548  Y5.2161  
G01 X5.0549  Y5.2158  
G01 X5.0560  Y5.2105  
G01 X5.0560  Y5.2048  
G01 X5.0548  Y5.1992  
G01 X5.0527  Y5.1939  
G01 X5.0514  Y5.1920  
G01 X5.0495  Y5.1892  
G01 X5.0454  Y5.1852  
G01 X5.0240  Y5.1637  
G01 X5.0082  Y5.1363  
G01 X5.0000  Y5.1058  
G01 X5.0000  Y4.8376  
G01 X4.9989  Y4.8320  
G01 X4.9967  Y4.8268  
G01 X4.9935  Y4.8220  
G01 X4.9895  Y4.8180  
G01 X4.9847  Y4.8148  
G01 X4.9795  Y4.8126  
G01 X4.9739  Y4.8115  
G01 X4.9480  Y4.8115  
G01 X4.9315  Y4.8046  
G01 X4.9189  Y4.7920  
G01 X4.9120  Y4.7755  
G01 X4.9120  Y4.5625  
G01 X4.9138  Y4.5583  
G01 X4.9141  Y4.5568  
G01 X4.9149  Y4.5527  
G01 X4.9149  Y4.5470  
G01 X4.9142  Y4.5435  
G01 X4.9138  Y4.5414  
G01 X4.9132  Y4.5399  
G01 X4.9116  Y4.5361  
G01 X4.9105  Y4.5335  
G01 X4.9105  Y4.1655  
G01 X4.9110  Y4.1644  
G01 X4.9112  Y4.1638  
G01 X4.9132  Y4.1591  
G01 X4.9143  Y4.1535  
G01 X4.9143  Y4.1478  
G01 X4.9133  Y4.1431  
G01 X4.9132  Y4.1422  
G01 X4.9124  Y4.1405  
G01 X4.9120  Y4.1395  
G01 X4.9120  Y3.9265  
G01 X4.9189  Y3.9100  
G01 X4.9315  Y3.8974  
G01 X4.9480  Y3.8905  
G01 X4.9939  Y3.8905  
G01 X4.9995  Y3.8894  
G01 X5.0047  Y3.8872  
G01 X5.0095  Y3.8840  
G01 X5.0135  Y3.8800  
G01 X5.0167  Y3.8752  
G01 X5.0189  Y3.8700  
G01 X5.0200  Y3.8644  
G01 X5.0200  Y3.6442  
G01 X5.0282  Y3.6137  
G01 X5.0440  Y3.5863  
G01 X5.0654  Y3.5648  
G01 X5.0695  Y3.5608  
G01 X5.0714  Y3.5579  
G01 X5.0727  Y3.5561  
G01 X5.0748  Y3.5508  
G01 X5.0759  Y3.5455  
G01 X5.0760  Y3.5452  
G01 X5.0760  Y3.5395  
G01 X5.0748  Y3.5339  
G01 X5.0727  Y3.5286  
G01 X5.0695  Y3.5239  
G01 X5.0640  Y3.5183  
G01 X5.0515  Y3.4967  
G00 Z0.1000  
G00 X5.0762  Y3.4915  
G01 Z-0.0070 F10    
G01 X5.0808  Y3.4995  F20    
G01 X5.0865  Y3.5069  
G01 X5.0931  Y3.5135  
G01 X5.1005  Y3.5192  
G01 X5.1085  Y3.5238  
G01 X5.1171  Y3.5274  
G01 X5.1261  Y3.5298  
G01 X5.1353  Y3.5310  
G01 X5.4390  Y3.5310  
G01 X5.4390  Y4.2890  
G01 X5.3265  Y4.2890  
G01 X5.3265  Y4.1717  
G01 X5.3251  Y4.1664  
G01 X5.3223  Y4.1616  
G01 X5.3184  Y4.1577  
G01 X5.3136  Y4.1549  
G01 X5.3083  Y4.1535  
G01 X4.9527  Y4.1535  
G01 X4.9474  Y4.1549  
G01 X4.9426  Y4.1577  
G01 X4.9387  Y4.1616  
G01 X4.9359  Y4.1664  
G01 X4.9345  Y4.1717  
G01 X4.9345  Y4.5273  
G01 X4.9359  Y4.5326  
G01 X4.9387  Y4.5374  
G01 X4.9426  Y4.5413  
G01 X4.9474  Y4.5441  
G01 X4.9527  Y4.5455  
G01 X5.3083  Y4.5455  
G01 X5.3136  Y4.5441  
G01 X5.3184  Y4.5413  
G01 X5.3223  Y4.5374  
G01 X5.3251  Y4.5326  
G01 X5.3265  Y4.5273  
G01 X5.3265  Y4.4310  
G01 X5.4390  Y4.4310  
G01 X5.4390  Y5.2190  
G01 X5.1153  Y5.2190  
G01 X5.1061  Y5.2202  
G01 X5.0971  Y5.2226  
G01 X5.0885  Y5.2262  
G01 X5.0805  Y5.2308  
G01 X5.0731  Y5.2365  
G01 X5.0665  Y5.2431  
G01 X5.0608  Y5.2505  
G01 X5.0562  Y5.2585  
G01 X5.0526  Y5.2671  
G01 X5.0502  Y5.2761  
G01 X5.0490  Y5.2853  
G01 X5.0490  Y5.2947  
G01 X5.0502  Y5.3039  
G01 X5.0526  Y5.3129  
G01 X5.0562  Y5.3215  
G01 X5.0608  Y5.3295  
G01 X5.0665  Y5.3369  
G01 X5.0731  Y5.3435  
G01 X5.0805  Y5.3492  
G01 X5.0885  Y5.3538  
G01 X5.0971  Y5.3574  
G01 X5.1061  Y5.3598  
G01 X5.1153  Y5.3610  
G01 X5.5147  Y5.3610  
G01 X5.5239  Y5.3598  
G01 X5.5329  Y5.3574  
G01 X5.5415  Y5.3538  
G01 X5.5495  Y5.3492  
G01 X5.5569  Y5.3435  
G01 X5.5635  Y5.3369  
G01 X5.5692  Y5.3295  
G01 X5.5738  Y5.3215  
G01 X5.5774  Y5.3129  
G01 X5.5798  Y5.3039  
G01 X5.5810  Y5.2947  
G01 X5.5810  Y3.4553  
G01 X5.5798  Y3.4461  
G01 X5.5774  Y3.4371  
G01 X5.5738  Y3.4285  
G01 X5.5692  Y3.4205  
G01 X5.5635  Y3.4131  
G01 X5.5569  Y3.4065  
G01 X5.5495  Y3.4008  
G01 X5.5415  Y3.3962  
G01 X5.5329  Y3.3926  
G01 X5.5239  Y3.3902  
G01 X5.5147  Y3.3890  
G01 X5.1353  Y3.3890  
G01 X5.1261  Y3.3902  
G01 X5.1171  Y3.3926  
G01 X5.1085  Y3.3962  
G01 X5.1005  Y3.4008  
G01 X5.0931  Y3.4065  
G01 X5.0865  Y3.4131  
G01 X5.0808  Y3.4205  
G01 X5.0762  Y3.4285  
G01 X5.0726  Y3.4371  
G01 X5.0702  Y3.4461  
G01 X5.0690  Y3.4553  
G01 X5.0690  Y3.4647  
G01 X5.0702  Y3.4739  
G01 X5.0726  Y3.4829  
G01 X5.0762  Y3.4915  
G00 Z0.1000  
G00 X5.0759  Y3.5883  
G01 Z-0.0070 F10    
G01 X5.0683  Y3.5959  F20    
G01 X5.0616  Y3.6044  
G01 X5.0558  Y3.6135  
G01 X5.0512  Y3.6232  
G01 X5.0476  Y3.6334  
G01 X5.0452  Y3.6439  
G01 X5.0440  Y3.6546  
G01 X5.0440  Y3.9145  
G01 X4.9542  Y3.9145  
G01 X4.9489  Y3.9159  
G01 X4.9441  Y3.9187  
G01 X4.9402  Y3.9226  
G01 X4.9374  Y3.9274  
G01 X4.9360  Y3.9327  
G01 X4.9360  Y4.1333  
G01 X4.9374  Y4.1386  
G01 X4.9402  Y4.1434  
G01 X4.9441  Y4.1473  
G01 X4.9489  Y4.1501  
G01 X4.9542  Y4.1515  
G01 X5.3098  Y4.1515  
G01 X5.3151  Y4.1501  
G01 X5.3199  Y4.1473  
G01 X5.3238  Y4.1434  
G01 X5.3266  Y4.1386  
G01 X5.3280  Y4.1333  
G01 X5.3280  Y3.9327  
G01 X5.3266  Y3.9274  
G01 X5.3238  Y3.9226  
G01 X5.3199  Y3.9187  
G01 X5.3151  Y3.9159  
G01 X5.3098  Y3.9145  
G01 X5.2360  Y3.9145  
G01 X5.2360  Y3.6546  
G01 X5.2348  Y3.6439  
G01 X5.2324  Y3.6334  
G01 X5.2288  Y3.6232  
G01 X5.2242  Y3.6135  
G01 X5.2184  Y3.6044  
G01 X5.2117  Y3.5959  
G01 X5.2041  Y3.5883  
G01 X5.1956  Y3.5816  
G01 X5.1865  Y3.5758  
G01 X5.1768  Y3.5712  
G01 X5.1666  Y3.5676  
G01 X5.1561  Y3.5652  
