(.../EAGLE-7.2.0/ulp/pcb-gcode.ulp)
(Copyright 2005 - 2012 by John Johnson)
(See readme.txt for licensing terms.)
(This file generated from the board:)
(.../eagle/gatedriver_trafo_sma.brd)
(Current profile is .../EAGLE-7.2.0/ulp/profiles/mach.pp  )
(This file generated 7/9/2015 11:37:03 AM)
(Settings from pcb-machine.h)
(spindle on time = 3.0000)
(spindle speed = 5000.0000)
(tool change at 0.0000  0.0000  1.0000  )
(feed rate xy = F0     )
(feed rate z  = F20    )
(Z Axis Settings)
(  High     Up        Down     Drill)
(0.5000  	0.1000  	-0.0070 	-0.0625 )
(Settings from pcb-defaults.h)
(isolate min = 0.0010)
(isolate max = 0.0560)
(isolate step = 0.0050)
(Generated top outlines, top drill, bottom outlines, bottom drill, )
(Unit of measure: inch)
( Tool|       Size       |  Min Sub |  Max Sub |   Count )
( T01 | 0.600mm 0.0236in | 0.0000in | 0.0000in |       0 )
( T02 | 0.813mm 0.0320in | 0.0000in | 0.0000in |       0 )
( T03 | 1.000mm 0.0394in | 0.0000in | 0.0000in |       0 )
( T04 | 1.118mm 0.0440in | 0.0000in | 0.0000in |       0 )
( T05 | 1.270mm 0.0500in | 0.0000in | 0.0000in |       0 )
( T06 | 1.397mm 0.0550in | 0.0000in | 0.0000in |       0 )
( T07 | 1.700mm 0.0669in | 0.0000in | 0.0000in |       0 )
( T08 | 1.778mm 0.0700in | 0.0000in | 0.0000in |       0 )
( T09 | 2.007mm 0.0790in | 0.0000in | 0.0000in |       0 )
( T10 | 3.200mm 0.1260in | 0.0000in | 0.0000in |       0 )
(Inch Mode)
G20
(Absolute Coordinates)
G90
S5000
G00 Z0.5000  
G00 X0.0000  Y0.0000  
M03
G04 P3.000000
M05
G00 Z1.0000  
M06 T01  ; 0.0236  
G01 Z0.0000  F20    
M06 
G00 Z0.1000  
M03
G04 P3.000000
G82 X2.4200  Y1.4900  Z-0.0625 F20    R0.1000  P1.000000
G82 X3.0100  Y1.0000  
M05
G00 Z1.0000  
G00 X0.0000  Y0.0000  
M06 T02  ; 0.0320  
G01 Z0.0000  F20    
M06 
G00 Z0.1000  
M03
G04 P3.000000
G82 X0.8200  Y3.6700  Z-0.0625 F20    R0.1000  P1.000000
G82 X1.2200  Y3.6700  
G82 X1.9600  Y3.2500  
G82 X2.0600  Y3.2500  
G82 X2.1600  Y3.2500  
G82 X2.1600  Y2.9500  
G82 X2.0600  Y2.9500  
G82 X1.9600  Y2.9500  
G82 X1.9600  Y2.5900  
G82 X1.9600  Y2.3900  
G82 X2.5100  Y2.7400  
G82 X2.7100  Y2.7400  
G82 X2.7000  Y3.0400  
G82 X2.7000  Y3.2400  
G82 X3.2900  Y3.1400  
G82 X3.2900  Y3.5200  
G82 X3.6800  Y3.5200  
G82 X4.1800  Y3.5200  
G82 X4.6400  Y3.5200  
G82 X4.6400  Y3.4200  
G82 X4.6400  Y3.6200  
G82 X5.1800  Y3.4400  
G82 X5.1800  Y3.0300  
G82 X5.1800  Y2.5300  
G82 X5.1800  Y2.3300  
G82 X5.1800  Y1.8300  
G82 X5.1800  Y1.5000  
G82 X5.1800  Y1.0000  
G82 X4.6400  Y1.3000  
G82 X4.6400  Y1.4000  
G82 X4.6400  Y1.5000  
G82 X4.1900  Y1.4000  
G82 X3.6900  Y1.4000  
G82 X3.2800  Y1.4000  
G82 X3.2800  Y1.7000  
G82 X3.2800  Y2.1000  
G82 X3.6800  Y2.1000  
G82 X4.1800  Y2.1000  
G82 X4.6400  Y2.1000  
G82 X4.6400  Y2.0000  
G82 X4.6400  Y2.2000  
G82 X4.6400  Y2.6400  
G82 X4.6400  Y2.7400  
G82 X4.6400  Y2.8400  
G82 X4.1900  Y2.7400  
G82 X3.6900  Y2.7400  
G82 X3.2900  Y2.7400  
G82 X2.7200  Y1.7200  
G82 X2.7200  Y1.5200  
G82 X2.7100  Y1.0000  
G82 X2.5100  Y1.0000  
G82 X2.1200  Y1.1400  
G82 X2.0200  Y1.1400  
G82 X1.9200  Y1.1400  
G82 X1.6300  Y1.1400  
G82 X1.4300  Y1.1400  
G82 X1.1700  Y1.4300  
G82 X1.1700  Y1.5300  
G82 X1.1700  Y1.6300  
G82 X1.1700  Y1.7300  
G82 X0.8700  Y1.7300  
G82 X0.8700  Y1.6300  
G82 X0.8700  Y1.5300  
G82 X0.8700  Y1.4300  
G82 X1.9200  Y1.4400  
G82 X2.0200  Y1.4400  
G82 X2.1200  Y1.4400  
G82 X3.2800  Y1.0000  
G82 X3.2900  Y3.9200  
G82 X5.1800  Y3.9400  
M05
G00 Z1.0000  
G00 X0.0000  Y0.0000  
M06 T03  ; 0.0394  
G01 Z0.0000  F20    
M06 
G00 Z0.1000  
M03
G04 P3.000000
G82 X0.8700  Y2.5900  Z-0.0625 F20    R0.1000  P1.000000
G82 X0.8700  Y2.7900  
G82 X0.8700  Y2.9900  
G82 X0.8700  Y3.2900  
G82 X1.1700  Y3.2900  
G82 X1.1700  Y2.9900  
G82 X1.1700  Y2.7900  
G82 X1.1700  Y2.5900  
M05
G00 Z1.0000  
G00 X0.0000  Y0.0000  
M06 T04  ; 0.0440  
G01 Z0.0000  F20    
M06 
G00 Z0.1000  
M03
G04 P3.000000
G82 X4.2300  Y4.2500  Z-0.0625 F20    R0.1000  P1.000000
G82 X4.6300  Y4.2500  
G82 X4.6400  Y0.6600  
G82 X4.2400  Y0.6600  
M05
G00 Z1.0000  
G00 X0.0000  Y0.0000  
M06 T05  ; 0.0500  
G01 Z0.0000  F20    
M06 
G00 Z0.1000  
M03
G04 P3.000000
G82 X0.3300  Y1.6300  Z-0.0625 F20    R0.1000  P1.000000
M05
G00 Z1.0000  
G00 X0.0000  Y0.0000  
M06 T06  ; 0.0550  
G01 Z0.0000  F20    
M06 
G00 Z0.1000  
M03
G04 P3.000000
G82 X5.5100  Y1.6200  Z-0.0625 F20    R0.1000  P1.000000
G82 X5.8200  Y1.6000  
G82 X5.8200  Y1.0000  
G82 X5.5100  Y2.2200  
G82 X5.8400  Y2.7400  
G82 X5.8400  Y3.3400  
G82 X5.5200  Y3.3400  
G82 X5.5200  Y3.9400  
M05
G00 Z1.0000  
G00 X0.0000  Y0.0000  
M06 T07  ; 0.0669  
G01 Z0.0000  F20    
M06 
G00 Z0.1000  
M03
G04 P3.000000
G82 X0.2120  Y3.6700  Z-0.0625 F20    R0.1000  P1.000000
G82 X0.3680  Y3.6700  
G82 X1.8020  Y3.6700  
G82 X1.9580  Y3.6700  
M05
G00 Z1.0000  
G00 X0.0000  Y0.0000  
M06 T08  ; 0.0700  
G01 Z0.0000  F20    
M06 
G00 Z0.1000  
M03
G04 P3.000000
G82 X0.2296  Y1.5296  Z-0.0625 F20    R0.1000  P1.000000
G82 X0.4304  Y1.5296  
G82 X0.4304  Y1.7304  
G82 X0.2296  Y1.7304  
M05
G00 Z1.0000  
G00 X0.0000  Y0.0000  
M06 T09  ; 0.0790  
G01 Z0.0000  F20    
M06 
G00 Z0.1000  
M03
G04 P3.000000
G82 X3.9300  Y0.6600  Z-0.0625 F20    R0.1000  P1.000000
G82 X5.1270  Y0.3380  
G82 X5.7700  Y2.2430  
G82 X3.9300  Y4.2500  
M05
G00 Z1.0000  
G00 X0.0000  Y0.0000  
M06 T10  ; 0.1260  
G01 Z0.0000  F20    
M06 
G00 Z0.1000  
M03
G04 P3.000000
G82 X0.2500  Y0.2500  Z-0.0625 F20    R0.1000  P1.000000
G82 X0.2500  Y4.3200  
G82 X5.7500  Y4.3200  
G82 X5.7500  Y0.2500  
T01 
G00 Z0.5000  
M05
M02
