(.../EAGLE-7.2.0/ulp/pcb-gcode.ulp)
(Copyright 2005 - 2012 by John Johnson)
(See readme.txt for licensing terms.)
(This file generated from the board:)
(.../eagle/gatedriver_trafo_sma.brd)
(Current profile is .../EAGLE-7.2.0/ulp/profiles/mach.pp  )
(This file generated 7/9/2015 11:36:32 AM)
(Settings from pcb-machine.h)
(spindle on time = 3.0000)
(  Tool Size)
(0.0400  )
(spindle speed = 5000.0000)
(tool change at 0.0000  0.0000  1.0000  )
(feed rate xy = F20    )
(feed rate z  = F10    )
(Z Axis Settings)
(  High     Up        Down     Drill)
(0.5000  	0.1000  	-0.0070 	-0.0625 )
(Settings from pcb-defaults.h)
(isolate min = 0.0010)
(isolate max = 0.0560)
(isolate step = 0.0050)
(Generated top outlines, top drill, bottom outlines, bottom drill, )
(Unit of measure: inch)
(Inch Mode)
G20
(Absolute Coordinates)
G90
S5000
G00 Z0.5000  
G00 X0.0000  Y0.0000  
M03
G04 P3.000000
G00 Z0.1000  
G00 X-0.0515 Y0.0555  
G01 Z-0.0070 F10    
G01 X-0.0555 Y0.0515  F20    
G01 X-0.0603 Y0.0483  
G01 X-0.0655 Y0.0461  
G01 X-0.0711 Y0.0450  
G01 X-5.9289 Y0.0450  
G01 X-5.9345 Y0.0461  
G01 X-5.9397 Y0.0483  
G01 X-5.9445 Y0.0515  
G01 X-5.9485 Y0.0555  
G01 X-5.9517 Y0.0603  
G01 X-5.9539 Y0.0655  
G01 X-5.9550 Y0.0711  
G01 X-5.9550 Y0.9099  
G01 X-5.9551 Y0.9109  
G01 X-5.9550 Y0.9128  
G01 X-5.9550 Y0.9147  
G01 X-5.9548 Y0.9156  
G01 X-5.9548 Y0.9166  
G01 X-5.9543 Y0.9184  
G01 X-5.9539 Y0.9203  
G01 X-5.9535 Y0.9212  
G01 X-5.9533 Y0.9221  
G01 X-5.9524 Y0.9238  
G01 X-5.9517 Y0.9256  
G01 X-5.9512 Y0.9264  
G01 X-5.9507 Y0.9272  
G01 X-5.9496 Y0.9287  
G01 X-5.9485 Y0.9303  
G01 X-5.9479 Y0.9310  
G01 X-5.9473 Y0.9318  
G01 X-5.9458 Y0.9330  
G01 X-5.9445 Y0.9344  
G01 X-5.9437 Y0.9349  
G01 X-5.9430 Y0.9355  
G01 X-5.9413 Y0.9365  
G01 X-5.9397 Y0.9375  
G01 X-5.9389 Y0.9379  
G01 X-5.9380 Y0.9384  
G01 X-5.9362 Y0.9390  
G01 X-5.9345 Y0.9397  
G01 X-5.9335 Y0.9399  
G01 X-5.9326 Y0.9402  
G01 X-5.9307 Y0.9405  
G01 X-5.9289 Y0.9408  
G01 X-5.9279 Y0.9408  
G01 X-5.9270 Y0.9410  
G01 X-5.9251 Y0.9408  
G01 X-5.9231 Y0.9408  
G01 X-5.9222 Y0.9407  
G01 X-5.9213 Y0.9406  
G01 X-5.9194 Y0.9401  
G01 X-5.9175 Y0.9397  
G01 X-5.9167 Y0.9394  
G01 X-5.9157 Y0.9391  
G01 X-5.9140 Y0.9383  
G01 X-5.9123 Y0.9375  
G01 X-5.9115 Y0.9370  
G01 X-5.9106 Y0.9366  
G01 X-5.9091 Y0.9354  
G01 X-5.9075 Y0.9344  
G01 X-5.9068 Y0.9337  
G01 X-5.9061 Y0.9331  
G01 X-5.9048 Y0.9317  
G01 X-5.9035 Y0.9303  
G01 X-5.9029 Y0.9295  
G01 X-5.9023 Y0.9288  
G01 X-5.9014 Y0.9272  
G01 X-5.9003 Y0.9256  
G01 X-5.8999 Y0.9247  
G01 X-5.8890 Y0.9058  
G01 X-5.8730 Y0.8897  
G01 X-5.8533 Y0.8784  
G01 X-5.8314 Y0.8725  
G01 X-5.8086 Y0.8725  
G01 X-5.7867 Y0.8784  
G01 X-5.7670 Y0.8897  
G01 X-5.7510 Y0.9058  
G01 X-5.7506 Y0.9067  
G01 X-5.7495 Y0.9083  
G01 X-5.7486 Y0.9100  
G01 X-5.7479 Y0.9107  
G01 X-5.7474 Y0.9115  
G01 X-5.7461 Y0.9128  
G01 X-5.7448 Y0.9143  
G01 X-5.7440 Y0.9148  
G01 X-5.7434 Y0.9155  
G01 X-5.7418 Y0.9166  
G01 X-5.7403 Y0.9177  
G01 X-5.7394 Y0.9182  
G01 X-5.7386 Y0.9187  
G01 X-5.7369 Y0.9194  
G01 X-5.7351 Y0.9203  
G01 X-5.7342 Y0.9205  
G01 X-5.7333 Y0.9209  
G01 X-5.7315 Y0.9213  
G01 X-5.7296 Y0.9218  
G01 X-5.7287 Y0.9218  
G01 X-5.7277 Y0.9220  
G01 X-5.7258 Y0.9220  
G01 X-5.7239 Y0.9221  
G01 X-5.7230 Y0.9220  
G01 X-4.7441 Y0.9220  
G01 X-4.7385 Y0.9209  
G01 X-4.7333 Y0.9187  
G01 X-4.7285 Y0.9155  
G01 X-4.7245 Y0.9115  
G01 X-4.7213 Y0.9067  
G01 X-4.7191 Y0.9015  
G01 X-4.7180 Y0.8959  
G01 X-4.7180 Y0.6497  
G01 X-4.7127 Y0.6299  
G01 X-4.7024 Y0.6121  
G01 X-4.6879 Y0.5976  
G01 X-4.6701 Y0.5873  
G01 X-4.6503 Y0.5820  
G01 X-4.6297 Y0.5820  
G01 X-4.6099 Y0.5873  
G01 X-4.5921 Y0.5976  
G01 X-4.5776 Y0.6121  
G01 X-4.5673 Y0.6299  
G01 X-4.5620 Y0.6497  
G01 X-4.5620 Y0.8959  
G01 X-4.5609 Y0.9015  
G01 X-4.5587 Y0.9067  
G01 X-4.5555 Y0.9115  
G01 X-4.5515 Y0.9155  
G01 X-4.5467 Y0.9187  
G01 X-4.5415 Y0.9209  
G01 X-4.5359 Y0.9220  
G01 X-3.3376 Y0.9220  
G01 X-3.3335 Y0.9212  
G01 X-3.3320 Y0.9209  
G01 X-3.3267 Y0.9187  
G01 X-3.3243 Y0.9171  
G01 X-3.3219 Y0.9155  
G01 X-3.3202 Y0.9138  
G01 X-3.2941 Y0.9030  
G01 X-3.2659 Y0.9030  
G01 X-3.2398 Y0.9138  
G01 X-3.2381 Y0.9155  
G01 X-3.2357 Y0.9171  
G01 X-3.2333 Y0.9187  
G01 X-3.2280 Y0.9209  
G01 X-3.2267 Y0.9212  
G01 X-3.2224 Y0.9220  
G01 X-2.9997 Y0.9220  
G01 X-2.9799 Y0.9273  
G01 X-2.9621 Y0.9376  
G01 X-2.9476 Y0.9521  
G01 X-2.9373 Y0.9699  
G01 X-2.9320 Y0.9897  
G01 X-2.9320 Y1.0103  
G01 X-2.9373 Y1.0301  
G01 X-2.9476 Y1.0479  
G01 X-2.9621 Y1.0624  
G01 X-2.9799 Y1.0727  
G01 X-2.9997 Y1.0780  
G01 X-3.2224 Y1.0780  
G01 X-3.2265 Y1.0788  
G01 X-3.2280 Y1.0791  
G01 X-3.2333 Y1.0813  
G01 X-3.2357 Y1.0829  
G01 X-3.2381 Y1.0845  
G01 X-3.2398 Y1.0862  
G01 X-3.2659 Y1.0970  
G01 X-3.2941 Y1.0970  
G01 X-3.3202 Y1.0862  
G01 X-3.3219 Y1.0845  
G01 X-3.3243 Y1.0829  
G01 X-3.3267 Y1.0813  
G01 X-3.3320 Y1.0791  
G01 X-3.3333 Y1.0788  
G01 X-3.3376 Y1.0780  
G01 X-4.5359 Y1.0780  
G01 X-4.5415 Y1.0791  
G01 X-4.5467 Y1.0813  
G01 X-4.5515 Y1.0845  
G01 X-4.5555 Y1.0885  
G01 X-4.5587 Y1.0933  
G01 X-4.5609 Y1.0985  
G01 X-4.5620 Y1.1041  
G01 X-4.5620 Y1.2357  
G01 X-4.5621 Y1.2376  
G01 X-4.5620 Y1.2386  
G01 X-4.5620 Y1.2395  
G01 X-4.5616 Y1.2414  
G01 X-4.5614 Y1.2433  
G01 X-4.5611 Y1.2442  
G01 X-4.5609 Y1.2451  
G01 X-4.5602 Y1.2469  
G01 X-4.5595 Y1.2487  
G01 X-4.5591 Y1.2495  
G01 X-4.5587 Y1.2504  
G01 X-4.5576 Y1.2520  
G01 X-4.5473 Y1.2699  
G01 X-4.5438 Y1.2829  
G01 X-4.5435 Y1.2848  
G01 X-4.5431 Y1.2857  
G01 X-4.5428 Y1.2866  
G01 X-4.5428 Y1.2867  
G01 X-4.5428 Y1.2869  
G01 X-4.5423 Y1.2888  
G01 X-4.5420 Y1.2901  
G01 X-4.5420 Y1.2959  
G01 X-4.5409 Y1.3015  
G01 X-4.5387 Y1.3067  
G01 X-4.5355 Y1.3115  
G01 X-4.5315 Y1.3155  
G01 X-4.5267 Y1.3187  
G01 X-4.5215 Y1.3209  
G01 X-4.5159 Y1.3220  
G01 X-4.1797 Y1.3220  
G01 X-4.1599 Y1.3273  
G01 X-4.1421 Y1.3376  
G01 X-4.1276 Y1.3521  
G01 X-4.1173 Y1.3699  
G01 X-4.1120 Y1.3897  
G01 X-4.1120 Y1.4103  
G01 X-4.1173 Y1.4301  
G01 X-4.1276 Y1.4479  
G01 X-4.1421 Y1.4624  
G01 X-4.1599 Y1.4727  
G01 X-4.1797 Y1.4780  
G01 X-4.5169 Y1.4780  
G01 X-4.5225 Y1.4791  
G01 X-4.5277 Y1.4813  
G01 X-4.5325 Y1.4845  
G01 X-4.5365 Y1.4885  
G01 X-4.5397 Y1.4933  
G01 X-4.5419 Y1.4985  
G01 X-4.5430 Y1.5041  
G01 X-4.5430 Y1.5141  
G01 X-4.5538 Y1.5402  
G01 X-4.5555 Y1.5419  
G01 X-4.5571 Y1.5443  
G01 X-4.5587 Y1.5467  
G01 X-4.5609 Y1.5520  
G01 X-4.5612 Y1.5533  
G01 X-4.5620 Y1.5576  
G01 X-4.5620 Y1.5959  
G01 X-4.5609 Y1.6015  
G01 X-4.5587 Y1.6067  
G01 X-4.5555 Y1.6115  
G01 X-4.5515 Y1.6155  
G01 X-4.5467 Y1.6187  
G01 X-4.5415 Y1.6209  
G01 X-4.5359 Y1.6220  
G01 X-3.3376 Y1.6220  
G01 X-3.3335 Y1.6212  
G01 X-3.3320 Y1.6209  
G01 X-3.3267 Y1.6187  
G01 X-3.3243 Y1.6171  
G01 X-3.3219 Y1.6155  
G01 X-3.3202 Y1.6138  
G01 X-3.2941 Y1.6030  
G01 X-3.2659 Y1.6030  
G01 X-3.2468 Y1.6109  
G01 X-3.2412 Y1.6120  
G01 X-3.0915 Y1.6120  
G01 X-3.0859 Y1.6109  
G01 X-3.0806 Y1.6087  
G01 X-3.0758 Y1.6055  
G01 X-3.0718 Y1.6015  
G01 X-3.0379 Y1.5676  
G01 X-3.0201 Y1.5573  
G01 X-3.0003 Y1.5520  
G01 X-2.8241 Y1.5520  
G01 X-2.8185 Y1.5509  
G01 X-2.8133 Y1.5487  
G01 X-2.8085 Y1.5455  
G01 X-2.8045 Y1.5415  
G01 X-2.8013 Y1.5367  
G01 X-2.7991 Y1.5315  
G01 X-2.7980 Y1.5259  
G01 X-2.7980 Y1.5097  
G01 X-2.7927 Y1.4899  
G01 X-2.7824 Y1.4721  
G01 X-2.5658 Y1.2555  
G01 X-2.5645 Y1.2543  
G01 X-2.5638 Y1.2535  
G01 X-2.5631 Y1.2528  
G01 X-2.5479 Y1.2376  
G01 X-2.5301 Y1.2273  
G01 X-2.5103 Y1.2220  
G01 X-2.4655 Y1.2220  
G01 X-2.4599 Y1.2209  
G01 X-2.4546 Y1.2187  
G01 X-2.4498 Y1.2155  
G01 X-2.4458 Y1.2115  
G01 X-2.4426 Y1.2067  
G01 X-2.4404 Y1.2015  
G01 X-2.4393 Y1.1959  
G01 X-2.4393 Y1.1901  
G01 X-2.4404 Y1.1845  
G01 X-2.4426 Y1.1793  
G01 X-2.4458 Y1.1745  
G01 X-2.4498 Y1.1705  
G01 X-2.5724 Y1.0479  
G01 X-2.5769 Y1.0401  
G01 X-2.5773 Y1.0392  
G01 X-2.5784 Y1.0376  
G01 X-2.5793 Y1.0359  
G01 X-2.5799 Y1.0352  
G01 X-2.5805 Y1.0344  
G01 X-2.5818 Y1.0331  
G01 X-2.5831 Y1.0317  
G01 X-2.5838 Y1.0311  
G01 X-2.5845 Y1.0304  
G01 X-2.5861 Y1.0293  
G01 X-2.5876 Y1.0282  
G01 X-2.5885 Y1.0278  
G01 X-2.5893 Y1.0272  
G01 X-2.5910 Y1.0265  
G01 X-2.5927 Y1.0256  
G01 X-2.5937 Y1.0254  
G01 X-2.5945 Y1.0250  
G01 X-2.5964 Y1.0247  
G01 X-2.5983 Y1.0242  
G01 X-2.5992 Y1.0241  
G01 X-2.6001 Y1.0239  
G01 X-2.6020 Y1.0239  
G01 X-2.6040 Y1.0238  
G01 X-2.6049 Y1.0239  
G01 X-2.6059 Y1.0239  
G01 X-2.6077 Y1.0243  
G01 X-2.6096 Y1.0245  
G01 X-2.6105 Y1.0248  
G01 X-2.6115 Y1.0250  
G01 X-2.6132 Y1.0258  
G01 X-2.6150 Y1.0264  
G01 X-2.6159 Y1.0269  
G01 X-2.6167 Y1.0272  
G01 X-2.6183 Y1.0283  
G01 X-2.6200 Y1.0292  
G01 X-2.6207 Y1.0299  
G01 X-2.6215 Y1.0304  
G01 X-2.6228 Y1.0317  
G01 X-2.6243 Y1.0330  
G01 X-2.6249 Y1.0338  
G01 X-2.6255 Y1.0344  
G01 X-2.6266 Y1.0360  
G01 X-2.6277 Y1.0375  
G01 X-2.6282 Y1.0384  
G01 X-2.6287 Y1.0392  
G01 X-2.6294 Y1.0409  
G01 X-2.6303 Y1.0427  
G01 X-2.6305 Y1.0436  
G01 X-2.6309 Y1.0445  
G01 X-2.6313 Y1.0463  
G01 X-2.6318 Y1.0482  
G01 X-2.6318 Y1.0491  
G01 X-2.6320 Y1.0501  
G01 X-2.6320 Y1.0520  
G01 X-2.6321 Y1.0539  
G01 X-2.6320 Y1.0548  
G01 X-2.6320 Y1.1403  
G01 X-2.6373 Y1.1601  
G01 X-2.6476 Y1.1779  
G01 X-2.9169 Y1.4472  
G01 X-2.9321 Y1.4624  
G01 X-2.9499 Y1.4727  
G01 X-2.9697 Y1.4780  
G01 X-3.2224 Y1.4780  
G01 X-3.2265 Y1.4788  
G01 X-3.2280 Y1.4791  
G01 X-3.2333 Y1.4813  
G01 X-3.2357 Y1.4829  
G01 X-3.2381 Y1.4845  
G01 X-3.2398 Y1.4862  
G01 X-3.2659 Y1.4970  
G01 X-3.2941 Y1.4970  
G01 X-3.3202 Y1.4862  
G01 X-3.3219 Y1.4845  
G01 X-3.3243 Y1.4829  
G01 X-3.3267 Y1.4813  
G01 X-3.3320 Y1.4791  
G01 X-3.3333 Y1.4788  
G01 X-3.3376 Y1.4780  
G01 X-3.7003 Y1.4780  
G01 X-3.7201 Y1.4727  
G01 X-3.7379 Y1.4624  
G01 X-3.7524 Y1.4479  
G01 X-3.7627 Y1.4301  
G01 X-3.7680 Y1.4103  
G01 X-3.7680 Y1.3897  
G01 X-3.7627 Y1.3699  
G01 X-3.7524 Y1.3521  
G01 X-3.7379 Y1.3376  
G01 X-3.7201 Y1.3273  
G01 X-3.7003 Y1.3220  
G01 X-3.3376 Y1.3220  
G01 X-3.3335 Y1.3212  
G01 X-3.3320 Y1.3209  
G01 X-3.3267 Y1.3187  
G01 X-3.3243 Y1.3171  
G01 X-3.3219 Y1.3155  
G01 X-3.3202 Y1.3138  
G01 X-3.2941 Y1.3030  
G01 X-3.2659 Y1.3030  
G01 X-3.2398 Y1.3138  
G01 X-3.2381 Y1.3155  
G01 X-3.2357 Y1.3171  
G01 X-3.2333 Y1.3187  
G01 X-3.2280 Y1.3209  
G01 X-3.2267 Y1.3212  
G01 X-3.2224 Y1.3220  
G01 X-3.0215 Y1.3220  
G01 X-3.0159 Y1.3209  
G01 X-3.0106 Y1.3187  
G01 X-3.0058 Y1.3155  
G01 X-3.0018 Y1.3115  
G01 X-2.7945 Y1.1042  
G01 X-2.7913 Y1.0994  
G01 X-2.7891 Y1.0941  
G01 X-2.7880 Y1.0885  
G01 X-2.7880 Y0.9897  
G01 X-2.7827 Y0.9699  
G01 X-2.7724 Y0.9521  
G01 X-2.7579 Y0.9376  
G01 X-2.7401 Y0.9273  
G01 X-2.7203 Y0.9220  
G01 X-2.6997 Y0.9220  
G01 X-2.6799 Y0.9273  
G01 X-2.6621 Y0.9376  
G01 X-2.6476 Y0.9521  
G01 X-2.6373 Y0.9699  
G01 X-2.6372 Y0.9702  
G01 X-2.6364 Y0.9718  
G01 X-2.6357 Y0.9735  
G01 X-2.6351 Y0.9744  
G01 X-2.6347 Y0.9753  
G01 X-2.6335 Y0.9768  
G01 X-2.6325 Y0.9783  
G01 X-2.6318 Y0.9790  
G01 X-2.6312 Y0.9798  
G01 X-2.6298 Y0.9810  
G01 X-2.6285 Y0.9823  
G01 X-2.6276 Y0.9829  
G01 X-2.6268 Y0.9836  
G01 X-2.6253 Y0.9845  
G01 X-2.6237 Y0.9855  
G01 X-2.6228 Y0.9859  
G01 X-2.6219 Y0.9864  
G01 X-2.6201 Y0.9870  
G01 X-2.6185 Y0.9877  
G01 X-2.6174 Y0.9879  
G01 X-2.6165 Y0.9882  
G01 X-2.6146 Y0.9884  
G01 X-2.6129 Y0.9888  
G01 X-2.6118 Y0.9888  
G01 X-2.6108 Y0.9889  
G01 X-2.6090 Y0.9888  
G01 X-2.6071 Y0.9888  
G01 X-2.6061 Y0.9886  
G01 X-2.6051 Y0.9885  
G01 X-2.6033 Y0.9880  
G01 X-2.6015 Y0.9877  
G01 X-2.6006 Y0.9873  
G01 X-2.5996 Y0.9870  
G01 X-2.5980 Y0.9862  
G01 X-2.5963 Y0.9855  
G01 X-2.5954 Y0.9849  
G01 X-2.5945 Y0.9844  
G01 X-2.5930 Y0.9833  
G01 X-2.5915 Y0.9823  
G01 X-2.5908 Y0.9816  
G01 X-2.5900 Y0.9809  
G01 X-2.5888 Y0.9796  
G01 X-2.5875 Y0.9783  
G01 X-2.5869 Y0.9774  
G01 X-2.5862 Y0.9766  
G01 X-2.5853 Y0.9750  
G01 X-2.5843 Y0.9735  
G01 X-2.5839 Y0.9726  
G01 X-2.5834 Y0.9717  
G01 X-2.5830 Y0.9704  
G01 X-2.5724 Y0.9521  
G01 X-2.5579 Y0.9376  
G01 X-2.5401 Y0.9273  
G01 X-2.5203 Y0.9220  
G01 X-2.4997 Y0.9220  
G01 X-2.4799 Y0.9273  
G01 X-2.4621 Y0.9376  
G01 X-2.3442 Y1.0555  
G01 X-2.3394 Y1.0587  
G01 X-2.3341 Y1.0609  
G01 X-2.3285 Y1.0620  
G01 X-2.1776 Y1.0620  
G01 X-2.1720 Y1.0609  
G01 X-2.1667 Y1.0587  
G01 X-2.1619 Y1.0555  
G01 X-2.1602 Y1.0538  
G01 X-2.1341 Y1.0430  
G01 X-2.1059 Y1.0430  
G01 X-2.0837 Y1.0522  
G01 X-2.0786 Y1.0543  
G01 X-2.0785 Y1.0544  
G01 X-2.0729 Y1.0555  
G01 X-2.0671 Y1.0555  
G01 X-2.0668 Y1.0554  
G01 X-2.0615 Y1.0544  
G01 X-2.0341 Y1.0430  
G01 X-2.0059 Y1.0430  
G01 X-1.9837 Y1.0522  
G01 X-1.9786 Y1.0543  
G01 X-1.9785 Y1.0544  
G01 X-1.9729 Y1.0555  
G01 X-1.9671 Y1.0555  
G01 X-1.9668 Y1.0554  
G01 X-1.9615 Y1.0544  
G01 X-1.9341 Y1.0430  
G01 X-1.9059 Y1.0430  
G01 X-1.8798 Y1.0538  
G01 X-1.8781 Y1.0555  
G01 X-1.8757 Y1.0571  
G01 X-1.8733 Y1.0587  
G01 X-1.8680 Y1.0609  
G01 X-1.8667 Y1.0612  
G01 X-1.8624 Y1.0620  
G01 X-1.6197 Y1.0620  
G01 X-1.5999 Y1.0673  
G01 X-1.5840 Y1.0765  
G01 X-1.5840 Y1.1114  
G01 X-1.5888 Y1.1048  
G01 X-1.5948 Y1.0988  
G01 X-1.6017 Y1.0938  
G01 X-1.6093 Y1.0900  
G01 X-1.6174 Y1.0873  
G01 X-1.6258 Y1.0860  
G01 X-1.8822 Y1.0860  
G01 X-1.8842 Y1.0834  
G01 X-1.8894 Y1.0782  
G01 X-1.8954 Y1.0738  
G01 X-1.9020 Y1.0704  
G01 X-1.9090 Y1.0682  
G01 X-1.9163 Y1.0670  
G01 X-1.9237 Y1.0670  
G01 X-1.9310 Y1.0682  
G01 X-1.9380 Y1.0704  
G01 X-1.9446 Y1.0738  
G01 X-1.9506 Y1.0782  
G01 X-1.9558 Y1.0834  
G01 X-1.9602 Y1.0894  
G01 X-1.9636 Y1.0960  
G01 X-1.9658 Y1.1030  
G01 X-1.9670 Y1.1103  
G01 X-1.9670 Y1.1133  
G01 X-1.9700 Y1.1192  
G01 X-1.9730 Y1.1133  
G01 X-1.9730 Y1.1103  
G01 X-1.9742 Y1.1030  
G01 X-1.9764 Y1.0960  
G01 X-1.9798 Y1.0894  
G01 X-1.9842 Y1.0834  
G01 X-1.9894 Y1.0782  
G01 X-1.9954 Y1.0738  
G01 X-2.0020 Y1.0704  
G01 X-2.0090 Y1.0682  
G01 X-2.0163 Y1.0670  
G01 X-2.0237 Y1.0670  
G01 X-2.0310 Y1.0682  
G01 X-2.0380 Y1.0704  
G01 X-2.0446 Y1.0738  
G01 X-2.0506 Y1.0782  
G01 X-2.0558 Y1.0834  
G01 X-2.0602 Y1.0894  
G01 X-2.0636 Y1.0960  
G01 X-2.0658 Y1.1030  
G01 X-2.0670 Y1.1103  
G01 X-2.0670 Y1.1133  
G01 X-2.0700 Y1.1192  
G01 X-2.0730 Y1.1133  
G01 X-2.0730 Y1.1103  
G01 X-2.0742 Y1.1030  
G01 X-2.0764 Y1.0960  
G01 X-2.0798 Y1.0894  
G01 X-2.0842 Y1.0834  
G01 X-2.0894 Y1.0782  
G01 X-2.0954 Y1.0738  
G01 X-2.1020 Y1.0704  
G01 X-2.1090 Y1.0682  
G01 X-2.1163 Y1.0670  
G01 X-2.1237 Y1.0670  
G01 X-2.1310 Y1.0682  
G01 X-2.1380 Y1.0704  
G01 X-2.1446 Y1.0738  
G01 X-2.1506 Y1.0782  
G01 X-2.1558 Y1.0834  
G01 X-2.1578 Y1.0860  
G01 X-2.3476 Y1.0860  
G01 X-2.4748 Y0.9588  
G01 X-2.4817 Y0.9538  
G01 X-2.4893 Y0.9500  
G01 X-2.4974 Y0.9473  
G01 X-2.5057 Y0.9460  
G01 X-2.5142 Y0.9460  
G01 X-2.5226 Y0.9473  
G01 X-2.5307 Y0.9500  
G01 X-2.5383 Y0.9538  
G01 X-2.5452 Y0.9588  
G01 X-2.5512 Y0.9648  
G01 X-2.5562 Y0.9717  
G01 X-2.5600 Y0.9793  
G01 X-2.5627 Y0.9874  
G01 X-2.5640 Y0.9958  
G01 X-2.5640 Y1.0042  
G01 X-2.5627 Y1.0126  
G01 X-2.5600 Y1.0207  
G01 X-2.5562 Y1.0283  
G01 X-2.5512 Y1.0352  
G01 X-2.4052 Y1.1812  
G01 X-2.3983 Y1.1862  
G01 X-2.3907 Y1.1900  
G01 X-2.3826 Y1.1927  
G01 X-2.3742 Y1.1940  
G01 X-2.1578 Y1.1940  
G01 X-2.1558 Y1.1966  
G01 X-2.1506 Y1.2018  
G01 X-2.1446 Y1.2062  
G01 X-2.1380 Y1.2096  
G01 X-2.1310 Y1.2118  
G01 X-2.1237 Y1.2130  
G01 X-2.1163 Y1.2130  
G01 X-2.1090 Y1.2118  
G01 X-2.1020 Y1.2096  
G01 X-2.0954 Y1.2062  
G01 X-2.0894 Y1.2018  
G01 X-2.0842 Y1.1966  
G01 X-2.0798 Y1.1906  
G01 X-2.0764 Y1.1840  
G01 X-2.0742 Y1.1770  
G01 X-2.0740 Y1.1760  
G01 X-2.0740 Y1.1976  
G01 X-2.1224 Y1.2460  
G01 X-2.5042 Y1.2460  
G01 X-2.5126 Y1.2473  
G01 X-2.5207 Y1.2500  
G01 X-2.5283 Y1.2538  
G01 X-2.5352 Y1.2588  
G01 X-2.7612 Y1.4848  
G01 X-2.7662 Y1.4917  
G01 X-2.7700 Y1.4993  
G01 X-2.7727 Y1.5074  
G01 X-2.7740 Y1.5157  
G01 X-2.7740 Y1.5242  
G01 X-2.7727 Y1.5326  
G01 X-2.7700 Y1.5407  
G01 X-2.7662 Y1.5483  
G01 X-2.7612 Y1.5552  
G01 X-2.7552 Y1.5612  
G01 X-2.7483 Y1.5662  
G01 X-2.7407 Y1.5700  
G01 X-2.7326 Y1.5727  
G01 X-2.7242 Y1.5740  
G01 X-2.7157 Y1.5740  
G01 X-2.7074 Y1.5727  
G01 X-2.6993 Y1.5700  
G01 X-2.6917 Y1.5662  
G01 X-2.6848 Y1.5612  
G01 X-2.4776 Y1.3540  
G01 X-2.0957 Y1.3540  
G01 X-2.0874 Y1.3527  
G01 X-2.0793 Y1.3500  
G01 X-2.0717 Y1.3462  
G01 X-2.0648 Y1.3412  
G01 X-2.0588 Y1.3352  
G01 X-1.9788 Y1.2552  
G01 X-1.9738 Y1.2483  
G01 X-1.9700 Y1.2407  
G01 X-1.9673 Y1.2326  
G01 X-1.9660 Y1.2242  
G01 X-1.9660 Y1.1760  
G01 X-1.9658 Y1.1770  
G01 X-1.9636 Y1.1840  
G01 X-1.9602 Y1.1906  
G01 X-1.9558 Y1.1966  
G01 X-1.9506 Y1.2018  
G01 X-1.9446 Y1.2062  
G01 X-1.9380 Y1.2096  
G01 X-1.9310 Y1.2118  
G01 X-1.9237 Y1.2130  
G01 X-1.9163 Y1.2130  
G01 X-1.9090 Y1.2118  
G01 X-1.9020 Y1.2096  
G01 X-1.8954 Y1.2062  
G01 X-1.8894 Y1.2018  
G01 X-1.8842 Y1.1966  
G01 X-1.8822 Y1.1940  
G01 X-1.6258 Y1.1940  
G01 X-1.6174 Y1.1927  
G01 X-1.6093 Y1.1900  
G01 X-1.6017 Y1.1862  
G01 X-1.5948 Y1.1812  
G01 X-1.5888 Y1.1752  
G01 X-1.5840 Y1.1686  
G01 X-1.5840 Y1.1776  
G01 X-1.6244 Y1.2180  
G01 X-1.8624 Y1.2180  
G01 X-1.8665 Y1.2188  
G01 X-1.8680 Y1.2191  
G01 X-1.8733 Y1.2213  
G01 X-1.8757 Y1.2229  
G01 X-1.8781 Y1.2245  
G01 X-1.8798 Y1.2262  
G01 X-1.9059 Y1.2370  
G01 X-1.9211 Y1.2370  
G01 X-1.9221 Y1.2369  
G01 X-1.9240 Y1.2370  
G01 X-1.9259 Y1.2370  
G01 X-1.9268 Y1.2372  
G01 X-1.9278 Y1.2372  
G01 X-1.9296 Y1.2377  
G01 X-1.9315 Y1.2381  
G01 X-1.9323 Y1.2385  
G01 X-1.9333 Y1.2387  
G01 X-1.9350 Y1.2396  
G01 X-1.9367 Y1.2403  
G01 X-1.9375 Y1.2408  
G01 X-1.9384 Y1.2413  
G01 X-1.9399 Y1.2424  
G01 X-1.9415 Y1.2435  
G01 X-1.9422 Y1.2441  
G01 X-1.9429 Y1.2447  
G01 X-1.9442 Y1.2462  
G01 X-1.9455 Y1.2475  
G01 X-1.9461 Y1.2483  
G01 X-1.9467 Y1.2490  
G01 X-1.9476 Y1.2507  
G01 X-1.9487 Y1.2523  
G01 X-1.9491 Y1.2531  
G01 X-1.9576 Y1.2679  
G01 X-1.9962 Y1.3065  
G01 X-1.9993 Y1.3112  
G01 X-2.0006 Y1.3143  
G01 X-2.0015 Y1.3165  
G01 X-2.0026 Y1.3221  
G01 X-2.0026 Y1.3278  
G01 X-2.0024 Y1.3291  
G01 X-2.0015 Y1.3334  
G01 X-2.0011 Y1.3344  
G01 X-1.9993 Y1.3387  
G01 X-1.9968 Y1.3425  
G01 X-1.9962 Y1.3434  
G01 X-1.9921 Y1.3475  
G01 X-1.9874 Y1.3507  
G01 X-1.9840 Y1.3521  
G01 X-1.9821 Y1.3528  
G01 X-1.9798 Y1.3538  
G01 X-1.9598 Y1.3738  
G01 X-1.9558 Y1.3834  
G01 X-1.9602 Y1.3894  
G01 X-1.9636 Y1.3960  
G01 X-1.9658 Y1.4030  
G01 X-1.9670 Y1.4103  
G01 X-1.9670 Y1.4133  
G01 X-1.9700 Y1.4192  
G01 X-1.9730 Y1.4133  
G01 X-1.9730 Y1.4103  
G01 X-1.9742 Y1.4030  
G01 X-1.9764 Y1.3960  
G01 X-1.9798 Y1.3894  
G01 X-1.9842 Y1.3834  
G01 X-1.9894 Y1.3782  
G01 X-1.9954 Y1.3738  
G01 X-2.0020 Y1.3704  
G01 X-2.0090 Y1.3682  
G01 X-2.0163 Y1.3670  
G01 X-2.0237 Y1.3670  
G01 X-2.0310 Y1.3682  
G01 X-2.0380 Y1.3704  
G01 X-2.0446 Y1.3738  
G01 X-2.0506 Y1.3782  
G01 X-2.0558 Y1.3834  
G01 X-2.0602 Y1.3894  
G01 X-2.0636 Y1.3960  
G01 X-2.0658 Y1.4030  
G01 X-2.0670 Y1.4103  
G01 X-2.0670 Y1.4133  
G01 X-2.0700 Y1.4192  
G01 X-2.0730 Y1.4133  
G01 X-2.0730 Y1.4103  
G01 X-2.0742 Y1.4030  
G01 X-2.0764 Y1.3960  
G01 X-2.0798 Y1.3894  
G01 X-2.0842 Y1.3834  
G01 X-2.0894 Y1.3782  
G01 X-2.0954 Y1.3738  
G01 X-2.1020 Y1.3704  
G01 X-2.1090 Y1.3682  
G01 X-2.1163 Y1.3670  
G01 X-2.1237 Y1.3670  
G01 X-2.1310 Y1.3682  
G01 X-2.1380 Y1.3704  
G01 X-2.1446 Y1.3738  
G01 X-2.1506 Y1.3782  
G01 X-2.1558 Y1.3834  
G01 X-2.1578 Y1.3860  
G01 X-2.3742 Y1.3860  
G01 X-2.3826 Y1.3873  
G01 X-2.3907 Y1.3900  
G01 X-2.3983 Y1.3938  
G01 X-2.4052 Y1.3988  
G01 X-2.4612 Y1.4548  
G01 X-2.4662 Y1.4617  
G01 X-2.4700 Y1.4693  
G01 X-2.4727 Y1.4774  
G01 X-2.4740 Y1.4857  
G01 X-2.4740 Y1.4942  
G01 X-2.4727 Y1.5026  
G01 X-2.4700 Y1.5107  
G01 X-2.4662 Y1.5183  
G01 X-2.4612 Y1.5252  
G01 X-2.4552 Y1.5312  
G01 X-2.4483 Y1.5362  
G01 X-2.4407 Y1.5400  
G01 X-2.4326 Y1.5427  
G01 X-2.4242 Y1.5440  
G01 X-2.4158 Y1.5440  
G01 X-2.4074 Y1.5427  
G01 X-2.3993 Y1.5400  
G01 X-2.3917 Y1.5362  
G01 X-2.3848 Y1.5312  
G01 X-2.3476 Y1.4940  
G01 X-2.1578 Y1.4940  
G01 X-2.1558 Y1.4966  
G01 X-2.1506 Y1.5018  
G01 X-2.1446 Y1.5062  
G01 X-2.1380 Y1.5096  
G01 X-2.1310 Y1.5118  
G01 X-2.1237 Y1.5130  
G01 X-2.1163 Y1.5130  
G01 X-2.1090 Y1.5118  
G01 X-2.1078 Y1.5115  
G01 X-2.1724 Y1.5760  
G01 X-2.9942 Y1.5760  
G01 X-3.0026 Y1.5773  
G01 X-3.0107 Y1.5800  
G01 X-3.0183 Y1.5838  
G01 X-3.0252 Y1.5888  
G01 X-3.0724 Y1.6360  
G01 X-3.2523 Y1.6360  
G01 X-3.2554 Y1.6338  
G01 X-3.2620 Y1.6304  
G01 X-3.2690 Y1.6282  
G01 X-3.2763 Y1.6270  
G01 X-3.2837 Y1.6270  
G01 X-3.2910 Y1.6282  
G01 X-3.2980 Y1.6304  
G01 X-3.3046 Y1.6338  
G01 X-3.3106 Y1.6382  
G01 X-3.3158 Y1.6434  
G01 X-3.3178 Y1.6460  
G01 X-4.5860 Y1.6460  
G01 X-4.5860 Y1.5378  
G01 X-4.5834 Y1.5358  
G01 X-4.5782 Y1.5306  
G01 X-4.5738 Y1.5246  
G01 X-4.5704 Y1.5180  
G01 X-4.5682 Y1.5110  
G01 X-4.5670 Y1.5037  
G01 X-4.5670 Y1.4963  
G01 X-4.5682 Y1.4890  
G01 X-4.5704 Y1.4820  
G01 X-4.5738 Y1.4754  
G01 X-4.5782 Y1.4694  
G01 X-4.5834 Y1.4642  
G01 X-4.5894 Y1.4598  
G01 X-4.5960 Y1.4564  
G01 X-4.6030 Y1.4542  
G01 X-4.6040 Y1.4540  
G01 X-4.1857 Y1.4540  
G01 X-4.1774 Y1.4527  
G01 X-4.1693 Y1.4500  
G01 X-4.1617 Y1.4462  
G01 X-4.1548 Y1.4412  
G01 X-4.1488 Y1.4352  
G01 X-4.1438 Y1.4283  
G01 X-4.1400 Y1.4207  
G01 X-4.1373 Y1.4126  
G01 X-4.1360 Y1.4042  
G01 X-4.1360 Y1.3958  
G01 X-4.1373 Y1.3874  
G01 X-4.1400 Y1.3793  
G01 X-4.1438 Y1.3717  
G01 X-4.1488 Y1.3648  
G01 X-4.1548 Y1.3588  
G01 X-4.1617 Y1.3538  
G01 X-4.1693 Y1.3500  
G01 X-4.1774 Y1.3473  
G01 X-4.1857 Y1.3460  
G01 X-4.5914 Y1.3460  
G01 X-4.5848 Y1.3412  
G01 X-4.5788 Y1.3352  
G01 X-4.5738 Y1.3283  
G01 X-4.5700 Y1.3207  
G01 X-4.5673 Y1.3126  
G01 X-4.5660 Y1.3042  
G01 X-4.5660 Y1.2957  
G01 X-4.5673 Y1.2874  
G01 X-4.5700 Y1.2793  
G01 X-4.5738 Y1.2717  
G01 X-4.5788 Y1.2648  
G01 X-4.5848 Y1.2588  
G01 X-4.5860 Y1.2580  
G01 X-4.5860 Y1.0540  
G01 X-3.3178 Y1.0540  
G01 X-3.3158 Y1.0566  
G01 X-3.3106 Y1.0618  
G01 X-3.3046 Y1.0662  
G01 X-3.2980 Y1.0696  
G01 X-3.2910 Y1.0718  
G01 X-3.2837 Y1.0730  
G01 X-3.2763 Y1.0730  
G01 X-3.2690 Y1.0718  
G01 X-3.2620 Y1.0696  
G01 X-3.2554 Y1.0662  
G01 X-3.2494 Y1.0618  
G01 X-3.2442 Y1.0566  
G01 X-3.2422 Y1.0540  
G01 X-3.0057 Y1.0540  
G01 X-2.9974 Y1.0527  
G01 X-2.9893 Y1.0500  
G01 X-2.9817 Y1.0462  
G01 X-2.9748 Y1.0412  
G01 X-2.9688 Y1.0352  
G01 X-2.9638 Y1.0283  
G01 X-2.9600 Y1.0207  
G01 X-2.9573 Y1.0126  
G01 X-2.9560 Y1.0042  
G01 X-2.9560 Y0.9958  
G01 X-2.9573 Y0.9874  
G01 X-2.9600 Y0.9793  
G01 X-2.9638 Y0.9717  
G01 X-2.9688 Y0.9648  
G01 X-2.9748 Y0.9588  
G01 X-2.9817 Y0.9538  
G01 X-2.9893 Y0.9500  
G01 X-2.9974 Y0.9473  
G01 X-3.0057 Y0.9460  
G01 X-3.2422 Y0.9460  
G01 X-3.2442 Y0.9434  
G01 X-3.2494 Y0.9382  
G01 X-3.2554 Y0.9338  
G01 X-3.2620 Y0.9304  
G01 X-3.2690 Y0.9282  
G01 X-3.2763 Y0.9270  
G01 X-3.2837 Y0.9270  
G01 X-3.2910 Y0.9282  
G01 X-3.2980 Y0.9304  
G01 X-3.3046 Y0.9338  
G01 X-3.3106 Y0.9382  
G01 X-3.3158 Y0.9434  
G01 X-3.3178 Y0.9460  
G01 X-4.5860 Y0.9460  
G01 X-4.5860 Y0.6558  
G01 X-4.5873 Y0.6474  
G01 X-4.5900 Y0.6393  
G01 X-4.5938 Y0.6317  
G01 X-4.5988 Y0.6248  
G01 X-4.6048 Y0.6188  
G01 X-4.6117 Y0.6138  
G01 X-4.6193 Y0.6100  
G01 X-4.6274 Y0.6073  
G01 X-4.6357 Y0.6060  
G01 X-4.6442 Y0.6060  
G01 X-4.6526 Y0.6073  
G01 X-4.6607 Y0.6100  
G01 X-4.6683 Y0.6138  
G01 X-4.6752 Y0.6188  
G01 X-4.6812 Y0.6248  
G01 X-4.6862 Y0.6317  
G01 X-4.6900 Y0.6393  
G01 X-4.6927 Y0.6474  
G01 X-4.6940 Y0.6558  
G01 X-4.6940 Y0.9460  
G01 X-5.7590 Y0.9460  
G01 X-5.7593 Y0.9442  
G01 X-5.7623 Y0.9349  
G01 X-5.7668 Y0.9261  
G01 X-5.7725 Y0.9182  
G01 X-5.7794 Y0.9113  
G01 X-5.7874 Y0.9055  
G01 X-5.7961 Y0.9011  
G01 X-5.8054 Y0.8980  
G01 X-5.8151 Y0.8965  
G01 X-5.8249 Y0.8965  
G01 X-5.8346 Y0.8980  
G01 X-5.8439 Y0.9011  
G01 X-5.8526 Y0.9055  
G01 X-5.8606 Y0.9113  
G01 X-5.8675 Y0.9182  
G01 X-5.8732 Y0.9261  
G01 X-5.8777 Y0.9349  
G01 X-5.8807 Y0.9442  
G01 X-5.8822 Y0.9539  
G01 X-5.8822 Y1.0461  
G01 X-5.8807 Y1.0558  
G01 X-5.8777 Y1.0651  
G01 X-5.8732 Y1.0739  
G01 X-5.8675 Y1.0818  
G01 X-5.8606 Y1.0887  
G01 X-5.8526 Y1.0945  
G01 X-5.8439 Y1.0989  
G01 X-5.8346 Y1.1020  
G01 X-5.8249 Y1.1035  
G01 X-5.8151 Y1.1035  
G01 X-5.8054 Y1.1020  
G01 X-5.7961 Y1.0989  
G01 X-5.7874 Y1.0945  
G01 X-5.7794 Y1.0887  
G01 X-5.7725 Y1.0818  
G01 X-5.7668 Y1.0739  
G01 X-5.7623 Y1.0651  
G01 X-5.7593 Y1.0558  
G01 X-5.7590 Y1.0540  
G01 X-4.6940 Y1.0540  
G01 X-4.6940 Y1.2622  
G01 X-4.6966 Y1.2642  
G01 X-4.7018 Y1.2694  
G01 X-4.7062 Y1.2754  
G01 X-4.7096 Y1.2820  
G01 X-4.7118 Y1.2890  
G01 X-4.7130 Y1.2963  
G01 X-4.7130 Y1.3037  
G01 X-4.7118 Y1.3110  
G01 X-4.7096 Y1.3180  
G01 X-4.7062 Y1.3246  
G01 X-4.7018 Y1.3306  
G01 X-4.6966 Y1.3358  
G01 X-4.6906 Y1.3402  
G01 X-4.6840 Y1.3436  
G01 X-4.6770 Y1.3458  
G01 X-4.6697 Y1.3470  
G01 X-4.6667 Y1.3470  
G01 X-4.6608 Y1.3500  
G01 X-4.6667 Y1.3530  
G01 X-4.6697 Y1.3530  
G01 X-4.6770 Y1.3542  
G01 X-4.6840 Y1.3564  
G01 X-4.6906 Y1.3598  
G01 X-4.6966 Y1.3642  
G01 X-4.7018 Y1.3694  
G01 X-4.7062 Y1.3754  
G01 X-4.7096 Y1.3820  
G01 X-4.7118 Y1.3890  
G01 X-4.7130 Y1.3963  
G01 X-4.7130 Y1.4037  
G01 X-4.7118 Y1.4110  
G01 X-4.7096 Y1.4180  
G01 X-4.7062 Y1.4246  
G01 X-4.7018 Y1.4306  
G01 X-4.6966 Y1.4358  
G01 X-4.6906 Y1.4402  
G01 X-4.6840 Y1.4436  
G01 X-4.6770 Y1.4458  
G01 X-4.6697 Y1.4470  
G01 X-4.6667 Y1.4470  
G01 X-4.6608 Y1.4500  
G01 X-4.6667 Y1.4530  
G01 X-4.6697 Y1.4530  
G01 X-4.6770 Y1.4542  
G01 X-4.6840 Y1.4564  
G01 X-4.6906 Y1.4598  
G01 X-4.6966 Y1.4642  
G01 X-4.7018 Y1.4694  
G01 X-4.7062 Y1.4754  
G01 X-4.7096 Y1.4820  
G01 X-4.7118 Y1.4890  
G01 X-4.7130 Y1.4963  
G01 X-4.7130 Y1.5037  
G01 X-4.7118 Y1.5110  
G01 X-4.7096 Y1.5180  
G01 X-4.7062 Y1.5246  
G01 X-4.7018 Y1.5306  
G01 X-4.6966 Y1.5358  
G01 X-4.6940 Y1.5378  
G01 X-4.6940 Y1.5660  
G01 X-5.1260 Y1.5660  
G01 X-5.1260 Y1.4957  
G01 X-5.1273 Y1.4874  
G01 X-5.1300 Y1.4793  
G01 X-5.1338 Y1.4717  
G01 X-5.1388 Y1.4648  
G01 X-5.1448 Y1.4588  
G01 X-5.1517 Y1.4538  
G01 X-5.1593 Y1.4500  
G01 X-5.1674 Y1.4473  
G01 X-5.1757 Y1.4460  
G01 X-5.1842 Y1.4460  
G01 X-5.1926 Y1.4473  
G01 X-5.2007 Y1.4500  
G01 X-5.2083 Y1.4538  
G01 X-5.2152 Y1.4588  
G01 X-5.2212 Y1.4648  
G01 X-5.2262 Y1.4717  
G01 X-5.2300 Y1.4793  
G01 X-5.2327 Y1.4874  
G01 X-5.2340 Y1.4957  
G01 X-5.2340 Y1.5660  
G01 X-5.4490 Y1.5660  
G01 X-5.4493 Y1.5642  
G01 X-5.4523 Y1.5549  
G01 X-5.4568 Y1.5461  
G01 X-5.4625 Y1.5382  
G01 X-5.4694 Y1.5313  
G01 X-5.4774 Y1.5255  
G01 X-5.4861 Y1.5211  
G01 X-5.4954 Y1.5180  
G01 X-5.5051 Y1.5165  
G01 X-5.5149 Y1.5165  
G01 X-5.5246 Y1.5180  
G01 X-5.5339 Y1.5211  
G01 X-5.5426 Y1.5255  
G01 X-5.5506 Y1.5313  
G01 X-5.5575 Y1.5382  
G01 X-5.5632 Y1.5461  
G01 X-5.5677 Y1.5549  
G01 X-5.5707 Y1.5642  
G01 X-5.5710 Y1.5660  
G01 X-5.7577 Y1.5660  
G01 X-5.7577 Y1.5539  
G01 X-5.7593 Y1.5442  
G01 X-5.7623 Y1.5349  
G01 X-5.7668 Y1.5261  
G01 X-5.7725 Y1.5182  
G01 X-5.7794 Y1.5113  
G01 X-5.7874 Y1.5055  
G01 X-5.7961 Y1.5011  
G01 X-5.8054 Y1.4980  
G01 X-5.8151 Y1.4965  
G01 X-5.8249 Y1.4965  
G01 X-5.8346 Y1.4980  
G01 X-5.8439 Y1.5011  
G01 X-5.8526 Y1.5055  
G01 X-5.8606 Y1.5113  
G01 X-5.8675 Y1.5182  
G01 X-5.8732 Y1.5261  
G01 X-5.8777 Y1.5349  
G01 X-5.8807 Y1.5442  
G01 X-5.8822 Y1.5539  
G01 X-5.8822 Y1.6461  
G01 X-5.8807 Y1.6558  
G01 X-5.8777 Y1.6651  
G01 X-5.8732 Y1.6739  
G01 X-5.8675 Y1.6818  
G01 X-5.8606 Y1.6887  
G01 X-5.8526 Y1.6945  
G01 X-5.8439 Y1.6989  
G01 X-5.8346 Y1.7020  
G01 X-5.8249 Y1.7035  
G01 X-5.8151 Y1.7035  
G01 X-5.8054 Y1.7020  
G01 X-5.7961 Y1.6989  
G01 X-5.7874 Y1.6945  
G01 X-5.7794 Y1.6887  
G01 X-5.7725 Y1.6818  
G01 X-5.7668 Y1.6740  
G01 X-5.5710 Y1.6740  
G01 X-5.5707 Y1.6758  
G01 X-5.5677 Y1.6851  
G01 X-5.5632 Y1.6939  
G01 X-5.5575 Y1.7018  
G01 X-5.5506 Y1.7087  
G01 X-5.5426 Y1.7145  
G01 X-5.5339 Y1.7189  
G01 X-5.5246 Y1.7220  
G01 X-5.5149 Y1.7235  
G01 X-5.5051 Y1.7235  
G01 X-5.4954 Y1.7220  
G01 X-5.4861 Y1.7189  
G01 X-5.4774 Y1.7145  
G01 X-5.4694 Y1.7087  
G01 X-5.4625 Y1.7018  
G01 X-5.4568 Y1.6939  
G01 X-5.4523 Y1.6851  
G01 X-5.4493 Y1.6758  
G01 X-5.4490 Y1.6740  
G01 X-5.2340 Y1.6740  
G01 X-5.2340 Y1.8342  
G01 X-5.2327 Y1.8426  
G01 X-5.2300 Y1.8507  
G01 X-5.2262 Y1.8583  
G01 X-5.2212 Y1.8652  
G01 X-5.2152 Y1.8712  
G01 X-5.2083 Y1.8762  
G01 X-5.2007 Y1.8800  
G01 X-5.1926 Y1.8827  
G01 X-5.1842 Y1.8840  
G01 X-5.1757 Y1.8840  
G01 X-5.1674 Y1.8827  
G01 X-5.1593 Y1.8800  
G01 X-5.1517 Y1.8762  
G01 X-5.1448 Y1.8712  
G01 X-5.1388 Y1.8652  
G01 X-5.1338 Y1.8583  
G01 X-5.1300 Y1.8507  
G01 X-5.1273 Y1.8426  
G01 X-5.1260 Y1.8342  
G01 X-5.1260 Y1.6740  
G01 X-4.6940 Y1.6740  
G01 X-4.6940 Y1.9622  
G01 X-4.6966 Y1.9642  
G01 X-4.7018 Y1.9694  
G01 X-4.7062 Y1.9754  
G01 X-4.7096 Y1.9820  
G01 X-4.7118 Y1.9890  
G01 X-4.7130 Y1.9963  
G01 X-4.7130 Y2.0037  
G01 X-4.7118 Y2.0110  
G01 X-4.7096 Y2.0180  
G01 X-4.7062 Y2.0246  
G01 X-4.7018 Y2.0306  
G01 X-4.6966 Y2.0358  
G01 X-4.6906 Y2.0402  
G01 X-4.6840 Y2.0436  
G01 X-4.6770 Y2.0458  
G01 X-4.6697 Y2.0470  
G01 X-4.6667 Y2.0470  
G01 X-4.6608 Y2.0500  
G01 X-4.6667 Y2.0530  
G01 X-4.6697 Y2.0530  
G01 X-4.6770 Y2.0542  
G01 X-4.6840 Y2.0564  
G01 X-4.6906 Y2.0598  
G01 X-4.6966 Y2.0642  
G01 X-4.7018 Y2.0694  
G01 X-4.7062 Y2.0754  
G01 X-4.7096 Y2.0820  
G01 X-4.7118 Y2.0890  
G01 X-4.7130 Y2.0963  
G01 X-4.7130 Y2.1037  
G01 X-4.7118 Y2.1110  
G01 X-4.7096 Y2.1180  
G01 X-4.7062 Y2.1246  
G01 X-4.7018 Y2.1306  
G01 X-4.6966 Y2.1358  
G01 X-4.6906 Y2.1402  
G01 X-4.6840 Y2.1436  
G01 X-4.6770 Y2.1458  
G01 X-4.6697 Y2.1470  
G01 X-4.6667 Y2.1470  
G01 X-4.6608 Y2.1500  
G01 X-4.6667 Y2.1530  
G01 X-4.6697 Y2.1530  
G01 X-4.6770 Y2.1542  
G01 X-4.6840 Y2.1564  
G01 X-4.6906 Y2.1598  
G01 X-4.6966 Y2.1642  
G01 X-4.7018 Y2.1694  
G01 X-4.7062 Y2.1754  
G01 X-4.7096 Y2.1820  
G01 X-4.7118 Y2.1890  
G01 X-4.7130 Y2.1963  
G01 X-4.7130 Y2.2037  
G01 X-4.7118 Y2.2110  
G01 X-4.7096 Y2.2180  
G01 X-4.7062 Y2.2246  
G01 X-4.7018 Y2.2306  
G01 X-4.6966 Y2.2358  
G01 X-4.6940 Y2.2378  
G01 X-4.6940 Y2.2710  
G01 X-4.7810 Y2.2710  
G01 X-4.7810 Y2.0971  
G01 X-4.7821 Y2.0915  
G01 X-4.7843 Y2.0863  
G01 X-4.7875 Y2.0815  
G01 X-4.7915 Y2.0775  
G01 X-4.7963 Y2.0743  
G01 X-4.8015 Y2.0721  
G01 X-4.8071 Y2.0710  
G01 X-5.8729 Y2.0710  
G01 X-5.8785 Y2.0721  
G01 X-5.8837 Y2.0743  
G01 X-5.8885 Y2.0775  
G01 X-5.8925 Y2.0815  
G01 X-5.8957 Y2.0863  
G01 X-5.8979 Y2.0915  
G01 X-5.8990 Y2.0971  
G01 X-5.8990 Y2.5329  
G01 X-5.8979 Y2.5385  
G01 X-5.8957 Y2.5437  
G01 X-5.8940 Y2.5463  
G01 X-5.8940 Y2.6676  
G01 X-5.8977 Y2.6749  
G01 X-5.9007 Y2.6842  
G01 X-5.9022 Y2.6939  
G01 X-5.9022 Y2.7861  
G01 X-5.9007 Y2.7958  
G01 X-5.8977 Y2.8051  
G01 X-5.8932 Y2.8139  
G01 X-5.8875 Y2.8218  
G01 X-5.8806 Y2.8287  
G01 X-5.8726 Y2.8345  
G01 X-5.8639 Y2.8389  
G01 X-5.8546 Y2.8420  
G01 X-5.8449 Y2.8435  
G01 X-5.8351 Y2.8435  
G01 X-5.8254 Y2.8420  
G01 X-5.8161 Y2.8389  
G01 X-5.8074 Y2.8345  
G01 X-5.7994 Y2.8287  
G01 X-5.7925 Y2.8218  
G01 X-5.7868 Y2.8139  
G01 X-5.7823 Y2.8051  
G01 X-5.7793 Y2.7958  
G01 X-5.7778 Y2.7861  
G01 X-5.7778 Y2.6939  
G01 X-5.7793 Y2.6842  
G01 X-5.7823 Y2.6749  
G01 X-5.7860 Y2.6676  
G01 X-5.7860 Y2.5590  
G01 X-5.2257 Y2.5590  
G01 X-5.2212 Y2.5652  
G01 X-5.2152 Y2.5712  
G01 X-5.2083 Y2.5762  
G01 X-5.2007 Y2.5800  
G01 X-5.1926 Y2.5827  
G01 X-5.1842 Y2.5840  
G01 X-5.1757 Y2.5840  
G01 X-5.1674 Y2.5827  
G01 X-5.1593 Y2.5800  
G01 X-5.1517 Y2.5762  
G01 X-5.1448 Y2.5712  
G01 X-5.1388 Y2.5652  
G01 X-5.1343 Y2.5590  
G01 X-4.6940 Y2.5590  
G01 X-4.6940 Y2.6022  
G01 X-4.6966 Y2.6042  
G01 X-4.7018 Y2.6094  
G01 X-4.7062 Y2.6154  
G01 X-4.7096 Y2.6220  
G01 X-4.7118 Y2.6290  
G01 X-4.7130 Y2.6363  
G01 X-4.7130 Y2.6437  
G01 X-4.7118 Y2.6510  
G01 X-4.7096 Y2.6580  
G01 X-4.7062 Y2.6646  
G01 X-4.7018 Y2.6706  
G01 X-4.6966 Y2.6758  
G01 X-4.6906 Y2.6802  
G01 X-4.6840 Y2.6836  
G01 X-4.6770 Y2.6858  
G01 X-4.6697 Y2.6870  
G01 X-4.6667 Y2.6870  
G01 X-4.6608 Y2.6900  
G01 X-4.6667 Y2.6930  
G01 X-4.6697 Y2.6930  
G01 X-4.6770 Y2.6942  
G01 X-4.6840 Y2.6964  
G01 X-4.6906 Y2.6998  
G01 X-4.6966 Y2.7042  
G01 X-4.7018 Y2.7094  
G01 X-4.7062 Y2.7154  
G01 X-4.7096 Y2.7220  
G01 X-4.7118 Y2.7290  
G01 X-4.7130 Y2.7363  
G01 X-4.7130 Y2.7437  
G01 X-4.7118 Y2.7510  
G01 X-4.7096 Y2.7580  
G01 X-4.7062 Y2.7646  
G01 X-4.7018 Y2.7706  
G01 X-4.6966 Y2.7758  
G01 X-4.6906 Y2.7802  
G01 X-4.6840 Y2.7836  
G01 X-4.6770 Y2.7858  
G01 X-4.6697 Y2.7870  
G01 X-4.6667 Y2.7870  
G01 X-4.6608 Y2.7900  
G01 X-4.6667 Y2.7930  
G01 X-4.6697 Y2.7930  
G01 X-4.6770 Y2.7942  
G01 X-4.6840 Y2.7964  
G01 X-4.6906 Y2.7998  
G01 X-4.6966 Y2.8042  
G01 X-4.7018 Y2.8094  
G01 X-4.7062 Y2.8154  
G01 X-4.7096 Y2.8220  
G01 X-4.7118 Y2.8290  
G01 X-4.7130 Y2.8363  
G01 X-4.7130 Y2.8437  
G01 X-4.7118 Y2.8510  
G01 X-4.7096 Y2.8580  
G01 X-4.7062 Y2.8646  
G01 X-4.7018 Y2.8706  
G01 X-4.6966 Y2.8758  
G01 X-4.6940 Y2.8778  
G01 X-4.6940 Y3.0860  
G01 X-5.1260 Y3.0860  
G01 X-5.1260 Y3.0257  
G01 X-5.1273 Y3.0174  
G01 X-5.1300 Y3.0093  
G01 X-5.1338 Y3.0017  
G01 X-5.1388 Y2.9948  
G01 X-5.1448 Y2.9888  
G01 X-5.1517 Y2.9838  
G01 X-5.1593 Y2.9800  
G01 X-5.1674 Y2.9773  
G01 X-5.1757 Y2.9760  
G01 X-5.1842 Y2.9760  
G01 X-5.1926 Y2.9773  
G01 X-5.2007 Y2.9800  
G01 X-5.2083 Y2.9838  
G01 X-5.2152 Y2.9888  
G01 X-5.2212 Y2.9948  
G01 X-5.2262 Y3.0017  
G01 X-5.2300 Y3.0093  
G01 X-5.2327 Y3.0174  
G01 X-5.2340 Y3.0257  
G01 X-5.2340 Y3.2860  
G01 X-5.4590 Y3.2860  
G01 X-5.4593 Y3.2842  
G01 X-5.4623 Y3.2749  
G01 X-5.4668 Y3.2661  
G01 X-5.4725 Y3.2582  
G01 X-5.4794 Y3.2513  
G01 X-5.4874 Y3.2455  
G01 X-5.4961 Y3.2411  
G01 X-5.5054 Y3.2380  
G01 X-5.5151 Y3.2365  
G01 X-5.5249 Y3.2365  
G01 X-5.5346 Y3.2380  
G01 X-5.5439 Y3.2411  
G01 X-5.5526 Y3.2455  
G01 X-5.5606 Y3.2513  
G01 X-5.5675 Y3.2582  
G01 X-5.5732 Y3.2661  
G01 X-5.5777 Y3.2749  
G01 X-5.5807 Y3.2842  
G01 X-5.5810 Y3.2860  
G01 X-5.7790 Y3.2860  
G01 X-5.7793 Y3.2842  
G01 X-5.7823 Y3.2749  
G01 X-5.7868 Y3.2661  
G01 X-5.7925 Y3.2582  
G01 X-5.7994 Y3.2513  
G01 X-5.8074 Y3.2455  
G01 X-5.8161 Y3.2411  
G01 X-5.8254 Y3.2380  
G01 X-5.8351 Y3.2365  
G01 X-5.8449 Y3.2365  
G01 X-5.8546 Y3.2380  
G01 X-5.8639 Y3.2411  
G01 X-5.8726 Y3.2455  
G01 X-5.8806 Y3.2513  
G01 X-5.8875 Y3.2582  
G01 X-5.8932 Y3.2661  
G01 X-5.8977 Y3.2749  
G01 X-5.9007 Y3.2842  
G01 X-5.9022 Y3.2939  
G01 X-5.9022 Y3.3861  
G01 X-5.9007 Y3.3958  
G01 X-5.8977 Y3.4051  
G01 X-5.8932 Y3.4139  
G01 X-5.8875 Y3.4218  
G01 X-5.8806 Y3.4287  
G01 X-5.8726 Y3.4345  
G01 X-5.8639 Y3.4389  
G01 X-5.8546 Y3.4420  
G01 X-5.8449 Y3.4435  
G01 X-5.8351 Y3.4435  
G01 X-5.8254 Y3.4420  
G01 X-5.8161 Y3.4389  
G01 X-5.8074 Y3.4345  
G01 X-5.7994 Y3.4287  
G01 X-5.7925 Y3.4218  
G01 X-5.7868 Y3.4139  
G01 X-5.7823 Y3.4051  
G01 X-5.7793 Y3.3958  
G01 X-5.7790 Y3.3940  
G01 X-5.5810 Y3.3940  
G01 X-5.5807 Y3.3958  
G01 X-5.5777 Y3.4051  
G01 X-5.5732 Y3.4139  
G01 X-5.5675 Y3.4218  
G01 X-5.5606 Y3.4287  
G01 X-5.5526 Y3.4345  
G01 X-5.5439 Y3.4389  
G01 X-5.5346 Y3.4420  
G01 X-5.5249 Y3.4435  
G01 X-5.5151 Y3.4435  
G01 X-5.5054 Y3.4420  
G01 X-5.4961 Y3.4389  
G01 X-5.4874 Y3.4345  
G01 X-5.4794 Y3.4287  
G01 X-5.4725 Y3.4218  
G01 X-5.4668 Y3.4139  
G01 X-5.4623 Y3.4051  
G01 X-5.4593 Y3.3958  
G01 X-5.4590 Y3.3940  
G01 X-5.2340 Y3.3940  
G01 X-5.2340 Y3.4442  
G01 X-5.2327 Y3.4526  
G01 X-5.2300 Y3.4607  
G01 X-5.2262 Y3.4683  
G01 X-5.2212 Y3.4752  
G01 X-5.2152 Y3.4812  
G01 X-5.2083 Y3.4862  
G01 X-5.2007 Y3.4900  
G01 X-5.1926 Y3.4927  
G01 X-5.1842 Y3.4940  
G01 X-5.1757 Y3.4940  
G01 X-5.1674 Y3.4927  
G01 X-5.1593 Y3.4900  
G01 X-5.1517 Y3.4862  
G01 X-5.1448 Y3.4812  
G01 X-5.1388 Y3.4752  
G01 X-5.1338 Y3.4683  
G01 X-5.1300 Y3.4607  
G01 X-5.1273 Y3.4526  
G01 X-5.1260 Y3.4442  
G01 X-5.1260 Y3.1940  
G01 X-4.6940 Y3.1940  
G01 X-4.6940 Y3.3822  
G01 X-4.6966 Y3.3842  
G01 X-4.7018 Y3.3894  
G01 X-4.7062 Y3.3954  
G01 X-4.7096 Y3.4020  
G01 X-4.7118 Y3.4090  
G01 X-4.7130 Y3.4163  
G01 X-4.7130 Y3.4237  
G01 X-4.7118 Y3.4310  
G01 X-4.7096 Y3.4380  
G01 X-4.7062 Y3.4446  
G01 X-4.7018 Y3.4506  
G01 X-4.6966 Y3.4558  
G01 X-4.6906 Y3.4602  
G01 X-4.6840 Y3.4636  
G01 X-4.6770 Y3.4658  
G01 X-4.6697 Y3.4670  
G01 X-4.6667 Y3.4670  
G01 X-4.6608 Y3.4700  
G01 X-4.6667 Y3.4730  
G01 X-4.6697 Y3.4730  
G01 X-4.6770 Y3.4742  
G01 X-4.6840 Y3.4764  
G01 X-4.6906 Y3.4798  
G01 X-4.6966 Y3.4842  
G01 X-4.7018 Y3.4894  
G01 X-4.7062 Y3.4954  
G01 X-4.7096 Y3.5020  
G01 X-4.7118 Y3.5090  
G01 X-4.7130 Y3.5163  
G01 X-4.7130 Y3.5237  
G01 X-4.7118 Y3.5310  
G01 X-4.7096 Y3.5380  
G01 X-4.7062 Y3.5446  
G01 X-4.7018 Y3.5506  
G01 X-4.6966 Y3.5558  
G01 X-4.6906 Y3.5602  
G01 X-4.6840 Y3.5636  
G01 X-4.6770 Y3.5658  
G01 X-4.6697 Y3.5670  
G01 X-4.6667 Y3.5670  
G01 X-4.6608 Y3.5700  
G01 X-4.6615 Y3.5703  
G01 X-4.6623 Y3.5706  
G01 X-4.6653 Y3.5723  
G01 X-4.6667 Y3.5730  
G01 X-4.6697 Y3.5730  
G01 X-4.6770 Y3.5742  
G01 X-4.6840 Y3.5764  
G01 X-4.6906 Y3.5798  
G01 X-4.6966 Y3.5842  
G01 X-4.7018 Y3.5894  
G01 X-4.7062 Y3.5954  
G01 X-4.7096 Y3.6020  
G01 X-4.7118 Y3.6090  
G01 X-4.7130 Y3.6163  
G01 X-4.7130 Y3.6237  
G01 X-4.7118 Y3.6310  
G01 X-4.7096 Y3.6380  
G01 X-4.7062 Y3.6446  
G01 X-4.7018 Y3.6506  
G01 X-4.6966 Y3.6558  
G01 X-4.6928 Y3.6586  
G01 X-4.6857 Y3.8860  
G01 X-5.4590 Y3.8860  
G01 X-5.4593 Y3.8842  
G01 X-5.4623 Y3.8749  
G01 X-5.4668 Y3.8661  
G01 X-5.4725 Y3.8582  
G01 X-5.4794 Y3.8513  
G01 X-5.4874 Y3.8455  
G01 X-5.4961 Y3.8411  
G01 X-5.5054 Y3.8380  
G01 X-5.5151 Y3.8365  
G01 X-5.5249 Y3.8365  
G01 X-5.5346 Y3.8380  
G01 X-5.5439 Y3.8411  
G01 X-5.5526 Y3.8455  
G01 X-5.5606 Y3.8513  
G01 X-5.5675 Y3.8582  
G01 X-5.5732 Y3.8661  
G01 X-5.5777 Y3.8749  
G01 X-5.5807 Y3.8842  
G01 X-5.5822 Y3.8939  
G01 X-5.5822 Y3.9861  
G01 X-5.5807 Y3.9958  
G01 X-5.5777 Y4.0051  
G01 X-5.5732 Y4.0139  
G01 X-5.5675 Y4.0218  
G01 X-5.5606 Y4.0287  
G01 X-5.5526 Y4.0345  
G01 X-5.5439 Y4.0389  
G01 X-5.5346 Y4.0420  
G01 X-5.5249 Y4.0435  
G01 X-5.5151 Y4.0435  
G01 X-5.5054 Y4.0420  
G01 X-5.4961 Y4.0389  
G01 X-5.4874 Y4.0345  
G01 X-5.4794 Y4.0287  
G01 X-5.4725 Y4.0218  
G01 X-5.4668 Y4.0139  
G01 X-5.4623 Y4.0051  
G01 X-5.4593 Y3.9958  
G01 X-5.4590 Y3.9940  
G01 X-4.6840 Y3.9940  
G01 X-4.6840 Y4.2542  
G01 X-4.6827 Y4.2626  
G01 X-4.6800 Y4.2707  
G01 X-4.6762 Y4.2783  
G01 X-4.6712 Y4.2852  
G01 X-4.6652 Y4.2912  
G01 X-4.6583 Y4.2962  
G01 X-4.6507 Y4.3000  
G01 X-4.6426 Y4.3027  
G01 X-4.6342 Y4.3040  
G01 X-4.6258 Y4.3040  
G01 X-4.6174 Y4.3027  
G01 X-4.6093 Y4.3000  
G01 X-4.6017 Y4.2962  
G01 X-4.5948 Y4.2912  
G01 X-4.5888 Y4.2852  
G01 X-4.5838 Y4.2783  
G01 X-4.5800 Y4.2707  
G01 X-4.5773 Y4.2626  
G01 X-4.5760 Y4.2542  
G01 X-4.5760 Y3.9740  
G01 X-3.3278 Y3.9740  
G01 X-3.3258 Y3.9766  
G01 X-3.3206 Y3.9818  
G01 X-3.3146 Y3.9862  
G01 X-3.3080 Y3.9896  
G01 X-3.3010 Y3.9918  
G01 X-3.2937 Y3.9930  
G01 X-3.2863 Y3.9930  
G01 X-3.2790 Y3.9918  
G01 X-3.2720 Y3.9896  
G01 X-3.2654 Y3.9862  
G01 X-3.2594 Y3.9818  
G01 X-3.2542 Y3.9766  
G01 X-3.2522 Y3.9740  
G01 X-2.6957 Y3.9740  
G01 X-2.6874 Y3.9727  
G01 X-2.6793 Y3.9700  
G01 X-2.6717 Y3.9662  
G01 X-2.6648 Y3.9612  
G01 X-2.1248 Y3.4212  
G01 X-2.1188 Y3.4152  
G01 X-2.1138 Y3.4083  
G01 X-2.1100 Y3.4007  
G01 X-2.1073 Y3.3926  
G01 X-2.1060 Y3.3842  
G01 X-2.1060 Y3.2860  
G01 X-2.1058 Y3.2870  
G01 X-2.1036 Y3.2940  
G01 X-2.1002 Y3.3006  
G01 X-2.0958 Y3.3066  
G01 X-2.0906 Y3.3118  
G01 X-2.0846 Y3.3162  
G01 X-2.0780 Y3.3196  
G01 X-2.0710 Y3.3218  
G01 X-2.0637 Y3.3230  
G01 X-2.0563 Y3.3230  
G01 X-2.0490 Y3.3218  
G01 X-2.0420 Y3.3196  
G01 X-2.0354 Y3.3162  
G01 X-2.0294 Y3.3118  
G01 X-2.0242 Y3.3066  
G01 X-2.0198 Y3.3006  
G01 X-2.0164 Y3.2940  
G01 X-2.0142 Y3.2870  
G01 X-2.0140 Y3.2860  
G01 X-2.0140 Y3.3304  
G01 X-2.0198 Y3.3362  
G01 X-2.0459 Y3.3470  
G01 X-2.0559 Y3.3470  
G01 X-2.0615 Y3.3481  
G01 X-2.0667 Y3.3503  
G01 X-2.0715 Y3.3535  
G01 X-2.0755 Y3.3575  
G01 X-2.0787 Y3.3623  
G01 X-2.0809 Y3.3675  
G01 X-2.0820 Y3.3731  
G01 X-2.0820 Y3.3903  
G01 X-2.0873 Y3.4101  
G01 X-2.0976 Y3.4279  
G01 X-2.1128 Y3.4431  
G01 X-2.1168 Y3.4471  
G01 X-2.6521 Y3.9824  
G01 X-2.6699 Y3.9927  
G01 X-2.6897 Y3.9980  
G01 X-3.2324 Y3.9980  
G01 X-3.2365 Y3.9988  
G01 X-3.2380 Y3.9991  
G01 X-3.2433 Y4.0013  
G01 X-3.2457 Y4.0029  
G01 X-3.2481 Y4.0045  
G01 X-3.2498 Y4.0062  
G01 X-3.2759 Y4.0170  
G01 X-3.3041 Y4.0170  
G01 X-3.3302 Y4.0062  
G01 X-3.3319 Y4.0045  
G01 X-3.3343 Y4.0029  
G01 X-3.3367 Y4.0013  
G01 X-3.3420 Y3.9991  
G01 X-3.3433 Y3.9988  
G01 X-3.3476 Y3.9980  
G01 X-4.5259 Y3.9980  
G01 X-4.5315 Y3.9991  
G01 X-4.5367 Y4.0013  
G01 X-4.5415 Y4.0045  
G01 X-4.5455 Y4.0085  
G01 X-4.5487 Y4.0133  
G01 X-4.5509 Y4.0185  
G01 X-4.5520 Y4.0241  
G01 X-4.5520 Y4.2603  
G01 X-4.5573 Y4.2801  
G01 X-4.5676 Y4.2979  
G01 X-4.5821 Y4.3124  
G01 X-4.5999 Y4.3227  
G01 X-4.6197 Y4.3280  
G01 X-4.6403 Y4.3280  
G01 X-4.6601 Y4.3227  
G01 X-4.6779 Y4.3124  
G01 X-4.6924 Y4.2979  
G01 X-4.7027 Y4.2801  
G01 X-4.7080 Y4.2603  
G01 X-4.7080 Y4.0441  
G01 X-4.7091 Y4.0385  
G01 X-4.7113 Y4.0333  
G01 X-4.7145 Y4.0285  
G01 X-4.7185 Y4.0245  
G01 X-4.7233 Y4.0213  
G01 X-4.7285 Y4.0191  
G01 X-4.7341 Y4.0180  
G01 X-5.4230 Y4.0180  
G01 X-5.4239 Y4.0179  
G01 X-5.4258 Y4.0180  
G01 X-5.4277 Y4.0180  
G01 X-5.4287 Y4.0182  
G01 X-5.4296 Y4.0182  
G01 X-5.4315 Y4.0187  
G01 X-5.4333 Y4.0191  
G01 X-5.4342 Y4.0195  
G01 X-5.4351 Y4.0197  
G01 X-5.4369 Y4.0206  
G01 X-5.4386 Y4.0213  
G01 X-5.4394 Y4.0218  
G01 X-5.4403 Y4.0223  
G01 X-5.4418 Y4.0234  
G01 X-5.4434 Y4.0245  
G01 X-5.4440 Y4.0251  
G01 X-5.4448 Y4.0257  
G01 X-5.4461 Y4.0272  
G01 X-5.4474 Y4.0285  
G01 X-5.4479 Y4.0293  
G01 X-5.4486 Y4.0300  
G01 X-5.4495 Y4.0317  
G01 X-5.4506 Y4.0333  
G01 X-5.4509 Y4.0341  
G01 X-5.4670 Y4.0503  
G01 X-5.4867 Y4.0616  
G01 X-5.5086 Y4.0675  
G01 X-5.5314 Y4.0675  
G01 X-5.5533 Y4.0616  
G01 X-5.5730 Y4.0503  
G01 X-5.5890 Y4.0342  
G01 X-5.6004 Y4.0145  
G01 X-5.6062 Y3.9926  
G01 X-5.6062 Y3.8874  
G01 X-5.6004 Y3.8655  
G01 X-5.5890 Y3.8458  
G01 X-5.5730 Y3.8297  
G01 X-5.5533 Y3.8184  
G01 X-5.5314 Y3.8125  
G01 X-5.5086 Y3.8125  
G01 X-5.4867 Y3.8184  
G01 X-5.4670 Y3.8297  
G01 X-5.4510 Y3.8458  
G01 X-5.4506 Y3.8467  
G01 X-5.4495 Y3.8483  
G01 X-5.4486 Y3.8500  
G01 X-5.4479 Y3.8507  
G01 X-5.4474 Y3.8515  
G01 X-5.4461 Y3.8528  
G01 X-5.4448 Y3.8543  
G01 X-5.4440 Y3.8548  
G01 X-5.4434 Y3.8555  
G01 X-5.4418 Y3.8566  
G01 X-5.4403 Y3.8577  
G01 X-5.4394 Y3.8582  
G01 X-5.4386 Y3.8587  
G01 X-5.4369 Y3.8594  
G01 X-5.4351 Y3.8603  
G01 X-5.4342 Y3.8605  
G01 X-5.4333 Y3.8609  
G01 X-5.4315 Y3.8613  
G01 X-5.4296 Y3.8618  
G01 X-5.4287 Y3.8618  
G01 X-5.4277 Y3.8620  
G01 X-5.4258 Y3.8620  
G01 X-5.4239 Y3.8621  
G01 X-5.4230 Y3.8620  
G01 X-4.7428 Y3.8620  
G01 X-4.7423 Y3.8621  
G01 X-4.7399 Y3.8620  
G01 X-4.7375 Y3.8620  
G01 X-4.7371 Y3.8619  
G01 X-4.7366 Y3.8619  
G01 X-4.7343 Y3.8614  
G01 X-4.7319 Y3.8609  
G01 X-4.7315 Y3.8607  
G01 X-4.7311 Y3.8606  
G01 X-4.7289 Y3.8596  
G01 X-4.7267 Y3.8587  
G01 X-4.7263 Y3.8584  
G01 X-4.7259 Y3.8583  
G01 X-4.7239 Y3.8569  
G01 X-4.7219 Y3.8555  
G01 X-4.7216 Y3.8552  
G01 X-4.7212 Y3.8549  
G01 X-4.7196 Y3.8532  
G01 X-4.7179 Y3.8515  
G01 X-4.7176 Y3.8511  
G01 X-4.7173 Y3.8508  
G01 X-4.7160 Y3.8487  
G01 X-4.7147 Y3.8467  
G01 X-4.7145 Y3.8463  
G01 X-4.7143 Y3.8459  
G01 X-4.7134 Y3.8437  
G01 X-4.7125 Y3.8415  
G01 X-4.7124 Y3.8410  
G01 X-4.7123 Y3.8406  
G01 X-4.7119 Y3.8382  
G01 X-4.7114 Y3.8359  
G01 X-4.7114 Y3.8354  
G01 X-4.7113 Y3.8349  
G01 X-4.7114 Y3.8325  
G01 X-4.7114 Y3.8301  
G01 X-4.7115 Y3.8297  
G01 X-4.7161 Y3.6819  
G01 X-4.7161 Y3.6795  
G01 X-4.7162 Y3.6790  
G01 X-4.7162 Y3.6786  
G01 X-4.7168 Y3.6762  
G01 X-4.7172 Y3.6739  
G01 X-4.7174 Y3.6734  
G01 X-4.7175 Y3.6730  
G01 X-4.7185 Y3.6708  
G01 X-4.7194 Y3.6686  
G01 X-4.7197 Y3.6682  
G01 X-4.7198 Y3.6678  
G01 X-4.7212 Y3.6658  
G01 X-4.7226 Y3.6638  
G01 X-4.7229 Y3.6635  
G01 X-4.7232 Y3.6631  
G01 X-4.7249 Y3.6615  
G01 X-4.7262 Y3.6602  
G01 X-4.7370 Y3.6341  
G01 X-4.7370 Y3.6059  
G01 X-4.7256 Y3.5785  
G01 X-4.7245 Y3.5729  
G01 X-4.7245 Y3.5671  
G01 X-4.7256 Y3.5619  
G01 X-4.7256 Y3.5615  
G01 X-4.7278 Y3.5563  
G01 X-4.7370 Y3.5341  
G01 X-4.7370 Y3.5059  
G01 X-4.7278 Y3.4837  
G01 X-4.7257 Y3.4786  
G01 X-4.7256 Y3.4785  
G01 X-4.7245 Y3.4729  
G01 X-4.7245 Y3.4671  
G01 X-4.7246 Y3.4668  
G01 X-4.7256 Y3.4615  
G01 X-4.7370 Y3.4341  
G01 X-4.7370 Y3.4059  
G01 X-4.7262 Y3.3798  
G01 X-4.7245 Y3.3781  
G01 X-4.7229 Y3.3757  
G01 X-4.7213 Y3.3733  
G01 X-4.7191 Y3.3680  
G01 X-4.7188 Y3.3667  
G01 X-4.7180 Y3.3624  
G01 X-4.7180 Y3.2441  
G01 X-4.7191 Y3.2385  
G01 X-4.7213 Y3.2333  
G01 X-4.7245 Y3.2285  
G01 X-4.7285 Y3.2245  
G01 X-4.7333 Y3.2213  
G01 X-4.7385 Y3.2191  
G01 X-4.7441 Y3.2180  
G01 X-5.0759 Y3.2180  
G01 X-5.0815 Y3.2191  
G01 X-5.0867 Y3.2213  
G01 X-5.0915 Y3.2245  
G01 X-5.0955 Y3.2285  
G01 X-5.0987 Y3.2333  
G01 X-5.1009 Y3.2385  
G01 X-5.1020 Y3.2441  
G01 X-5.1020 Y3.4503  
G01 X-5.1073 Y3.4701  
G01 X-5.1176 Y3.4879  
G01 X-5.1321 Y3.5024  
G01 X-5.1499 Y3.5127  
G01 X-5.1697 Y3.5180  
G01 X-5.1903 Y3.5180  
G01 X-5.2101 Y3.5127  
G01 X-5.2279 Y3.5024  
G01 X-5.2424 Y3.4879  
G01 X-5.2527 Y3.4701  
G01 X-5.2580 Y3.4503  
G01 X-5.2580 Y3.4441  
G01 X-5.2591 Y3.4385  
G01 X-5.2613 Y3.4333  
G01 X-5.2645 Y3.4285  
G01 X-5.2685 Y3.4245  
G01 X-5.2733 Y3.4213  
G01 X-5.2785 Y3.4191  
G01 X-5.2841 Y3.4180  
G01 X-5.4230 Y3.4180  
G01 X-5.4239 Y3.4179  
G01 X-5.4258 Y3.4180  
G01 X-5.4277 Y3.4180  
G01 X-5.4287 Y3.4182  
G01 X-5.4296 Y3.4182  
G01 X-5.4315 Y3.4187  
G01 X-5.4333 Y3.4191  
G01 X-5.4342 Y3.4195  
G01 X-5.4351 Y3.4197  
G01 X-5.4369 Y3.4206  
G01 X-5.4386 Y3.4213  
G01 X-5.4394 Y3.4218  
G01 X-5.4403 Y3.4223  
G01 X-5.4418 Y3.4234  
G01 X-5.4434 Y3.4245  
G01 X-5.4440 Y3.4251  
G01 X-5.4448 Y3.4257  
G01 X-5.4461 Y3.4272  
G01 X-5.4474 Y3.4285  
G01 X-5.4479 Y3.4293  
G01 X-5.4486 Y3.4300  
G01 X-5.4495 Y3.4317  
G01 X-5.4506 Y3.4333  
G01 X-5.4509 Y3.4341  
G01 X-5.4670 Y3.4503  
G01 X-5.4867 Y3.4616  
G01 X-5.5086 Y3.4675  
G01 X-5.5314 Y3.4675  
G01 X-5.5533 Y3.4616  
G01 X-5.5730 Y3.4503  
G01 X-5.5890 Y3.4342  
G01 X-5.5894 Y3.4333  
G01 X-5.5905 Y3.4317  
G01 X-5.5914 Y3.4300  
G01 X-5.5921 Y3.4293  
G01 X-5.5926 Y3.4285  
G01 X-5.5939 Y3.4272  
G01 X-5.5952 Y3.4257  
G01 X-5.5960 Y3.4251  
G01 X-5.5966 Y3.4245  
G01 X-5.5982 Y3.4234  
G01 X-5.5997 Y3.4223  
G01 X-5.6006 Y3.4218  
G01 X-5.6014 Y3.4213  
G01 X-5.6031 Y3.4206  
G01 X-5.6049 Y3.4197  
G01 X-5.6058 Y3.4195  
G01 X-5.6067 Y3.4191  
G01 X-5.6085 Y3.4187  
G01 X-5.6104 Y3.4182  
G01 X-5.6113 Y3.4182  
G01 X-5.6123 Y3.4180  
G01 X-5.6142 Y3.4180  
G01 X-5.6161 Y3.4179  
G01 X-5.6170 Y3.4180  
G01 X-5.7430 Y3.4180  
G01 X-5.7439 Y3.4179  
G01 X-5.7458 Y3.4180  
G01 X-5.7477 Y3.4180  
G01 X-5.7487 Y3.4182  
G01 X-5.7496 Y3.4182  
G01 X-5.7515 Y3.4187  
G01 X-5.7533 Y3.4191  
G01 X-5.7542 Y3.4195  
G01 X-5.7551 Y3.4197  
G01 X-5.7569 Y3.4206  
G01 X-5.7586 Y3.4213  
G01 X-5.7594 Y3.4218  
G01 X-5.7603 Y3.4223  
G01 X-5.7618 Y3.4234  
G01 X-5.7634 Y3.4245  
G01 X-5.7640 Y3.4251  
G01 X-5.7648 Y3.4257  
G01 X-5.7661 Y3.4272  
G01 X-5.7674 Y3.4285  
G01 X-5.7679 Y3.4293  
G01 X-5.7686 Y3.4300  
G01 X-5.7695 Y3.4317  
G01 X-5.7706 Y3.4333  
G01 X-5.7709 Y3.4341  
G01 X-5.7870 Y3.4503  
G01 X-5.8067 Y3.4616  
G01 X-5.8286 Y3.4675  
G01 X-5.8514 Y3.4675  
G01 X-5.8733 Y3.4616  
G01 X-5.8930 Y3.4503  
G01 X-5.9035 Y3.4398  
G01 X-5.9074 Y3.4359  
G01 X-5.9075 Y3.4357  
G01 X-5.9090 Y3.4347  
G01 X-5.9123 Y3.4325  
G01 X-5.9145 Y3.4316  
G01 X-5.9175 Y3.4304  
G01 X-5.9231 Y3.4293  
G01 X-5.9289 Y3.4292  
G01 X-5.9345 Y3.4304  
G01 X-5.9366 Y3.4312  
G01 X-5.9397 Y3.4325  
G01 X-5.9414 Y3.4336  
G01 X-5.9445 Y3.4357  
G01 X-5.9485 Y3.4397  
G01 X-5.9495 Y3.4413  
G01 X-5.9517 Y3.4445  
G01 X-5.9526 Y3.4468  
G01 X-5.9539 Y3.4498  
G01 X-5.9550 Y3.4553  
G01 X-5.9550 Y4.4289  
G01 X-5.9539 Y4.4345  
G01 X-5.9517 Y4.4397  
G01 X-5.9485 Y4.4445  
G01 X-5.9445 Y4.4485  
G01 X-5.9397 Y4.4517  
G01 X-5.9345 Y4.4539  
G01 X-5.9289 Y4.4550  
G01 X-5.8349 Y4.4550  
G01 X-5.8346 Y4.4549  
G01 X-5.8293 Y4.4539  
G01 X-5.8240 Y4.4517  
G01 X-5.8209 Y4.4496  
G01 X-5.8192 Y4.4485  
G01 X-5.8152 Y4.4445  
G01 X-5.8130 Y4.4412  
G01 X-5.8120 Y4.4397  
G01 X-5.8099 Y4.4346  
G01 X-5.8099 Y4.4345  
G01 X-5.8087 Y4.4289  
G01 X-5.8087 Y4.4231  
G01 X-5.8088 Y4.4228  
G01 X-5.8099 Y4.4175  
G01 X-5.8120 Y4.4123  
G01 X-5.8141 Y4.4092  
G01 X-5.8152 Y4.4075  
G01 X-5.8192 Y4.4035  
G01 X-5.8364 Y4.3863  
G01 X-5.8506 Y4.3617  
G01 X-5.8580 Y4.3342  
G01 X-5.8580 Y4.3058  
G01 X-5.8506 Y4.2783  
G01 X-5.8364 Y4.2537  
G01 X-5.8163 Y4.2336  
G01 X-5.7917 Y4.2194  
G01 X-5.7642 Y4.2120  
G01 X-5.7358 Y4.2120  
G01 X-5.7083 Y4.2194  
G01 X-5.6837 Y4.2336  
G01 X-5.6636 Y4.2537  
G01 X-5.6494 Y4.2783  
G01 X-5.6420 Y4.3058  
G01 X-5.6420 Y4.3342  
G01 X-5.6494 Y4.3617  
G01 X-5.6636 Y4.3863  
G01 X-5.6808 Y4.4035  
G01 X-5.6846 Y4.4073  
G01 X-5.6848 Y4.4075  
G01 X-5.6858 Y4.4090  
G01 X-5.6880 Y4.4123  
G01 X-5.6901 Y4.4175  
G01 X-5.6913 Y4.4231  
G01 X-5.6913 Y4.4289  
G01 X-5.6902 Y4.4341  
G01 X-5.6901 Y4.4345  
G01 X-5.6880 Y4.4397  
G01 X-5.6869 Y4.4414  
G01 X-5.6848 Y4.4445  
G01 X-5.6808 Y4.4485  
G01 X-5.6792 Y4.4495  
G01 X-5.6760 Y4.4517  
G01 X-5.6707 Y4.4539  
G01 X-5.6651 Y4.4550  
G01 X-3.9962 Y4.4550  
G01 X-3.9952 Y4.4551  
G01 X-3.9933 Y4.4550  
G01 X-3.9914 Y4.4550  
G01 X-3.9905 Y4.4548  
G01 X-3.9895 Y4.4548  
G01 X-3.9877 Y4.4543  
G01 X-3.9858 Y4.4539  
G01 X-3.9849 Y4.4535  
G01 X-3.9840 Y4.4533  
G01 X-3.9823 Y4.4524  
G01 X-3.9805 Y4.4517  
G01 X-3.9798 Y4.4512  
G01 X-3.9789 Y4.4507  
G01 X-3.9774 Y4.4496  
G01 X-3.9758 Y4.4485  
G01 X-3.9751 Y4.4478  
G01 X-3.9744 Y4.4473  
G01 X-3.9731 Y4.4458  
G01 X-3.9718 Y4.4445  
G01 X-3.9712 Y4.4437  
G01 X-3.9706 Y4.4430  
G01 X-3.9696 Y4.4413  
G01 X-3.9686 Y4.4397  
G01 X-3.9682 Y4.4389  
G01 X-3.9677 Y4.4380  
G01 X-3.9671 Y4.4362  
G01 X-3.9664 Y4.4345  
G01 X-3.9662 Y4.4335  
G01 X-3.9659 Y4.4326  
G01 X-3.9657 Y4.4307  
G01 X-3.9653 Y4.4289  
G01 X-3.9653 Y4.4279  
G01 X-3.9652 Y4.4270  
G01 X-3.9653 Y4.4251  
G01 X-3.9653 Y4.4231  
G01 X-3.9655 Y4.4222  
G01 X-3.9655 Y4.4213  
G01 X-3.9660 Y4.4194  
G01 X-3.9664 Y4.4175  
G01 X-3.9668 Y4.4167  
G01 X-3.9670 Y4.4157  
G01 X-3.9679 Y4.4140  
G01 X-3.9686 Y4.4123  
G01 X-3.9691 Y4.4115  
G01 X-3.9695 Y4.4106  
G01 X-3.9707 Y4.4091  
G01 X-3.9718 Y4.4075  
G01 X-3.9724 Y4.4068  
G01 X-3.9730 Y4.4061  
G01 X-3.9744 Y4.4048  
G01 X-3.9758 Y4.4035  
G01 X-3.9766 Y4.4029  
G01 X-3.9773 Y4.4023  
G01 X-3.9790 Y4.4014  
G01 X-3.9805 Y4.4003  
G01 X-3.9814 Y4.3999  
G01 X-3.9940 Y4.3927  
G01 X-4.0134 Y4.3733  
G01 X-4.0270 Y4.3497  
G01 X-4.0273 Y4.3485  
G01 X-4.0276 Y4.3477  
G01 X-4.0279 Y4.3467  
G01 X-4.0287 Y4.3450  
G01 X-4.0295 Y4.3433  
G01 X-4.0300 Y4.3425  
G01 X-4.0304 Y4.3416  
G01 X-4.0316 Y4.3401  
G01 X-4.0326 Y4.3385  
G01 X-4.0333 Y4.3378  
G01 X-4.0339 Y4.3371  
G01 X-4.0353 Y4.3358  
G01 X-4.0367 Y4.3345  
G01 X-4.0375 Y4.3339  
G01 X-4.0382 Y4.3333  
G01 X-4.0398 Y4.3324  
G01 X-4.0414 Y4.3313  
G01 X-4.0423 Y4.3309  
G01 X-4.0431 Y4.3305  
G01 X-4.0449 Y4.3298  
G01 X-4.0467 Y4.3291  
G01 X-4.0476 Y4.3289  
G01 X-4.0485 Y4.3286  
G01 X-4.0504 Y4.3284  
G01 X-4.0523 Y4.3280  
G01 X-4.0533 Y4.3280  
G01 X-4.0542 Y4.3279  
G01 X-4.0561 Y4.3280  
G01 X-4.2403 Y4.3280  
G01 X-4.2601 Y4.3227  
G01 X-4.2779 Y4.3124  
G01 X-4.2924 Y4.2979  
G01 X-4.3027 Y4.2801  
G01 X-4.3080 Y4.2603  
G01 X-4.3080 Y4.2397  
G01 X-4.3027 Y4.2199  
G01 X-4.2924 Y4.2021  
G01 X-4.2779 Y4.1876  
G01 X-4.2601 Y4.1773  
G01 X-4.2403 Y4.1720  
G01 X-4.0561 Y4.1720  
G01 X-4.0542 Y4.1721  
G01 X-4.0533 Y4.1720  
G01 X-4.0523 Y4.1720  
G01 X-4.0504 Y4.1716  
G01 X-4.0485 Y4.1714  
G01 X-4.0476 Y4.1711  
G01 X-4.0467 Y4.1709  
G01 X-4.0449 Y4.1702  
G01 X-4.0431 Y4.1695  
G01 X-4.0423 Y4.1691  
G01 X-4.0414 Y4.1687  
G01 X-4.0398 Y4.1676  
G01 X-4.0382 Y4.1667  
G01 X-4.0375 Y4.1661  
G01 X-4.0367 Y4.1655  
G01 X-4.0353 Y4.1642  
G01 X-4.0339 Y4.1629  
G01 X-4.0333 Y4.1622  
G01 X-4.0326 Y4.1615  
G01 X-4.0316 Y4.1599  
G01 X-4.0304 Y4.1584  
G01 X-4.0300 Y4.1575  
G01 X-4.0295 Y4.1567  
G01 X-4.0287 Y4.1550  
G01 X-4.0279 Y4.1533  
G01 X-4.0276 Y4.1523  
G01 X-4.0273 Y4.1515  
G01 X-4.0270 Y4.1503  
G01 X-4.0134 Y4.1267  
G01 X-3.9940 Y4.1073  
G01 X-3.9702 Y4.0936  
G01 X-3.9437 Y4.0865  
G01 X-3.9163 Y4.0865  
G01 X-3.8898 Y4.0936  
G01 X-3.8660 Y4.1073  
G01 X-3.8466 Y4.1267  
G01 X-3.8329 Y4.1505  
G01 X-3.8257 Y4.1770  
G01 X-3.8257 Y4.3230  
G01 X-3.8329 Y4.3495  
G01 X-3.8466 Y4.3733  
G01 X-3.8660 Y4.3927  
G01 X-3.8786 Y4.3999  
G01 X-3.8795 Y4.4003  
G01 X-3.8810 Y4.4014  
G01 X-3.8827 Y4.4023  
G01 X-3.8834 Y4.4029  
G01 X-3.8842 Y4.4035  
G01 X-3.8856 Y4.4048  
G01 X-3.8870 Y4.4061  
G01 X-3.8876 Y4.4068  
G01 X-3.8882 Y4.4075  
G01 X-3.8893 Y4.4091  
G01 X-3.8905 Y4.4106  
G01 X-3.8909 Y4.4115  
G01 X-3.8914 Y4.4123  
G01 X-3.8921 Y4.4140  
G01 X-3.8930 Y4.4157  
G01 X-3.8932 Y4.4167  
G01 X-3.8936 Y4.4175  
G01 X-3.8940 Y4.4194  
G01 X-3.8945 Y4.4213  
G01 X-3.8945 Y4.4222  
G01 X-3.8947 Y4.4231  
G01 X-3.8947 Y4.4251  
G01 X-3.8948 Y4.4270  
G01 X-3.8947 Y4.4279  
G01 X-3.8947 Y4.4289  
G01 X-3.8943 Y4.4307  
G01 X-3.8941 Y4.4326  
G01 X-3.8938 Y4.4335  
G01 X-3.8936 Y4.4345  
G01 X-3.8929 Y4.4362  
G01 X-3.8923 Y4.4380  
G01 X-3.8918 Y4.4389  
G01 X-3.8914 Y4.4397  
G01 X-3.8904 Y4.4413  
G01 X-3.8894 Y4.4430  
G01 X-3.8888 Y4.4437  
G01 X-3.8882 Y4.4445  
G01 X-3.8869 Y4.4458  
G01 X-3.8856 Y4.4473  
G01 X-3.8849 Y4.4478  
G01 X-3.8842 Y4.4485  
G01 X-3.8826 Y4.4496  
G01 X-3.8811 Y4.4507  
G01 X-3.8802 Y4.4512  
G01 X-3.8795 Y4.4517  
G01 X-3.8777 Y4.4524  
G01 X-3.8760 Y4.4533  
G01 X-3.8751 Y4.4535  
G01 X-3.8742 Y4.4539  
G01 X-3.8723 Y4.4543  
G01 X-3.8705 Y4.4548  
G01 X-3.8695 Y4.4548  
G01 X-3.8686 Y4.4550  
G01 X-3.8667 Y4.4550  
G01 X-3.8648 Y4.4551  
G01 X-3.8638 Y4.4550  
G01 X-0.3349 Y4.4550  
G01 X-0.3346 Y4.4549  
G01 X-0.3293 Y4.4539  
G01 X-0.3240 Y4.4517  
G01 X-0.3209 Y4.4496  
G01 X-0.3192 Y4.4485  
G01 X-0.3152 Y4.4445  
G01 X-0.3130 Y4.4412  
G01 X-0.3120 Y4.4397  
G01 X-0.3099 Y4.4346  
G01 X-0.3099 Y4.4345  
G01 X-0.3087 Y4.4289  
G01 X-0.3087 Y4.4231  
G01 X-0.3088 Y4.4228  
G01 X-0.3099 Y4.4175  
G01 X-0.3120 Y4.4123  
G01 X-0.3141 Y4.4092  
G01 X-0.3152 Y4.4075  
G01 X-0.3192 Y4.4035  
G01 X-0.3364 Y4.3863  
G01 X-0.3506 Y4.3617  
G01 X-0.3580 Y4.3342  
G01 X-0.3580 Y4.3058  
G01 X-0.3506 Y4.2783  
G01 X-0.3364 Y4.2537  
G01 X-0.3163 Y4.2336  
G01 X-0.2917 Y4.2194  
G01 X-0.2642 Y4.2120  
G01 X-0.2358 Y4.2120  
G01 X-0.2083 Y4.2194  
G01 X-0.1837 Y4.2336  
G01 X-0.1636 Y4.2537  
G01 X-0.1494 Y4.2783  
G01 X-0.1420 Y4.3058  
G01 X-0.1420 Y4.3342  
G01 X-0.1494 Y4.3617  
G01 X-0.1636 Y4.3863  
G01 X-0.1808 Y4.4035  
G01 X-0.1846 Y4.4073  
G01 X-0.1848 Y4.4075  
G01 X-0.1858 Y4.4090  
G01 X-0.1880 Y4.4123  
G01 X-0.1901 Y4.4175  
G01 X-0.1913 Y4.4231  
G01 X-0.1913 Y4.4289  
G01 X-0.1902 Y4.4341  
G01 X-0.1901 Y4.4345  
G01 X-0.1880 Y4.4397  
G01 X-0.1869 Y4.4414  
G01 X-0.1848 Y4.4445  
G01 X-0.1808 Y4.4485  
G01 X-0.1792 Y4.4495  
G01 X-0.1760 Y4.4517  
G01 X-0.1707 Y4.4539  
G01 X-0.1651 Y4.4550  
G01 X-0.0711 Y4.4550  
G01 X-0.0655 Y4.4539  
G01 X-0.0603 Y4.4517  
G01 X-0.0555 Y4.4485  
G01 X-0.0515 Y4.4445  
G01 X-0.0483 Y4.4397  
G01 X-0.0461 Y4.4345  
G01 X-0.0450 Y4.4289  
G01 X-0.0450 Y0.0711  
G01 X-0.0461 Y0.0655  
G01 X-0.0483 Y0.0603  
G01 X-0.0515 Y0.0555  
G00 Z0.1000  
G00 X-0.1837 Y0.1636  
G01 Z-0.0070 F10    
G01 X-0.1636 Y0.1837  F20    
G01 X-0.1494 Y0.2083  
G01 X-0.1420 Y0.2358  
G01 X-0.1420 Y0.2642  
G01 X-0.1494 Y0.2917  
G01 X-0.1636 Y0.3163  
G01 X-0.1837 Y0.3364  
G01 X-0.2083 Y0.3506  
G01 X-0.2358 Y0.3580  
G01 X-0.2642 Y0.3580  
G01 X-0.2917 Y0.3506  
G01 X-0.3163 Y0.3364  
G01 X-0.3364 Y0.3163  
G01 X-0.3506 Y0.2917  
G01 X-0.3580 Y0.2642  
G01 X-0.3580 Y0.2358  
G01 X-0.3506 Y0.2083  
G01 X-0.3364 Y0.1837  
G01 X-0.3163 Y0.1636  
G01 X-0.2917 Y0.1494  
G01 X-0.2642 Y0.1420  
G01 X-0.2358 Y0.1420  
G01 X-0.2083 Y0.1494  
G01 X-0.1837 Y0.1636  
G00 Z0.1000  
G00 X-0.2995 Y1.5528  
G01 Z-0.0070 F10    
G01 X-0.2994 Y1.5533  F20    
G01 X-0.2957 Y1.5622  
G01 X-0.2909 Y1.5705  
G01 X-0.2850 Y1.5782  
G01 X-0.2782 Y1.5850  
G01 X-0.2705 Y1.5909  
G01 X-0.2622 Y1.5957  
G01 X-0.2533 Y1.5994  
G01 X-0.2528 Y1.5995  
G01 X-0.2475 Y1.6191  
G01 X-0.2475 Y1.6409  
G01 X-0.2528 Y1.6605  
G01 X-0.2533 Y1.6606  
G01 X-0.2622 Y1.6643  
G01 X-0.2705 Y1.6691  
G01 X-0.2782 Y1.6750  
G01 X-0.2850 Y1.6818  
G01 X-0.2909 Y1.6895  
G01 X-0.2957 Y1.6978  
G01 X-0.2994 Y1.7067  
G01 X-0.2995 Y1.7072  
G01 X-0.3191 Y1.7125  
G01 X-0.3409 Y1.7125  
G01 X-0.3521 Y1.7095  
G01 X-0.3530 Y1.7091  
G01 X-0.3549 Y1.7087  
G01 X-0.3567 Y1.7082  
G01 X-0.3577 Y1.7082  
G01 X-0.3586 Y1.7080  
G01 X-0.3603 Y1.7080  
G01 X-0.3606 Y1.7067  
G01 X-0.3643 Y1.6978  
G01 X-0.3691 Y1.6895  
G01 X-0.3733 Y1.6840  
G01 X-0.3529 Y1.6840  
G01 X-0.3525 Y1.6842  
G01 X-0.3437 Y1.6871  
G01 X-0.3346 Y1.6885  
G01 X-0.3254 Y1.6885  
G01 X-0.3163 Y1.6871  
G01 X-0.3075 Y1.6842  
G01 X-0.2993 Y1.6800  
G01 X-0.2919 Y1.6746  
G01 X-0.2854 Y1.6681  
G01 X-0.2800 Y1.6607  
G01 X-0.2758 Y1.6525  
G01 X-0.2729 Y1.6437  
G01 X-0.2715 Y1.6346  
G01 X-0.2715 Y1.6254  
G01 X-0.2729 Y1.6163  
G01 X-0.2758 Y1.6075  
G01 X-0.2800 Y1.5993  
G01 X-0.2854 Y1.5919  
G01 X-0.2919 Y1.5854  
G01 X-0.2993 Y1.5800  
G01 X-0.3075 Y1.5758  
G01 X-0.3163 Y1.5729  
G01 X-0.3254 Y1.5715  
G01 X-0.3346 Y1.5715  
G01 X-0.3437 Y1.5729  
G01 X-0.3525 Y1.5758  
G01 X-0.3529 Y1.5760  
G01 X-0.3733 Y1.5760  
G01 X-0.3691 Y1.5705  
G01 X-0.3643 Y1.5622  
G01 X-0.3606 Y1.5533  
G01 X-0.3603 Y1.5520  
G01 X-0.3586 Y1.5520  
G01 X-0.3577 Y1.5518  
G01 X-0.3567 Y1.5518  
G01 X-0.3549 Y1.5513  
G01 X-0.3530 Y1.5509  
G01 X-0.3521 Y1.5505  
G01 X-0.3409 Y1.5475  
G01 X-0.3191 Y1.5475  
G01 X-0.2995 Y1.5528  
G00 Z0.1000  
G00 X-0.5001 Y1.5533  
G01 Z-0.0070 F10    
G01 X-0.4965 Y1.5622  F20    
G01 X-0.4916 Y1.5705  
G01 X-0.4874 Y1.5760  
G01 X-0.6560 Y1.5760  
G01 X-0.6560 Y1.4258  
G01 X-0.6573 Y1.4174  
G01 X-0.6600 Y1.4093  
G01 X-0.6638 Y1.4017  
G01 X-0.6688 Y1.3948  
G01 X-0.6748 Y1.3888  
G01 X-0.6817 Y1.3838  
G01 X-0.6893 Y1.3800  
G01 X-0.6974 Y1.3773  
G01 X-0.7057 Y1.3760  
G01 X-0.8742 Y1.3760  
G01 X-0.8826 Y1.3773  
G01 X-0.8907 Y1.3800  
G01 X-0.8967 Y1.3830  
G01 X-0.8997 Y1.3830  
G01 X-0.9070 Y1.3842  
G01 X-0.9140 Y1.3864  
G01 X-0.9206 Y1.3898  
G01 X-0.9266 Y1.3942  
G01 X-0.9318 Y1.3994  
G01 X-0.9362 Y1.4054  
G01 X-0.9396 Y1.4120  
G01 X-0.9418 Y1.4190  
G01 X-0.9430 Y1.4263  
G01 X-0.9430 Y1.4337  
G01 X-0.9418 Y1.4410  
G01 X-0.9396 Y1.4480  
G01 X-0.9362 Y1.4546  
G01 X-0.9318 Y1.4606  
G01 X-0.9266 Y1.4658  
G01 X-0.9206 Y1.4702  
G01 X-0.9140 Y1.4736  
G01 X-0.9070 Y1.4758  
G01 X-0.9060 Y1.4760  
G01 X-0.9476 Y1.4760  
G01 X-0.9560 Y1.4676  
G01 X-0.9560 Y1.3896  
G01 X-0.9362 Y1.3698  
G01 X-0.9103 Y1.3591  
G01 X-0.9093 Y1.3590  
G01 X-0.9074 Y1.3590  
G01 X-0.9064 Y1.3588  
G01 X-0.9055 Y1.3588  
G01 X-0.9036 Y1.3583  
G01 X-0.9018 Y1.3579  
G01 X-0.9009 Y1.3575  
G01 X-0.8803 Y1.3520  
G01 X-0.6997 Y1.3520  
G01 X-0.6799 Y1.3573  
G01 X-0.6621 Y1.3676  
G01 X-0.6476 Y1.3821  
G01 X-0.6373 Y1.3999  
G01 X-0.6320 Y1.4197  
G01 X-0.6320 Y1.5259  
G01 X-0.6309 Y1.5315  
G01 X-0.6287 Y1.5367  
G01 X-0.6255 Y1.5415  
G01 X-0.6215 Y1.5455  
G01 X-0.6167 Y1.5487  
G01 X-0.6115 Y1.5509  
G01 X-0.6059 Y1.5520  
G01 X-0.5005 Y1.5520  
G01 X-0.5001 Y1.5533  
G00 Z0.1000  
G00 X-0.4874 Y1.6840  
G01 Z-0.0070 F10    
G01 X-0.4916 Y1.6895  F20    
G01 X-0.4965 Y1.6978  
G01 X-0.5001 Y1.7067  
G01 X-0.5005 Y1.7080  
G01 X-0.6459 Y1.7080  
G01 X-0.6515 Y1.7091  
G01 X-0.6567 Y1.7113  
G01 X-0.6615 Y1.7145  
G01 X-0.6655 Y1.7185  
G01 X-0.6687 Y1.7233  
G01 X-0.6709 Y1.7285  
G01 X-0.6720 Y1.7341  
G01 X-0.6720 Y3.0003  
G01 X-0.6773 Y3.0201  
G01 X-0.6876 Y3.0379  
G01 X-0.7021 Y3.0524  
G01 X-0.7199 Y3.0627  
G01 X-0.7397 Y3.0680  
G01 X-0.8446 Y3.0680  
G01 X-0.8456 Y3.0679  
G01 X-0.8475 Y3.0680  
G01 X-0.8494 Y3.0680  
G01 X-0.8503 Y3.0682  
G01 X-0.8513 Y3.0682  
G01 X-0.8531 Y3.0687  
G01 X-0.8550 Y3.0691  
G01 X-0.8559 Y3.0695  
G01 X-0.8594 Y3.0704  
G01 X-0.8806 Y3.0704  
G01 X-0.9013 Y3.0649  
G01 X-0.9028 Y3.0644  
G01 X-0.9045 Y3.0637  
G01 X-0.9055 Y3.0635  
G01 X-0.9064 Y3.0632  
G01 X-0.9083 Y3.0629  
G01 X-0.9101 Y3.0625  
G01 X-0.9111 Y3.0625  
G01 X-0.9120 Y3.0624  
G01 X-0.9139 Y3.0625  
G01 X-0.9159 Y3.0625  
G01 X-0.9168 Y3.0627  
G01 X-0.9177 Y3.0628  
G01 X-0.9196 Y3.0633  
G01 X-0.9215 Y3.0637  
G01 X-0.9223 Y3.0640  
G01 X-0.9233 Y3.0643  
G01 X-0.9250 Y3.0651  
G01 X-0.9267 Y3.0658  
G01 X-0.9275 Y3.0664  
G01 X-0.9284 Y3.0668  
G01 X-0.9299 Y3.0680  
G01 X-0.9315 Y3.0690  
G01 X-0.9322 Y3.0697  
G01 X-0.9329 Y3.0703  
G01 X-0.9342 Y3.0717  
G01 X-0.9355 Y3.0730  
G01 X-0.9361 Y3.0738  
G01 X-0.9367 Y3.0746  
G01 X-0.9376 Y3.0762  
G01 X-0.9387 Y3.0778  
G01 X-0.9391 Y3.0787  
G01 X-0.9395 Y3.0795  
G01 X-0.9402 Y3.0813  
G01 X-0.9409 Y3.0831  
G01 X-0.9411 Y3.0840  
G01 X-0.9414 Y3.0849  
G01 X-0.9416 Y3.0868  
G01 X-0.9420 Y3.0887  
G01 X-0.9420 Y3.0896  
G01 X-0.9421 Y3.0906  
G01 X-0.9420 Y3.0925  
G01 X-0.9420 Y3.0985  
G01 X-0.9409 Y3.1041  
G01 X-0.9387 Y3.1094  
G01 X-0.9355 Y3.1142  
G01 X-0.9315 Y3.1182  
G01 X-0.8328 Y3.2169  
G01 X-0.8322 Y3.2177  
G01 X-0.8308 Y3.2189  
G01 X-0.8294 Y3.2203  
G01 X-0.8286 Y3.2208  
G01 X-0.8279 Y3.2214  
G01 X-0.8263 Y3.2224  
G01 X-0.8247 Y3.2234  
G01 X-0.8238 Y3.2238  
G01 X-0.8206 Y3.2256  
G01 X-0.8056 Y3.2406  
G01 X-0.8038 Y3.2438  
G01 X-0.8034 Y3.2447  
G01 X-0.8024 Y3.2463  
G01 X-0.8014 Y3.2479  
G01 X-0.8008 Y3.2486  
G01 X-0.8003 Y3.2494  
G01 X-0.7989 Y3.2508  
G01 X-0.7977 Y3.2522  
G01 X-0.7969 Y3.2528  
G01 X-0.7576 Y3.2921  
G01 X-0.7473 Y3.3099  
G01 X-0.7420 Y3.3297  
G01 X-0.7420 Y3.5659  
G01 X-0.7409 Y3.5715  
G01 X-0.7387 Y3.5767  
G01 X-0.7355 Y3.5815  
G01 X-0.7315 Y3.5855  
G01 X-0.7267 Y3.5887  
G01 X-0.7215 Y3.5909  
G01 X-0.7159 Y3.5920  
G01 X-0.4805 Y3.5920  
G01 X-0.4795 Y3.5921  
G01 X-0.4776 Y3.5920  
G01 X-0.4757 Y3.5920  
G01 X-0.4748 Y3.5918  
G01 X-0.4738 Y3.5918  
G01 X-0.4720 Y3.5913  
G01 X-0.4701 Y3.5909  
G01 X-0.4692 Y3.5905  
G01 X-0.4683 Y3.5903  
G01 X-0.4666 Y3.5894  
G01 X-0.4648 Y3.5887  
G01 X-0.4640 Y3.5882  
G01 X-0.4632 Y3.5877  
G01 X-0.4617 Y3.5866  
G01 X-0.4601 Y3.5855  
G01 X-0.4594 Y3.5848  
G01 X-0.4586 Y3.5843  
G01 X-0.4574 Y3.5828  
G01 X-0.4560 Y3.5815  
G01 X-0.4555 Y3.5807  
G01 X-0.4549 Y3.5800  
G01 X-0.4539 Y3.5783  
G01 X-0.4529 Y3.5767  
G01 X-0.4525 Y3.5759  
G01 X-0.4441 Y3.5614  
G01 X-0.4264 Y3.5436  
G01 X-0.4047 Y3.5311  
G01 X-0.3805 Y3.5246  
G01 X-0.3554 Y3.5246  
G01 X-0.3312 Y3.5311  
G01 X-0.3095 Y3.5436  
G01 X-0.2918 Y3.5614  
G01 X-0.2792 Y3.5831  
G01 X-0.2771 Y3.5909  
G01 X-0.2796 Y3.5969  
G01 X-0.2820 Y3.6059  
G01 X-0.2832 Y3.6151  
G01 X-0.2832 Y3.7249  
G01 X-0.2820 Y3.7341  
G01 X-0.2796 Y3.7431  
G01 X-0.2771 Y3.7491  
G01 X-0.2792 Y3.7569  
G01 X-0.2918 Y3.7786  
G01 X-0.3095 Y3.7964  
G01 X-0.3312 Y3.8089  
G01 X-0.3554 Y3.8154  
G01 X-0.3805 Y3.8154  
G01 X-0.4047 Y3.8089  
G01 X-0.4264 Y3.7964  
G01 X-0.4441 Y3.7786  
G01 X-0.4525 Y3.7641  
G01 X-0.4529 Y3.7633  
G01 X-0.4539 Y3.7617  
G01 X-0.4549 Y3.7600  
G01 X-0.4555 Y3.7593  
G01 X-0.4560 Y3.7585  
G01 X-0.4574 Y3.7572  
G01 X-0.4586 Y3.7557  
G01 X-0.4594 Y3.7552  
G01 X-0.4601 Y3.7545  
G01 X-0.4617 Y3.7534  
G01 X-0.4632 Y3.7523  
G01 X-0.4640 Y3.7518  
G01 X-0.4648 Y3.7513  
G01 X-0.4666 Y3.7506  
G01 X-0.4683 Y3.7497  
G01 X-0.4692 Y3.7495  
G01 X-0.4701 Y3.7491  
G01 X-0.4720 Y3.7487  
G01 X-0.4738 Y3.7482  
G01 X-0.4748 Y3.7482  
G01 X-0.4757 Y3.7480  
G01 X-0.4776 Y3.7480  
G01 X-0.4795 Y3.7479  
G01 X-0.4805 Y3.7480  
G01 X-0.8303 Y3.7480  
G01 X-0.8509 Y3.7425  
G01 X-0.8518 Y3.7421  
G01 X-0.8536 Y3.7417  
G01 X-0.8555 Y3.7412  
G01 X-0.8564 Y3.7412  
G01 X-0.8574 Y3.7410  
G01 X-0.8593 Y3.7410  
G01 X-0.8603 Y3.7409  
G01 X-0.8862 Y3.7302  
G01 X-0.9062 Y3.7102  
G01 X-0.9170 Y3.6841  
G01 X-0.9170 Y3.6559  
G01 X-0.9062 Y3.6298  
G01 X-0.9045 Y3.6281  
G01 X-0.9013 Y3.6233  
G01 X-0.8991 Y3.6180  
G01 X-0.8980 Y3.6124  
G01 X-0.8980 Y3.3815  
G01 X-0.8991 Y3.3759  
G01 X-0.9013 Y3.3706  
G01 X-0.9045 Y3.3658  
G01 X-0.9072 Y3.3631  
G01 X-0.9078 Y3.3623  
G01 X-0.9092 Y3.3611  
G01 X-0.9106 Y3.3597  
G01 X-0.9114 Y3.3592  
G01 X-0.9121 Y3.3586  
G01 X-0.9137 Y3.3576  
G01 X-0.9153 Y3.3566  
G01 X-0.9162 Y3.3562  
G01 X-0.9194 Y3.3544  
G01 X-0.9344 Y3.3394  
G01 X-0.9362 Y3.3362  
G01 X-0.9366 Y3.3353  
G01 X-0.9376 Y3.3337  
G01 X-0.9386 Y3.3321  
G01 X-0.9392 Y3.3314  
G01 X-0.9397 Y3.3306  
G01 X-0.9411 Y3.3292  
G01 X-0.9423 Y3.3278  
G01 X-0.9431 Y3.3272  
G01 X-1.0529 Y3.2174  
G01 X-1.0542 Y3.2159  
G01 X-1.0550 Y3.2153  
G01 X-1.0556 Y3.2147  
G01 X-1.0572 Y3.2136  
G01 X-1.0587 Y3.2125  
G01 X-1.0596 Y3.2120  
G01 X-1.0604 Y3.2115  
G01 X-1.0621 Y3.2108  
G01 X-1.0639 Y3.2099  
G01 X-1.0648 Y3.2097  
G01 X-1.0657 Y3.2093  
G01 X-1.0675 Y3.2089  
G01 X-1.0694 Y3.2084  
G01 X-1.0703 Y3.2084  
G01 X-1.0713 Y3.2082  
G01 X-1.0732 Y3.2082  
G01 X-1.0751 Y3.2081  
G01 X-1.0760 Y3.2082  
G01 X-1.0770 Y3.2082  
G01 X-1.0788 Y3.2086  
G01 X-1.0807 Y3.2088  
G01 X-1.0816 Y3.2091  
G01 X-1.0826 Y3.2093  
G01 X-1.0830 Y3.2095  
G01 X-1.0826 Y3.2086  
G01 X-1.0821 Y3.2068  
G01 X-1.0815 Y3.2050  
G01 X-1.0814 Y3.2040  
G01 X-1.0811 Y3.2031  
G01 X-1.0810 Y3.2012  
G01 X-1.0807 Y3.1993  
G01 X-1.0808 Y3.1984  
G01 X-1.0807 Y3.1974  
G01 X-1.0810 Y3.1955  
G01 X-1.0811 Y3.1936  
G01 X-1.0814 Y3.1927  
G01 X-1.0815 Y3.1917  
G01 X-1.0821 Y3.1899  
G01 X-1.0826 Y3.1881  
G01 X-1.0830 Y3.1872  
G01 X-1.0833 Y3.1863  
G01 X-1.0843 Y3.1847  
G01 X-1.0851 Y3.1830  
G01 X-1.0857 Y3.1822  
G01 X-1.0927 Y3.1701  
G01 X-1.0980 Y3.1503  
G01 X-1.0980 Y3.0925  
G01 X-1.0979 Y3.0906  
G01 X-1.0980 Y3.0896  
G01 X-1.0980 Y3.0887  
G01 X-1.0984 Y3.0868  
G01 X-1.0986 Y3.0849  
G01 X-1.0989 Y3.0840  
G01 X-1.0991 Y3.0831  
G01 X-1.0998 Y3.0813  
G01 X-1.1005 Y3.0795  
G01 X-1.1009 Y3.0787  
G01 X-1.1013 Y3.0778  
G01 X-1.1024 Y3.0762  
G01 X-1.1033 Y3.0746  
G01 X-1.1039 Y3.0738  
G01 X-1.1045 Y3.0730  
G01 X-1.1058 Y3.0717  
G01 X-1.1071 Y3.0703  
G01 X-1.1078 Y3.0697  
G01 X-1.1085 Y3.0690  
G01 X-1.1101 Y3.0680  
G01 X-1.1116 Y3.0668  
G01 X-1.1125 Y3.0664  
G01 X-1.1133 Y3.0658  
G01 X-1.1150 Y3.0651  
G01 X-1.1167 Y3.0643  
G01 X-1.1177 Y3.0640  
G01 X-1.1185 Y3.0637  
G01 X-1.1204 Y3.0633  
G01 X-1.1223 Y3.0628  
G01 X-1.1232 Y3.0627  
G01 X-1.1241 Y3.0625  
G01 X-1.1261 Y3.0625  
G01 X-1.1280 Y3.0624  
G01 X-1.1289 Y3.0625  
G01 X-1.1299 Y3.0625  
G01 X-1.1317 Y3.0629  
G01 X-1.1336 Y3.0632  
G01 X-1.1345 Y3.0635  
G01 X-1.1355 Y3.0637  
G01 X-1.1372 Y3.0644  
G01 X-1.1387 Y3.0649  
G01 X-1.1594 Y3.0704  
G01 X-1.1806 Y3.0704  
G01 X-1.1841 Y3.0695  
G01 X-1.1850 Y3.0691  
G01 X-1.1869 Y3.0687  
G01 X-1.1887 Y3.0682  
G01 X-1.1897 Y3.0682  
G01 X-1.1906 Y3.0680  
G01 X-1.1925 Y3.0680  
G01 X-1.1944 Y3.0679  
G01 X-1.1954 Y3.0680  
G01 X-1.3003 Y3.0680  
G01 X-1.3201 Y3.0627  
G01 X-1.3379 Y3.0524  
G01 X-1.3524 Y3.0379  
G01 X-1.3627 Y3.0201  
G01 X-1.3680 Y3.0003  
G01 X-1.3680 Y1.7341  
G01 X-1.3691 Y1.7285  
G01 X-1.3713 Y1.7233  
G01 X-1.3745 Y1.7185  
G01 X-1.3785 Y1.7145  
G01 X-1.3833 Y1.7113  
G01 X-1.3885 Y1.7091  
G01 X-1.3941 Y1.7080  
G01 X-1.4685 Y1.7080  
G01 X-1.4741 Y1.7091  
G01 X-1.4794 Y1.7113  
G01 X-1.4842 Y1.7145  
G01 X-1.4882 Y1.7185  
G01 X-1.8755 Y2.1058  
G01 X-1.8787 Y2.1106  
G01 X-1.8809 Y2.1159  
G01 X-1.8820 Y2.1215  
G01 X-1.8820 Y2.4003  
G01 X-1.8873 Y2.4201  
G01 X-1.8976 Y2.4379  
G01 X-1.9121 Y2.4524  
G01 X-1.9304 Y2.4630  
G01 X-1.9317 Y2.4634  
G01 X-1.9326 Y2.4639  
G01 X-1.9335 Y2.4643  
G01 X-1.9350 Y2.4653  
G01 X-1.9366 Y2.4662  
G01 X-1.9374 Y2.4669  
G01 X-1.9383 Y2.4675  
G01 X-1.9396 Y2.4688  
G01 X-1.9409 Y2.4700  
G01 X-1.9416 Y2.4708  
G01 X-1.9423 Y2.4715  
G01 X-1.9433 Y2.4730  
G01 X-1.9444 Y2.4745  
G01 X-1.9449 Y2.4754  
G01 X-1.9455 Y2.4763  
G01 X-1.9462 Y2.4780  
G01 X-1.9470 Y2.4796  
G01 X-1.9473 Y2.4806  
G01 X-1.9477 Y2.4815  
G01 X-1.9480 Y2.4833  
G01 X-1.9485 Y2.4851  
G01 X-1.9486 Y2.4861  
G01 X-1.9488 Y2.4871  
G01 X-1.9488 Y2.4890  
G01 X-1.9489 Y2.4908  
G01 X-1.9488 Y2.4918  
G01 X-1.9488 Y2.4929  
G01 X-1.9484 Y2.4946  
G01 X-1.9482 Y2.4965  
G01 X-1.9479 Y2.4974  
G01 X-1.9477 Y2.4985  
G01 X-1.9470 Y2.5001  
G01 X-1.9464 Y2.5019  
G01 X-1.9459 Y2.5028  
G01 X-1.9455 Y2.5037  
G01 X-1.9445 Y2.5053  
G01 X-1.9436 Y2.5068  
G01 X-1.9429 Y2.5076  
G01 X-1.9423 Y2.5085  
G01 X-1.9410 Y2.5098  
G01 X-1.9398 Y2.5112  
G01 X-1.9390 Y2.5118  
G01 X-1.9383 Y2.5125  
G01 X-1.9368 Y2.5135  
G01 X-1.9353 Y2.5147  
G01 X-1.9344 Y2.5151  
G01 X-1.9335 Y2.5157  
G01 X-1.9318 Y2.5164  
G01 X-1.9302 Y2.5172  
G01 X-1.9299 Y2.5173  
G01 X-1.9121 Y2.5276  
G01 X-1.8976 Y2.5421  
G01 X-1.8873 Y2.5599  
G01 X-1.8820 Y2.5797  
G01 X-1.8820 Y2.9603  
G01 X-1.8875 Y2.9809  
G01 X-1.8879 Y2.9818  
G01 X-1.8883 Y2.9836  
G01 X-1.8888 Y2.9855  
G01 X-1.8888 Y2.9864  
G01 X-1.8890 Y2.9874  
G01 X-1.8890 Y2.9893  
G01 X-1.8891 Y2.9903  
G01 X-1.8998 Y3.0162  
G01 X-1.9198 Y3.0362  
G01 X-1.9459 Y3.0470  
G01 X-1.9741 Y3.0470  
G01 X-1.9933 Y3.0391  
G01 X-1.9989 Y3.0380  
G01 X-2.0046 Y3.0380  
G01 X-2.0059 Y3.0382  
G01 X-2.0102 Y3.0391  
G01 X-2.0155 Y3.0413  
G01 X-2.0170 Y3.0423  
G01 X-2.0202 Y3.0444  
G01 X-2.0242 Y3.0485  
G01 X-2.0274 Y3.0532  
G01 X-2.0278 Y3.0541  
G01 X-2.0296 Y3.0585  
G01 X-2.0307 Y3.0641  
G01 X-2.0307 Y3.0698  
G01 X-2.0305 Y3.0711  
G01 X-2.0296 Y3.0754  
G01 X-2.0274 Y3.0807  
G01 X-2.0264 Y3.0822  
G01 X-2.0242 Y3.0854  
G01 X-2.0202 Y3.0895  
G01 X-2.0169 Y3.0928  
G01 X-1.9976 Y3.1121  
G01 X-1.9873 Y3.1299  
G01 X-1.9820 Y3.1497  
G01 X-1.9820 Y3.1825  
G01 X-1.9846 Y3.1838  
G01 X-1.9906 Y3.1882  
G01 X-1.9958 Y3.1934  
G01 X-2.0002 Y3.1994  
G01 X-2.0036 Y3.2060  
G01 X-2.0058 Y3.2130  
G01 X-2.0060 Y3.2140  
G01 X-2.0060 Y3.1557  
G01 X-2.0073 Y3.1474  
G01 X-2.0100 Y3.1393  
G01 X-2.0138 Y3.1317  
G01 X-2.0188 Y3.1248  
G01 X-2.0388 Y3.1048  
G01 X-2.0448 Y3.0988  
G01 X-2.0517 Y3.0938  
G01 X-2.0593 Y3.0900  
G01 X-2.0674 Y3.0873  
G01 X-2.0758 Y3.0860  
G01 X-2.4114 Y3.0860  
G01 X-2.4048 Y3.0812  
G01 X-2.3988 Y3.0752  
G01 X-2.3276 Y3.0040  
G01 X-2.1978 Y3.0040  
G01 X-2.1958 Y3.0066  
G01 X-2.1906 Y3.0118  
G01 X-2.1846 Y3.0162  
G01 X-2.1780 Y3.0196  
G01 X-2.1710 Y3.0218  
G01 X-2.1637 Y3.0230  
G01 X-2.1563 Y3.0230  
G01 X-2.1490 Y3.0218  
G01 X-2.1420 Y3.0196  
G01 X-2.1354 Y3.0162  
G01 X-2.1294 Y3.0118  
G01 X-2.1242 Y3.0066  
G01 X-2.1198 Y3.0006  
G01 X-2.1164 Y2.9940  
G01 X-2.1142 Y2.9870  
G01 X-2.1130 Y2.9797  
G01 X-2.1130 Y2.9767  
G01 X-2.1100 Y2.9708  
G01 X-2.1070 Y2.9767  
G01 X-2.1070 Y2.9797  
G01 X-2.1058 Y2.9870  
G01 X-2.1036 Y2.9940  
G01 X-2.1002 Y3.0006  
G01 X-2.0958 Y3.0066  
G01 X-2.0906 Y3.0118  
G01 X-2.0846 Y3.0162  
G01 X-2.0780 Y3.0196  
G01 X-2.0710 Y3.0218  
G01 X-2.0637 Y3.0230  
G01 X-2.0563 Y3.0230  
G01 X-2.0490 Y3.0218  
G01 X-2.0420 Y3.0196  
G01 X-2.0354 Y3.0162  
G01 X-2.0294 Y3.0118  
G01 X-2.0242 Y3.0066  
G01 X-2.0198 Y3.0006  
G01 X-2.0164 Y2.9940  
G01 X-2.0142 Y2.9870  
G01 X-2.0130 Y2.9797  
G01 X-2.0130 Y2.9767  
G01 X-2.0100 Y2.9708  
G01 X-2.0070 Y2.9767  
G01 X-2.0070 Y2.9797  
G01 X-2.0058 Y2.9870  
G01 X-2.0036 Y2.9940  
G01 X-2.0002 Y3.0006  
G01 X-1.9958 Y3.0066  
G01 X-1.9906 Y3.0118  
G01 X-1.9846 Y3.0162  
G01 X-1.9780 Y3.0196  
G01 X-1.9710 Y3.0218  
G01 X-1.9637 Y3.0230  
G01 X-1.9563 Y3.0230  
G01 X-1.9490 Y3.0218  
G01 X-1.9420 Y3.0196  
G01 X-1.9354 Y3.0162  
G01 X-1.9294 Y3.0118  
G01 X-1.9242 Y3.0066  
G01 X-1.9198 Y3.0006  
G01 X-1.9164 Y2.9940  
G01 X-1.9142 Y2.9870  
G01 X-1.9130 Y2.9797  
G01 X-1.9130 Y2.9767  
G01 X-1.9100 Y2.9707  
G01 X-1.9073 Y2.9626  
G01 X-1.9060 Y2.9542  
G01 X-1.9060 Y2.5857  
G01 X-1.9073 Y2.5774  
G01 X-1.9100 Y2.5693  
G01 X-1.9138 Y2.5617  
G01 X-1.9188 Y2.5548  
G01 X-1.9248 Y2.5488  
G01 X-1.9317 Y2.5438  
G01 X-1.9393 Y2.5400  
G01 X-1.9474 Y2.5373  
G01 X-1.9558 Y2.5360  
G01 X-1.9642 Y2.5360  
G01 X-1.9726 Y2.5373  
G01 X-1.9807 Y2.5400  
G01 X-1.9883 Y2.5438  
G01 X-1.9952 Y2.5488  
G01 X-2.0012 Y2.5548  
G01 X-2.0062 Y2.5617  
G01 X-2.0100 Y2.5693  
G01 X-2.0127 Y2.5774  
G01 X-2.0140 Y2.5857  
G01 X-2.0140 Y2.8714  
G01 X-2.0188 Y2.8648  
G01 X-2.1788 Y2.7048  
G01 X-2.1848 Y2.6988  
G01 X-2.1917 Y2.6938  
G01 X-2.1993 Y2.6900  
G01 X-2.2074 Y2.6873  
G01 X-2.2157 Y2.6860  
G01 X-2.5142 Y2.6860  
G01 X-2.5226 Y2.6873  
G01 X-2.5307 Y2.6900  
G01 X-2.5383 Y2.6938  
G01 X-2.5452 Y2.6988  
G01 X-2.5512 Y2.7048  
G01 X-2.5562 Y2.7117  
G01 X-2.5600 Y2.7193  
G01 X-2.5627 Y2.7274  
G01 X-2.5640 Y2.7357  
G01 X-2.5640 Y2.7442  
G01 X-2.5627 Y2.7526  
G01 X-2.5600 Y2.7607  
G01 X-2.5562 Y2.7683  
G01 X-2.5512 Y2.7752  
G01 X-2.5452 Y2.7812  
G01 X-2.5383 Y2.7862  
G01 X-2.5307 Y2.7900  
G01 X-2.5226 Y2.7927  
G01 X-2.5142 Y2.7940  
G01 X-2.2424 Y2.7940  
G01 X-2.1594 Y2.8770  
G01 X-2.1637 Y2.8770  
G01 X-2.1710 Y2.8782  
G01 X-2.1780 Y2.8804  
G01 X-2.1846 Y2.8838  
G01 X-2.1906 Y2.8882  
G01 X-2.1958 Y2.8934  
G01 X-2.1978 Y2.8960  
G01 X-2.3542 Y2.8960  
G01 X-2.3626 Y2.8973  
G01 X-2.3707 Y2.9000  
G01 X-2.3783 Y2.9038  
G01 X-2.3852 Y2.9088  
G01 X-2.4624 Y2.9860  
G01 X-2.7042 Y2.9860  
G01 X-2.7126 Y2.9873  
G01 X-2.7207 Y2.9900  
G01 X-2.7283 Y2.9938  
G01 X-2.7352 Y2.9988  
G01 X-2.7412 Y3.0048  
G01 X-2.7462 Y3.0117  
G01 X-2.7500 Y3.0193  
G01 X-2.7527 Y3.0274  
G01 X-2.7540 Y3.0358  
G01 X-2.7540 Y3.0442  
G01 X-2.7527 Y3.0526  
G01 X-2.7500 Y3.0607  
G01 X-2.7462 Y3.0683  
G01 X-2.7412 Y3.0752  
G01 X-2.7352 Y3.0812  
G01 X-2.7286 Y3.0860  
G01 X-3.2522 Y3.0860  
G01 X-3.2542 Y3.0834  
G01 X-3.2594 Y3.0782  
G01 X-3.2654 Y3.0738  
G01 X-3.2720 Y3.0704  
G01 X-3.2790 Y3.0682  
G01 X-3.2863 Y3.0670  
G01 X-3.2937 Y3.0670  
G01 X-3.3010 Y3.0682  
G01 X-3.3080 Y3.0704  
G01 X-3.3146 Y3.0738  
G01 X-3.3206 Y3.0782  
G01 X-3.3258 Y3.0834  
G01 X-3.3278 Y3.0860  
G01 X-4.5860 Y3.0860  
G01 X-4.5860 Y2.8778  
G01 X-4.5834 Y2.8758  
G01 X-4.5782 Y2.8706  
G01 X-4.5738 Y2.8646  
G01 X-4.5704 Y2.8580  
G01 X-4.5682 Y2.8510  
G01 X-4.5670 Y2.8437  
G01 X-4.5670 Y2.8363  
G01 X-4.5682 Y2.8290  
G01 X-4.5704 Y2.8220  
G01 X-4.5738 Y2.8154  
G01 X-4.5782 Y2.8094  
G01 X-4.5834 Y2.8042  
G01 X-4.5894 Y2.7998  
G01 X-4.5960 Y2.7964  
G01 X-4.6030 Y2.7942  
G01 X-4.6040 Y2.7940  
G01 X-4.1857 Y2.7940  
G01 X-4.1774 Y2.7927  
G01 X-4.1693 Y2.7900  
G01 X-4.1617 Y2.7862  
G01 X-4.1548 Y2.7812  
G01 X-4.1488 Y2.7752  
G01 X-4.1438 Y2.7683  
G01 X-4.1400 Y2.7607  
G01 X-4.1373 Y2.7526  
G01 X-4.1360 Y2.7442  
G01 X-4.1360 Y2.7357  
G01 X-4.1373 Y2.7274  
G01 X-4.1400 Y2.7193  
G01 X-4.1438 Y2.7117  
G01 X-4.1488 Y2.7048  
G01 X-4.1548 Y2.6988  
G01 X-4.1617 Y2.6938  
G01 X-4.1693 Y2.6900  
G01 X-4.1774 Y2.6873  
G01 X-4.1857 Y2.6860  
G01 X-4.6040 Y2.6860  
G01 X-4.6030 Y2.6858  
G01 X-4.5960 Y2.6836  
G01 X-4.5894 Y2.6802  
G01 X-4.5834 Y2.6758  
G01 X-4.5782 Y2.6706  
G01 X-4.5738 Y2.6646  
G01 X-4.5704 Y2.6580  
G01 X-4.5682 Y2.6510  
G01 X-4.5670 Y2.6437  
G01 X-4.5670 Y2.6363  
G01 X-4.5682 Y2.6290  
G01 X-4.5704 Y2.6220  
G01 X-4.5738 Y2.6154  
G01 X-4.5782 Y2.6094  
G01 X-4.5834 Y2.6042  
G01 X-4.5860 Y2.6022  
G01 X-4.5860 Y2.2378  
G01 X-4.5834 Y2.2358  
G01 X-4.5782 Y2.2306  
G01 X-4.5738 Y2.2246  
G01 X-4.5704 Y2.2180  
G01 X-4.5682 Y2.2110  
G01 X-4.5670 Y2.2037  
G01 X-4.5670 Y2.1963  
G01 X-4.5682 Y2.1890  
G01 X-4.5704 Y2.1820  
G01 X-4.5738 Y2.1754  
G01 X-4.5782 Y2.1694  
G01 X-4.5834 Y2.1642  
G01 X-4.5894 Y2.1598  
G01 X-4.5960 Y2.1564  
G01 X-4.6030 Y2.1542  
G01 X-4.6040 Y2.1540  
G01 X-4.1757 Y2.1540  
G01 X-4.1674 Y2.1527  
G01 X-4.1593 Y2.1500  
G01 X-4.1517 Y2.1462  
G01 X-4.1448 Y2.1412  
G01 X-4.1388 Y2.1352  
G01 X-4.1338 Y2.1283  
G01 X-4.1300 Y2.1207  
G01 X-4.1273 Y2.1126  
G01 X-4.1260 Y2.1042  
G01 X-4.1260 Y2.0957  
G01 X-4.1273 Y2.0874  
G01 X-4.1300 Y2.0793  
G01 X-4.1338 Y2.0717  
G01 X-4.1388 Y2.0648  
G01 X-4.1448 Y2.0588  
G01 X-4.1517 Y2.0538  
G01 X-4.1593 Y2.0500  
G01 X-4.1674 Y2.0473  
G01 X-4.1757 Y2.0460  
G01 X-4.6040 Y2.0460  
G01 X-4.6030 Y2.0458  
G01 X-4.5960 Y2.0436  
G01 X-4.5894 Y2.0402  
G01 X-4.5834 Y2.0358  
G01 X-4.5782 Y2.0306  
G01 X-4.5738 Y2.0246  
G01 X-4.5704 Y2.0180  
G01 X-4.5682 Y2.0110  
G01 X-4.5670 Y2.0037  
G01 X-4.5670 Y1.9963  
G01 X-4.5682 Y1.9890  
G01 X-4.5704 Y1.9820  
G01 X-4.5738 Y1.9754  
G01 X-4.5782 Y1.9694  
G01 X-4.5834 Y1.9642  
G01 X-4.5860 Y1.9622  
G01 X-4.5860 Y1.7540  
G01 X-3.3178 Y1.7540  
G01 X-3.3158 Y1.7566  
G01 X-3.3106 Y1.7618  
G01 X-3.3046 Y1.7662  
G01 X-3.2980 Y1.7696  
G01 X-3.2910 Y1.7718  
G01 X-3.2837 Y1.7730  
G01 X-3.2763 Y1.7730  
G01 X-3.2690 Y1.7718  
G01 X-3.2620 Y1.7696  
G01 X-3.2554 Y1.7662  
G01 X-3.2494 Y1.7618  
G01 X-3.2442 Y1.7566  
G01 X-3.2398 Y1.7506  
G01 X-3.2364 Y1.7440  
G01 X-3.0457 Y1.7440  
G01 X-3.0374 Y1.7427  
G01 X-3.0293 Y1.7400  
G01 X-3.0217 Y1.7362  
G01 X-3.0148 Y1.7312  
G01 X-3.0088 Y1.7252  
G01 X-2.9676 Y1.6840  
G01 X-2.7604 Y1.6840  
G01 X-2.7612 Y1.6848  
G01 X-2.7662 Y1.6917  
G01 X-2.7700 Y1.6993  
G01 X-2.7727 Y1.7074  
G01 X-2.7740 Y1.7158  
G01 X-2.7740 Y1.7876  
G01 X-3.0324 Y2.0460  
G01 X-3.2422 Y2.0460  
G01 X-3.2442 Y2.0434  
G01 X-3.2494 Y2.0382  
G01 X-3.2554 Y2.0338  
G01 X-3.2620 Y2.0304  
G01 X-3.2690 Y2.0282  
G01 X-3.2763 Y2.0270  
G01 X-3.2837 Y2.0270  
G01 X-3.2910 Y2.0282  
G01 X-3.2980 Y2.0304  
G01 X-3.3046 Y2.0338  
G01 X-3.3106 Y2.0382  
G01 X-3.3158 Y2.0434  
G01 X-3.3178 Y2.0460  
G01 X-3.6842 Y2.0460  
G01 X-3.6926 Y2.0473  
G01 X-3.7007 Y2.0500  
G01 X-3.7083 Y2.0538  
G01 X-3.7152 Y2.0588  
G01 X-3.7212 Y2.0648  
G01 X-3.7262 Y2.0717  
G01 X-3.7300 Y2.0793  
G01 X-3.7327 Y2.0874  
G01 X-3.7340 Y2.0957  
G01 X-3.7340 Y2.1042  
G01 X-3.7327 Y2.1126  
G01 X-3.7300 Y2.1207  
G01 X-3.7262 Y2.1283  
G01 X-3.7212 Y2.1352  
G01 X-3.7152 Y2.1412  
G01 X-3.7083 Y2.1462  
G01 X-3.7007 Y2.1500  
G01 X-3.6926 Y2.1527  
G01 X-3.6842 Y2.1540  
G01 X-3.3178 Y2.1540  
G01 X-3.3158 Y2.1566  
G01 X-3.3106 Y2.1618  
G01 X-3.3046 Y2.1662  
G01 X-3.2980 Y2.1696  
G01 X-3.2910 Y2.1718  
G01 X-3.2837 Y2.1730  
G01 X-3.2763 Y2.1730  
G01 X-3.2690 Y2.1718  
G01 X-3.2620 Y2.1696  
G01 X-3.2554 Y2.1662  
G01 X-3.2494 Y2.1618  
G01 X-3.2442 Y2.1566  
G01 X-3.2422 Y2.1540  
G01 X-3.0057 Y2.1540  
G01 X-2.9974 Y2.1527  
G01 X-2.9893 Y2.1500  
G01 X-2.9817 Y2.1462  
G01 X-2.9748 Y2.1412  
G01 X-2.6848 Y1.8512  
G01 X-2.6788 Y1.8452  
G01 X-2.6738 Y1.8383  
G01 X-2.6700 Y1.8307  
G01 X-2.6673 Y1.8226  
G01 X-2.6660 Y1.8142  
G01 X-2.6660 Y1.7158  
G01 X-2.6673 Y1.7074  
G01 X-2.6700 Y1.6993  
G01 X-2.6738 Y1.6917  
G01 X-2.6788 Y1.6848  
G01 X-2.6796 Y1.6840  
G01 X-2.1458 Y1.6840  
G01 X-2.1374 Y1.6827  
G01 X-2.1293 Y1.6800  
G01 X-2.1217 Y1.6762  
G01 X-2.1148 Y1.6712  
G01 X-2.1088 Y1.6652  
G01 X-1.9788 Y1.5352  
G01 X-1.9738 Y1.5283  
G01 X-1.9700 Y1.5207  
G01 X-1.9673 Y1.5126  
G01 X-1.9660 Y1.5042  
G01 X-1.9660 Y1.4760  
G01 X-1.9658 Y1.4770  
G01 X-1.9636 Y1.4840  
G01 X-1.9602 Y1.4906  
G01 X-1.9558 Y1.4966  
G01 X-1.9506 Y1.5018  
G01 X-1.9446 Y1.5062  
G01 X-1.9420 Y1.5075  
G01 X-1.9420 Y1.5103  
G01 X-1.9473 Y1.5301  
G01 X-1.9576 Y1.5479  
G01 X-2.0829 Y1.6732  
G01 X-2.0848 Y1.6751  
G01 X-2.0869 Y1.6772  
G01 X-2.1021 Y1.6924  
G01 X-2.1199 Y1.7027  
G01 X-2.1397 Y1.7080  
G01 X-2.6159 Y1.7080  
G01 X-2.6215 Y1.7091  
G01 X-2.6267 Y1.7113  
G01 X-2.6315 Y1.7145  
G01 X-2.6355 Y1.7185  
G01 X-2.6387 Y1.7233  
G01 X-2.6409 Y1.7285  
G01 X-2.6420 Y1.7341  
G01 X-2.6420 Y1.8203  
G01 X-2.6473 Y1.8401  
G01 X-2.6576 Y1.8579  
G01 X-2.6728 Y1.8731  
G01 X-2.9621 Y2.1624  
G01 X-2.9799 Y2.1727  
G01 X-2.9997 Y2.1780  
G01 X-3.2224 Y2.1780  
G01 X-3.2265 Y2.1788  
G01 X-3.2280 Y2.1791  
G01 X-3.2333 Y2.1813  
G01 X-3.2357 Y2.1829  
G01 X-3.2381 Y2.1845  
G01 X-3.2398 Y2.1862  
G01 X-3.2659 Y2.1970  
G01 X-3.2941 Y2.1970  
G01 X-3.3202 Y2.1862  
G01 X-3.3219 Y2.1845  
G01 X-3.3243 Y2.1829  
G01 X-3.3267 Y2.1813  
G01 X-3.3320 Y2.1791  
G01 X-3.3333 Y2.1788  
G01 X-3.3376 Y2.1780  
G01 X-3.6903 Y2.1780  
G01 X-3.7101 Y2.1727  
G01 X-3.7279 Y2.1624  
G01 X-3.7424 Y2.1479  
G01 X-3.7527 Y2.1301  
G01 X-3.7580 Y2.1103  
G01 X-3.7580 Y2.0897  
G01 X-3.7527 Y2.0699  
G01 X-3.7424 Y2.0521  
G01 X-3.7279 Y2.0376  
G01 X-3.7101 Y2.0273  
G01 X-3.6903 Y2.0220  
G01 X-3.3376 Y2.0220  
G01 X-3.3335 Y2.0212  
G01 X-3.3320 Y2.0209  
G01 X-3.3267 Y2.0187  
G01 X-3.3243 Y2.0171  
G01 X-3.3219 Y2.0155  
G01 X-3.3202 Y2.0138  
G01 X-3.2941 Y2.0030  
G01 X-3.2659 Y2.0030  
G01 X-3.2398 Y2.0138  
G01 X-3.2381 Y2.0155  
G01 X-3.2357 Y2.0171  
G01 X-3.2333 Y2.0187  
G01 X-3.2280 Y2.0209  
G01 X-3.2267 Y2.0212  
G01 X-3.2224 Y2.0220  
G01 X-3.0515 Y2.0220  
G01 X-3.0459 Y2.0209  
G01 X-3.0406 Y2.0187  
G01 X-3.0358 Y2.0155  
G01 X-2.8045 Y1.7842  
G01 X-2.8013 Y1.7794  
G01 X-2.7991 Y1.7741  
G01 X-2.7980 Y1.7685  
G01 X-2.7980 Y1.7341  
G01 X-2.7991 Y1.7285  
G01 X-2.8013 Y1.7233  
G01 X-2.8045 Y1.7185  
G01 X-2.8085 Y1.7145  
G01 X-2.8133 Y1.7113  
G01 X-2.8185 Y1.7091  
G01 X-2.8241 Y1.7080  
G01 X-2.9485 Y1.7080  
G01 X-2.9541 Y1.7091  
G01 X-2.9594 Y1.7113  
G01 X-2.9642 Y1.7145  
G01 X-2.9682 Y1.7185  
G01 X-2.9869 Y1.7372  
G01 X-3.0021 Y1.7524  
G01 X-3.0199 Y1.7627  
G01 X-3.0397 Y1.7680  
G01 X-3.2124 Y1.7680  
G01 X-3.2135 Y1.7682  
G01 X-3.2180 Y1.7691  
G01 X-3.2212 Y1.7704  
G01 X-3.2233 Y1.7713  
G01 X-3.2264 Y1.7734  
G01 X-3.2281 Y1.7745  
G01 X-3.2321 Y1.7785  
G01 X-3.2398 Y1.7862  
G01 X-3.2659 Y1.7970  
G01 X-3.2941 Y1.7970  
G01 X-3.3202 Y1.7862  
G01 X-3.3219 Y1.7845  
G01 X-3.3243 Y1.7829  
G01 X-3.3267 Y1.7813  
G01 X-3.3320 Y1.7791  
G01 X-3.3333 Y1.7788  
G01 X-3.3376 Y1.7780  
G01 X-4.5359 Y1.7780  
G01 X-4.5415 Y1.7791  
G01 X-4.5467 Y1.7813  
G01 X-4.5515 Y1.7845  
G01 X-4.5555 Y1.7885  
G01 X-4.5587 Y1.7933  
G01 X-4.5609 Y1.7985  
G01 X-4.5620 Y1.8041  
G01 X-4.5620 Y1.9424  
G01 X-4.5609 Y1.9480  
G01 X-4.5587 Y1.9533  
G01 X-4.5555 Y1.9581  
G01 X-4.5538 Y1.9598  
G01 X-4.5430 Y1.9859  
G01 X-4.5430 Y1.9959  
G01 X-4.5419 Y2.0015  
G01 X-4.5397 Y2.0067  
G01 X-4.5365 Y2.0115  
G01 X-4.5325 Y2.0155  
G01 X-4.5277 Y2.0187  
G01 X-4.5225 Y2.0209  
G01 X-4.5169 Y2.0220  
G01 X-4.1697 Y2.0220  
G01 X-4.1499 Y2.0273  
G01 X-4.1321 Y2.0376  
G01 X-4.1176 Y2.0521  
G01 X-4.1073 Y2.0699  
G01 X-4.1020 Y2.0897  
G01 X-4.1020 Y2.1103  
G01 X-4.1073 Y2.1301  
G01 X-4.1176 Y2.1479  
G01 X-4.1321 Y2.1624  
G01 X-4.1499 Y2.1727  
G01 X-4.1697 Y2.1780  
G01 X-4.5169 Y2.1780  
G01 X-4.5225 Y2.1791  
G01 X-4.5277 Y2.1813  
G01 X-4.5325 Y2.1845  
G01 X-4.5365 Y2.1885  
G01 X-4.5397 Y2.1933  
G01 X-4.5419 Y2.1985  
G01 X-4.5430 Y2.2041  
G01 X-4.5430 Y2.2141  
G01 X-4.5538 Y2.2402  
G01 X-4.5555 Y2.2419  
G01 X-4.5571 Y2.2443  
G01 X-4.5587 Y2.2467  
G01 X-4.5609 Y2.2520  
G01 X-4.5612 Y2.2533  
G01 X-4.5620 Y2.2576  
G01 X-4.5620 Y2.5824  
G01 X-4.5612 Y2.5865  
G01 X-4.5609 Y2.5880  
G01 X-4.5587 Y2.5933  
G01 X-4.5571 Y2.5957  
G01 X-4.5555 Y2.5981  
G01 X-4.5538 Y2.5998  
G01 X-4.5430 Y2.6259  
G01 X-4.5430 Y2.6359  
G01 X-4.5419 Y2.6415  
G01 X-4.5397 Y2.6467  
G01 X-4.5365 Y2.6515  
G01 X-4.5325 Y2.6555  
G01 X-4.5277 Y2.6587  
G01 X-4.5225 Y2.6609  
G01 X-4.5169 Y2.6620  
G01 X-4.1797 Y2.6620  
G01 X-4.1599 Y2.6673  
G01 X-4.1421 Y2.6776  
G01 X-4.1276 Y2.6921  
G01 X-4.1173 Y2.7099  
G01 X-4.1120 Y2.7297  
G01 X-4.1120 Y2.7503  
G01 X-4.1173 Y2.7701  
G01 X-4.1276 Y2.7879  
G01 X-4.1421 Y2.8024  
G01 X-4.1599 Y2.8127  
G01 X-4.1797 Y2.8180  
G01 X-4.5169 Y2.8180  
G01 X-4.5225 Y2.8191  
G01 X-4.5277 Y2.8213  
G01 X-4.5325 Y2.8245  
G01 X-4.5365 Y2.8285  
G01 X-4.5397 Y2.8333  
G01 X-4.5419 Y2.8385  
G01 X-4.5430 Y2.8441  
G01 X-4.5430 Y2.8541  
G01 X-4.5538 Y2.8802  
G01 X-4.5555 Y2.8819  
G01 X-4.5587 Y2.8867  
G01 X-4.5609 Y2.8920  
G01 X-4.5620 Y2.8976  
G01 X-4.5620 Y3.0359  
G01 X-4.5609 Y3.0415  
G01 X-4.5587 Y3.0467  
G01 X-4.5555 Y3.0515  
G01 X-4.5515 Y3.0555  
G01 X-4.5467 Y3.0587  
G01 X-4.5415 Y3.0609  
G01 X-4.5359 Y3.0620  
G01 X-3.3476 Y3.0620  
G01 X-3.3420 Y3.0609  
G01 X-3.3367 Y3.0587  
G01 X-3.3319 Y3.0555  
G01 X-3.3302 Y3.0538  
G01 X-3.3041 Y3.0430  
G01 X-3.2759 Y3.0430  
G01 X-3.2498 Y3.0538  
G01 X-3.2481 Y3.0555  
G01 X-3.2433 Y3.0587  
G01 X-3.2380 Y3.0609  
G01 X-3.2324 Y3.0620  
G01 X-2.8041 Y3.0620  
G01 X-2.7985 Y3.0609  
G01 X-2.7933 Y3.0587  
G01 X-2.7885 Y3.0555  
G01 X-2.7845 Y3.0515  
G01 X-2.7813 Y3.0467  
G01 X-2.7791 Y3.0415  
G01 X-2.7780 Y3.0359  
G01 X-2.7780 Y3.0297  
G01 X-2.7727 Y3.0099  
G01 X-2.7624 Y2.9921  
G01 X-2.7479 Y2.9776  
G01 X-2.7301 Y2.9673  
G01 X-2.7103 Y2.9620  
G01 X-2.4815 Y2.9620  
G01 X-2.4759 Y2.9609  
G01 X-2.4706 Y2.9587  
G01 X-2.4658 Y2.9555  
G01 X-2.4618 Y2.9515  
G01 X-2.3979 Y2.8876  
G01 X-2.3801 Y2.8773  
G01 X-2.3724 Y2.8753  
G01 X-2.3706 Y2.8749  
G01 X-2.3697 Y2.8745  
G01 X-2.3687 Y2.8743  
G01 X-2.3670 Y2.8734  
G01 X-2.3653 Y2.8727  
G01 X-2.3645 Y2.8722  
G01 X-2.3636 Y2.8717  
G01 X-2.3621 Y2.8706  
G01 X-2.3605 Y2.8695  
G01 X-2.3599 Y2.8688  
G01 X-2.3591 Y2.8683  
G01 X-2.3578 Y2.8668  
G01 X-2.3565 Y2.8655  
G01 X-2.3560 Y2.8647  
G01 X-2.3553 Y2.8640  
G01 X-2.3544 Y2.8623  
G01 X-2.3533 Y2.8607  
G01 X-2.3529 Y2.8599  
G01 X-2.3525 Y2.8590  
G01 X-2.3519 Y2.8572  
G01 X-2.3511 Y2.8555  
G01 X-2.3509 Y2.8545  
G01 X-2.3506 Y2.8536  
G01 X-2.3504 Y2.8517  
G01 X-2.3500 Y2.8499  
G01 X-2.3500 Y2.8489  
G01 X-2.3499 Y2.8480  
G01 X-2.3500 Y2.8461  
G01 X-2.3500 Y2.8441  
G01 X-2.3502 Y2.8432  
G01 X-2.3503 Y2.8423  
G01 X-2.3508 Y2.8404  
G01 X-2.3511 Y2.8385  
G01 X-2.3515 Y2.8377  
G01 X-2.3517 Y2.8367  
G01 X-2.3526 Y2.8350  
G01 X-2.3533 Y2.8333  
G01 X-2.3538 Y2.8325  
G01 X-2.3543 Y2.8316  
G01 X-2.3554 Y2.8301  
G01 X-2.3565 Y2.8285  
G01 X-2.3572 Y2.8278  
G01 X-2.3577 Y2.8271  
G01 X-2.3592 Y2.8258  
G01 X-2.3605 Y2.8245  
G01 X-2.3613 Y2.8239  
G01 X-2.3620 Y2.8233  
G01 X-2.3637 Y2.8224  
G01 X-2.3653 Y2.8213  
G01 X-2.3662 Y2.8209  
G01 X-2.3670 Y2.8205  
G01 X-2.3688 Y2.8198  
G01 X-2.3706 Y2.8191  
G01 X-2.3715 Y2.8189  
G01 X-2.3724 Y2.8186  
G01 X-2.3743 Y2.8184  
G01 X-2.3762 Y2.8180  
G01 X-2.3771 Y2.8180  
G01 X-2.3781 Y2.8179  
G01 X-2.3800 Y2.8180  
G01 X-2.5203 Y2.8180  
G01 X-2.5401 Y2.8127  
G01 X-2.5579 Y2.8024  
G01 X-2.5724 Y2.7879  
G01 X-2.5830 Y2.7695  
G01 X-2.5837 Y2.7677  
G01 X-2.5840 Y2.7671  
G01 X-2.5843 Y2.7665  
G01 X-2.5855 Y2.7647  
G01 X-2.5866 Y2.7628  
G01 X-2.5871 Y2.7623  
G01 X-2.5875 Y2.7617  
G01 X-2.5890 Y2.7602  
G01 X-2.5904 Y2.7586  
G01 X-2.5910 Y2.7582  
G01 X-2.5915 Y2.7577  
G01 X-2.5933 Y2.7565  
G01 X-2.5950 Y2.7552  
G01 X-2.5957 Y2.7549  
G01 X-2.5963 Y2.7545  
G01 X-2.5982 Y2.7537  
G01 X-2.6002 Y2.7528  
G01 X-2.6009 Y2.7526  
G01 X-2.6015 Y2.7523  
G01 X-2.6037 Y2.7519  
G01 X-2.6057 Y2.7514  
G01 X-2.6064 Y2.7513  
G01 X-2.6071 Y2.7512  
G01 X-2.6093 Y2.7512  
G01 X-2.6114 Y2.7511  
G01 X-2.6121 Y2.7512  
G01 X-2.6129 Y2.7512  
G01 X-2.6150 Y2.7516  
G01 X-2.6171 Y2.7519  
G01 X-2.6178 Y2.7522  
G01 X-2.6185 Y2.7523  
G01 X-2.6204 Y2.7531  
G01 X-2.6225 Y2.7539  
G01 X-2.6231 Y2.7542  
G01 X-2.6237 Y2.7545  
G01 X-2.6255 Y2.7557  
G01 X-2.6274 Y2.7568  
G01 X-2.6279 Y2.7573  
G01 X-2.6285 Y2.7577  
G01 X-2.6300 Y2.7592  
G01 X-2.6316 Y2.7607  
G01 X-2.6320 Y2.7612  
G01 X-2.6325 Y2.7617  
G01 X-2.6337 Y2.7635  
G01 X-2.6350 Y2.7652  
G01 X-2.6353 Y2.7659  
G01 X-2.6357 Y2.7665  
G01 X-2.6365 Y2.7685  
G01 X-2.6372 Y2.7700  
G01 X-2.6476 Y2.7879  
G01 X-2.6621 Y2.8024  
G01 X-2.6799 Y2.8127  
G01 X-2.6997 Y2.8180  
G01 X-3.2324 Y2.8180  
G01 X-3.2380 Y2.8191  
G01 X-3.2433 Y2.8213  
G01 X-3.2481 Y2.8245  
G01 X-3.2498 Y2.8262  
G01 X-3.2759 Y2.8370  
G01 X-3.3041 Y2.8370  
G01 X-3.3302 Y2.8262  
G01 X-3.3319 Y2.8245  
G01 X-3.3367 Y2.8213  
G01 X-3.3420 Y2.8191  
G01 X-3.3476 Y2.8180  
G01 X-3.7003 Y2.8180  
G01 X-3.7201 Y2.8127  
G01 X-3.7379 Y2.8024  
G01 X-3.7524 Y2.7879  
G01 X-3.7627 Y2.7701  
G01 X-3.7680 Y2.7503  
G01 X-3.7680 Y2.7297  
G01 X-3.7627 Y2.7099  
G01 X-3.7524 Y2.6921  
G01 X-3.7379 Y2.6776  
G01 X-3.7201 Y2.6673  
G01 X-3.7003 Y2.6620  
G01 X-3.3476 Y2.6620  
G01 X-3.3420 Y2.6609  
G01 X-3.3367 Y2.6587  
G01 X-3.3319 Y2.6555  
G01 X-3.3302 Y2.6538  
G01 X-3.3041 Y2.6430  
G01 X-3.2759 Y2.6430  
G01 X-3.2498 Y2.6538  
G01 X-3.2481 Y2.6555  
G01 X-3.2433 Y2.6587  
G01 X-3.2380 Y2.6609  
G01 X-3.2324 Y2.6620  
G01 X-2.6997 Y2.6620  
G01 X-2.6799 Y2.6673  
G01 X-2.6621 Y2.6776  
G01 X-2.6476 Y2.6921  
G01 X-2.6372 Y2.7100  
G01 X-2.6365 Y2.7115  
G01 X-2.6357 Y2.7135  
G01 X-2.6353 Y2.7141  
G01 X-2.6350 Y2.7148  
G01 X-2.6337 Y2.7165  
G01 X-2.6325 Y2.7183  
G01 X-2.6320 Y2.7188  
G01 X-2.6316 Y2.7193  
G01 X-2.6300 Y2.7208  
G01 X-2.6285 Y2.7223  
G01 X-2.6279 Y2.7227  
G01 X-2.6274 Y2.7232  
G01 X-2.6255 Y2.7243  
G01 X-2.6237 Y2.7255  
G01 X-2.6231 Y2.7258  
G01 X-2.6225 Y2.7261  
G01 X-2.6204 Y2.7269  
G01 X-2.6185 Y2.7277  
G01 X-2.6178 Y2.7278  
G01 X-2.6171 Y2.7281  
G01 X-2.6150 Y2.7284  
G01 X-2.6129 Y2.7288  
G01 X-2.6121 Y2.7288  
G01 X-2.6114 Y2.7289  
G01 X-2.6093 Y2.7288  
G01 X-2.6071 Y2.7288  
G01 X-2.6064 Y2.7287  
G01 X-2.6057 Y2.7286  
G01 X-2.6037 Y2.7281  
G01 X-2.6015 Y2.7277  
G01 X-2.6009 Y2.7274  
G01 X-2.6002 Y2.7272  
G01 X-2.5982 Y2.7263  
G01 X-2.5963 Y2.7255  
G01 X-2.5957 Y2.7251  
G01 X-2.5950 Y2.7248  
G01 X-2.5933 Y2.7235  
G01 X-2.5915 Y2.7223  
G01 X-2.5910 Y2.7218  
G01 X-2.5904 Y2.7214  
G01 X-2.5890 Y2.7198  
G01 X-2.5875 Y2.7183  
G01 X-2.5871 Y2.7177  
G01 X-2.5866 Y2.7172  
G01 X-2.5855 Y2.7153  
G01 X-2.5843 Y2.7135  
G01 X-2.5840 Y2.7129  
G01 X-2.5837 Y2.7123  
G01 X-2.5830 Y2.7105  
G01 X-2.5724 Y2.6921  
G01 X-2.5579 Y2.6776  
G01 X-2.5401 Y2.6673  
G01 X-2.5203 Y2.6620  
G01 X-2.2097 Y2.6620  
G01 X-2.1899 Y2.6673  
G01 X-2.1721 Y2.6776  
G01 X-2.1558 Y2.6939  
G01 X-2.0895 Y2.7602  
G01 X-2.0866 Y2.7631  
G01 X-2.0855 Y2.7642  
G01 X-2.0807 Y2.7674  
G01 X-2.0755 Y2.7696  
G01 X-2.0699 Y2.7707  
G01 X-2.0641 Y2.7707  
G01 X-2.0589 Y2.7696  
G01 X-2.0585 Y2.7696  
G01 X-2.0533 Y2.7674  
G01 X-2.0485 Y2.7642  
G01 X-2.0445 Y2.7602  
G01 X-2.0413 Y2.7554  
G01 X-2.0391 Y2.7501  
G01 X-2.0380 Y2.7445  
G01 X-2.0380 Y2.5797  
G01 X-2.0327 Y2.5599  
G01 X-2.0224 Y2.5421  
G01 X-2.0079 Y2.5276  
G01 X-1.9901 Y2.5173  
G01 X-1.9898 Y2.5172  
G01 X-1.9882 Y2.5164  
G01 X-1.9865 Y2.5157  
G01 X-1.9856 Y2.5151  
G01 X-1.9847 Y2.5147  
G01 X-1.9832 Y2.5135  
G01 X-1.9817 Y2.5125  
G01 X-1.9810 Y2.5118  
G01 X-1.9802 Y2.5112  
G01 X-1.9790 Y2.5098  
G01 X-1.9777 Y2.5085  
G01 X-1.9771 Y2.5076  
G01 X-1.9764 Y2.5068  
G01 X-1.9755 Y2.5053  
G01 X-1.9745 Y2.5037  
G01 X-1.9741 Y2.5028  
G01 X-1.9736 Y2.5019  
G01 X-1.9730 Y2.5001  
G01 X-1.9723 Y2.4985  
G01 X-1.9721 Y2.4974  
G01 X-1.9718 Y2.4965  
G01 X-1.9716 Y2.4946  
G01 X-1.9712 Y2.4929  
G01 X-1.9712 Y2.4918  
G01 X-1.9711 Y2.4908  
G01 X-1.9712 Y2.4890  
G01 X-1.9712 Y2.4871  
G01 X-1.9714 Y2.4861  
G01 X-1.9715 Y2.4851  
G01 X-1.9720 Y2.4833  
G01 X-1.9723 Y2.4815  
G01 X-1.9727 Y2.4806  
G01 X-1.9730 Y2.4796  
G01 X-1.9738 Y2.4780  
G01 X-1.9745 Y2.4763  
G01 X-1.9751 Y2.4754  
G01 X-1.9755 Y2.4745  
G01 X-1.9767 Y2.4730  
G01 X-1.9777 Y2.4715  
G01 X-1.9784 Y2.4708  
G01 X-1.9791 Y2.4700  
G01 X-1.9804 Y2.4688  
G01 X-1.9817 Y2.4675  
G01 X-1.9826 Y2.4669  
G01 X-1.9834 Y2.4662  
G01 X-1.9850 Y2.4653  
G01 X-1.9865 Y2.4643  
G01 X-1.9874 Y2.4639  
G01 X-1.9883 Y2.4634  
G01 X-1.9896 Y2.4630  
G01 X-2.0079 Y2.4524  
G01 X-2.0224 Y2.4379  
G01 X-2.0327 Y2.4201  
G01 X-2.0380 Y2.4003  
G01 X-2.0380 Y2.0697  
G01 X-2.0327 Y2.0499  
G01 X-2.0224 Y2.0321  
G01 X-1.5579 Y1.5676  
G01 X-1.5401 Y1.5573  
G01 X-1.5203 Y1.5520  
G01 X-1.3748 Y1.5520  
G01 X-1.3739 Y1.5521  
G01 X-1.3720 Y1.5520  
G01 X-1.3701 Y1.5520  
G01 X-1.3691 Y1.5518  
G01 X-1.3682 Y1.5518  
G01 X-1.3663 Y1.5513  
G01 X-1.3645 Y1.5509  
G01 X-1.3636 Y1.5505  
G01 X-1.3627 Y1.5503  
G01 X-1.3609 Y1.5494  
G01 X-1.3592 Y1.5487  
G01 X-1.3584 Y1.5482  
G01 X-1.3575 Y1.5477  
G01 X-1.3560 Y1.5466  
G01 X-1.3544 Y1.5455  
G01 X-1.3538 Y1.5449  
G01 X-1.3530 Y1.5443  
G01 X-1.3517 Y1.5428  
G01 X-1.3504 Y1.5415  
G01 X-1.3499 Y1.5407  
G01 X-1.3492 Y1.5400  
G01 X-1.3483 Y1.5383  
G01 X-1.3472 Y1.5367  
G01 X-1.3469 Y1.5359  
G01 X-1.3464 Y1.5350  
G01 X-1.3458 Y1.5332  
G01 X-1.3450 Y1.5315  
G01 X-1.3448 Y1.5305  
G01 X-1.3445 Y1.5296  
G01 X-1.3443 Y1.5277  
G01 X-1.3439 Y1.5259  
G01 X-1.3439 Y1.5249  
G01 X-1.3438 Y1.5240  
G01 X-1.3439 Y1.5220  
G01 X-1.3439 Y1.5201  
G01 X-1.3441 Y1.5192  
G01 X-1.3442 Y1.5183  
G01 X-1.3447 Y1.5164  
G01 X-1.3450 Y1.5145  
G01 X-1.3454 Y1.5137  
G01 X-1.3456 Y1.5127  
G01 X-1.3465 Y1.5110  
G01 X-1.3472 Y1.5093  
G01 X-1.3478 Y1.5085  
G01 X-1.3482 Y1.5076  
G01 X-1.3493 Y1.5061  
G01 X-1.3504 Y1.5045  
G01 X-1.3511 Y1.5038  
G01 X-1.3517 Y1.5031  
G01 X-1.3531 Y1.5018  
G01 X-1.3544 Y1.5005  
G01 X-1.3552 Y1.4999  
G01 X-1.3559 Y1.4993  
G01 X-1.3576 Y1.4984  
G01 X-1.3592 Y1.4973  
G01 X-1.3601 Y1.4969  
G01 X-1.3679 Y1.4924  
G01 X-1.4772 Y1.3831  
G01 X-1.4924 Y1.3679  
G01 X-1.5027 Y1.3501  
G01 X-1.5080 Y1.3303  
G01 X-1.5080 Y1.2544  
G01 X-1.4888 Y1.2352  
G01 X-1.4840 Y1.2286  
G01 X-1.4840 Y1.3242  
G01 X-1.4827 Y1.3326  
G01 X-1.4800 Y1.3407  
G01 X-1.4762 Y1.3483  
G01 X-1.4712 Y1.3552  
G01 X-1.4652 Y1.3612  
G01 X-1.3552 Y1.4712  
G01 X-1.3483 Y1.4762  
G01 X-1.3407 Y1.4800  
G01 X-1.3326 Y1.4827  
G01 X-1.3242 Y1.4840  
G01 X-1.2060 Y1.4840  
G01 X-1.2070 Y1.4842  
G01 X-1.2140 Y1.4864  
G01 X-1.2206 Y1.4898  
G01 X-1.2266 Y1.4942  
G01 X-1.2318 Y1.4994  
G01 X-1.2362 Y1.5054  
G01 X-1.2396 Y1.5120  
G01 X-1.2418 Y1.5190  
G01 X-1.2430 Y1.5263  
G01 X-1.2430 Y1.5337  
G01 X-1.2418 Y1.5410  
G01 X-1.2396 Y1.5480  
G01 X-1.2362 Y1.5546  
G01 X-1.2318 Y1.5606  
G01 X-1.2266 Y1.5658  
G01 X-1.2206 Y1.5702  
G01 X-1.2140 Y1.5736  
G01 X-1.2070 Y1.5758  
G01 X-1.2060 Y1.5760  
G01 X-1.5142 Y1.5760  
G01 X-1.5226 Y1.5773  
G01 X-1.5307 Y1.5800  
G01 X-1.5383 Y1.5838  
G01 X-1.5452 Y1.5888  
G01 X-2.0012 Y2.0448  
G01 X-2.0062 Y2.0517  
G01 X-2.0100 Y2.0593  
G01 X-2.0127 Y2.0674  
G01 X-2.0140 Y2.0758  
G01 X-2.0140 Y2.3942  
G01 X-2.0127 Y2.4026  
G01 X-2.0100 Y2.4107  
G01 X-2.0062 Y2.4183  
G01 X-2.0012 Y2.4252  
G01 X-1.9952 Y2.4312  
G01 X-1.9883 Y2.4362  
G01 X-1.9807 Y2.4400  
G01 X-1.9726 Y2.4427  
G01 X-1.9642 Y2.4440  
G01 X-1.9558 Y2.4440  
G01 X-1.9474 Y2.4427  
G01 X-1.9393 Y2.4400  
G01 X-1.9317 Y2.4362  
G01 X-1.9248 Y2.4312  
G01 X-1.9188 Y2.4252  
G01 X-1.9138 Y2.4183  
G01 X-1.9100 Y2.4107  
G01 X-1.9073 Y2.4026  
G01 X-1.9060 Y2.3942  
G01 X-1.9060 Y2.1024  
G01 X-1.4876 Y1.6840  
G01 X-1.3186 Y1.6840  
G01 X-1.3252 Y1.6888  
G01 X-1.3312 Y1.6948  
G01 X-1.3362 Y1.7017  
G01 X-1.3400 Y1.7093  
G01 X-1.3427 Y1.7174  
G01 X-1.3440 Y1.7257  
G01 X-1.3440 Y2.9942  
G01 X-1.3427 Y3.0026  
G01 X-1.3400 Y3.0107  
G01 X-1.3362 Y3.0183  
G01 X-1.3312 Y3.0252  
G01 X-1.3252 Y3.0312  
G01 X-1.3183 Y3.0362  
G01 X-1.3107 Y3.0400  
G01 X-1.3026 Y3.0427  
G01 X-1.2942 Y3.0440  
G01 X-1.1864 Y3.0440  
G01 X-1.1832 Y3.0450  
G01 X-1.1744 Y3.0464  
G01 X-1.1656 Y3.0464  
G01 X-1.1568 Y3.0450  
G01 X-1.1483 Y3.0423  
G01 X-1.1404 Y3.0383  
G01 X-1.1332 Y3.0330  
G01 X-1.1270 Y3.0268  
G01 X-1.1217 Y3.0196  
G01 X-1.1177 Y3.0117  
G01 X-1.1150 Y3.0032  
G01 X-1.1136 Y2.9944  
G01 X-1.1136 Y2.9856  
G01 X-1.1150 Y2.9768  
G01 X-1.1177 Y2.9683  
G01 X-1.1217 Y2.9604  
G01 X-1.1270 Y2.9532  
G01 X-1.1332 Y2.9470  
G01 X-1.1404 Y2.9417  
G01 X-1.1483 Y2.9377  
G01 X-1.1568 Y2.9350  
G01 X-1.1656 Y2.9336  
G01 X-1.1744 Y2.9336  
G01 X-1.1832 Y2.9350  
G01 X-1.1864 Y2.9360  
G01 X-1.2360 Y2.9360  
G01 X-1.2360 Y1.7840  
G01 X-1.1658 Y1.7840  
G01 X-1.1574 Y1.7827  
G01 X-1.1493 Y1.7800  
G01 X-1.1433 Y1.7770  
G01 X-1.1403 Y1.7770  
G01 X-1.1330 Y1.7758  
G01 X-1.1260 Y1.7736  
G01 X-1.1194 Y1.7702  
G01 X-1.1134 Y1.7658  
G01 X-1.1082 Y1.7606  
G01 X-1.1038 Y1.7546  
G01 X-1.1004 Y1.7480  
G01 X-1.0982 Y1.7410  
G01 X-1.0970 Y1.7337  
G01 X-1.0970 Y1.7263  
G01 X-1.0982 Y1.7190  
G01 X-1.1004 Y1.7120  
G01 X-1.1038 Y1.7054  
G01 X-1.1082 Y1.6994  
G01 X-1.1134 Y1.6942  
G01 X-1.1194 Y1.6898  
G01 X-1.1260 Y1.6864  
G01 X-1.1330 Y1.6842  
G01 X-1.1403 Y1.6830  
G01 X-1.1433 Y1.6830  
G01 X-1.1492 Y1.6800  
G01 X-1.1433 Y1.6770  
G01 X-1.1403 Y1.6770  
G01 X-1.1330 Y1.6758  
G01 X-1.1260 Y1.6736  
G01 X-1.1194 Y1.6702  
G01 X-1.1134 Y1.6658  
G01 X-1.1082 Y1.6606  
G01 X-1.1038 Y1.6546  
G01 X-1.1004 Y1.6480  
G01 X-1.0982 Y1.6410  
G01 X-1.0970 Y1.6337  
G01 X-1.0970 Y1.6294  
G01 X-1.0740 Y1.6524  
G01 X-1.0740 Y2.5360  
G01 X-1.1536 Y2.5360  
G01 X-1.1568 Y2.5350  
G01 X-1.1656 Y2.5336  
G01 X-1.1744 Y2.5336  
G01 X-1.1832 Y2.5350  
G01 X-1.1917 Y2.5377  
G01 X-1.1996 Y2.5417  
G01 X-1.2068 Y2.5470  
G01 X-1.2130 Y2.5532  
G01 X-1.2183 Y2.5604  
G01 X-1.2223 Y2.5683  
G01 X-1.2250 Y2.5768  
G01 X-1.2264 Y2.5856  
G01 X-1.2264 Y2.5944  
G01 X-1.2250 Y2.6032  
G01 X-1.2223 Y2.6117  
G01 X-1.2183 Y2.6196  
G01 X-1.2130 Y2.6268  
G01 X-1.2068 Y2.6330  
G01 X-1.1996 Y2.6383  
G01 X-1.1917 Y2.6423  
G01 X-1.1832 Y2.6450  
G01 X-1.1744 Y2.6464  
G01 X-1.1656 Y2.6464  
G01 X-1.1568 Y2.6450  
G01 X-1.1536 Y2.6440  
G01 X-1.0740 Y2.6440  
G01 X-1.0740 Y3.1442  
G01 X-1.0727 Y3.1526  
G01 X-1.0700 Y3.1607  
G01 X-1.0662 Y3.1683  
G01 X-1.0612 Y3.1752  
G01 X-1.0552 Y3.1812  
G01 X-0.9198 Y3.3166  
G01 X-0.9183 Y3.3196  
G01 X-0.9130 Y3.3268  
G01 X-0.9068 Y3.3330  
G01 X-0.8996 Y3.3383  
G01 X-0.8966 Y3.3398  
G01 X-0.8740 Y3.3624  
G01 X-0.8740 Y3.6322  
G01 X-0.8766 Y3.6342  
G01 X-0.8818 Y3.6394  
G01 X-0.8862 Y3.6454  
G01 X-0.8896 Y3.6520  
G01 X-0.8918 Y3.6590  
G01 X-0.8930 Y3.6663  
G01 X-0.8930 Y3.6737  
G01 X-0.8918 Y3.6810  
G01 X-0.8896 Y3.6880  
G01 X-0.8862 Y3.6946  
G01 X-0.8818 Y3.7006  
G01 X-0.8766 Y3.7058  
G01 X-0.8706 Y3.7102  
G01 X-0.8640 Y3.7136  
G01 X-0.8570 Y3.7158  
G01 X-0.8497 Y3.7170  
G01 X-0.8467 Y3.7170  
G01 X-0.8407 Y3.7200  
G01 X-0.8326 Y3.7227  
G01 X-0.8242 Y3.7240  
G01 X-0.4391 Y3.7240  
G01 X-0.4391 Y3.7249  
G01 X-0.4379 Y3.7341  
G01 X-0.4355 Y3.7431  
G01 X-0.4319 Y3.7518  
G01 X-0.4273 Y3.7598  
G01 X-0.4216 Y3.7672  
G01 X-0.4150 Y3.7738  
G01 X-0.4076 Y3.7795  
G01 X-0.3995 Y3.7842  
G01 X-0.3909 Y3.7878  
G01 X-0.3819 Y3.7902  
G01 X-0.3726 Y3.7914  
G01 X-0.3633 Y3.7914  
G01 X-0.3540 Y3.7902  
G01 X-0.3450 Y3.7878  
G01 X-0.3364 Y3.7842  
G01 X-0.3283 Y3.7795  
G01 X-0.3209 Y3.7738  
G01 X-0.3143 Y3.7672  
G01 X-0.3086 Y3.7598  
G01 X-0.3040 Y3.7518  
G01 X-0.3004 Y3.7431  
G01 X-0.2980 Y3.7341  
G01 X-0.2968 Y3.7249  
G01 X-0.2968 Y3.6151  
G01 X-0.2980 Y3.6059  
G01 X-0.3004 Y3.5969  
G01 X-0.3040 Y3.5882  
G01 X-0.3086 Y3.5802  
G01 X-0.3143 Y3.5728  
G01 X-0.3209 Y3.5662  
G01 X-0.3283 Y3.5605  
G01 X-0.3364 Y3.5558  
G01 X-0.3450 Y3.5522  
G01 X-0.3540 Y3.5498  
G01 X-0.3633 Y3.5486  
G01 X-0.3726 Y3.5486  
G01 X-0.3819 Y3.5498  
G01 X-0.3909 Y3.5522  
G01 X-0.3995 Y3.5558  
G01 X-0.4076 Y3.5605  
G01 X-0.4150 Y3.5662  
G01 X-0.4216 Y3.5728  
G01 X-0.4273 Y3.5802  
G01 X-0.4319 Y3.5882  
G01 X-0.4355 Y3.5969  
G01 X-0.4379 Y3.6059  
G01 X-0.4391 Y3.6151  
G01 X-0.4391 Y3.6160  
G01 X-0.7660 Y3.6160  
G01 X-0.7660 Y3.3357  
G01 X-0.7673 Y3.3274  
G01 X-0.7700 Y3.3193  
G01 X-0.7738 Y3.3117  
G01 X-0.7788 Y3.3048  
G01 X-0.8202 Y3.2634  
G01 X-0.8217 Y3.2604  
G01 X-0.8270 Y3.2532  
G01 X-0.8332 Y3.2470  
G01 X-0.8404 Y3.2417  
G01 X-0.8434 Y3.2402  
G01 X-0.9660 Y3.1176  
G01 X-0.9660 Y2.6440  
G01 X-0.8864 Y2.6440  
G01 X-0.8832 Y2.6450  
G01 X-0.8744 Y2.6464  
G01 X-0.8656 Y2.6464  
G01 X-0.8568 Y2.6450  
G01 X-0.8483 Y2.6423  
G01 X-0.8404 Y2.6383  
G01 X-0.8332 Y2.6330  
G01 X-0.8270 Y2.6268  
G01 X-0.8217 Y2.6196  
G01 X-0.8177 Y2.6117  
G01 X-0.8150 Y2.6032  
G01 X-0.8136 Y2.5944  
G01 X-0.8136 Y2.5856  
G01 X-0.8150 Y2.5768  
G01 X-0.8177 Y2.5683  
G01 X-0.8217 Y2.5604  
G01 X-0.8270 Y2.5532  
G01 X-0.8332 Y2.5470  
G01 X-0.8404 Y2.5417  
G01 X-0.8483 Y2.5377  
G01 X-0.8568 Y2.5350  
G01 X-0.8656 Y2.5336  
G01 X-0.8744 Y2.5336  
G01 X-0.8832 Y2.5350  
G01 X-0.8864 Y2.5360  
G01 X-0.9660 Y2.5360  
G01 X-0.9660 Y1.6258  
G01 X-0.9673 Y1.6174  
