(.../EAGLE-7.2.0/ulp/pcb-gcode.ulp)
(Copyright 2005 - 2012 by John Johnson)
(See readme.txt for licensing terms.)
(This file generated from the board:)
(.../eagle/gatedriver_trafo_sma.brd)
(Current profile is .../EAGLE-7.2.0/ulp/profiles/mach.pp  )
(This file generated 7/9/2015 11:36:09 AM)
(Settings from pcb-machine.h)
(spindle on time = 3.0000)
(  Tool Size)
(0.0400  )
(spindle speed = 5000.0000)
(tool change at 0.0000  0.0000  1.0000  )
(feed rate xy = F20    )
(feed rate z  = F10    )
(Z Axis Settings)
(  High     Up        Down     Drill)
(0.5000  	0.1000  	-0.0070 	-0.0625 )
(Settings from pcb-defaults.h)
(isolate min = 0.0010)
(isolate max = 0.0560)
(isolate step = 0.0050)
(Generated top outlines, top drill, bottom outlines, bottom drill, )
(Unit of measure: inch)
(Inch Mode)
G20
(Absolute Coordinates)
G90
S5000
G00 Z0.5000  
G00 X0.0000  Y0.0000  
M03
G04 P3.000000
G00 Z0.1000  
G00 X0.0415  Y0.0455  
G01 Z-0.0070 F10    
G01 X0.0383  Y0.0503  F20    
G01 X0.0361  Y0.0555  
G01 X0.0350  Y0.0611  
G01 X0.0350  Y4.4389  
G01 X0.0361  Y4.4445  
G01 X0.0383  Y4.4497  
G01 X0.0415  Y4.4545  
G01 X0.0455  Y4.4585  
G01 X0.0503  Y4.4617  
G01 X0.0555  Y4.4639  
G01 X0.0611  Y4.4650  
G01 X0.1950  Y4.4650  
G01 X0.1960  Y4.4651  
G01 X0.1979  Y4.4650  
G01 X0.1998  Y4.4650  
G01 X0.2007  Y4.4648  
G01 X0.2017  Y4.4648  
G01 X0.2035  Y4.4643  
G01 X0.2054  Y4.4639  
G01 X0.2063  Y4.4635  
G01 X0.2072  Y4.4633  
G01 X0.2089  Y4.4624  
G01 X0.2107  Y4.4617  
G01 X0.2115  Y4.4612  
G01 X0.2123  Y4.4607  
G01 X0.2138  Y4.4596  
G01 X0.2154  Y4.4585  
G01 X0.2161  Y4.4578  
G01 X0.2169  Y4.4573  
G01 X0.2181  Y4.4558  
G01 X0.2195  Y4.4545  
G01 X0.2200  Y4.4537  
G01 X0.2206  Y4.4530  
G01 X0.2216  Y4.4513  
G01 X0.2226  Y4.4497  
G01 X0.2230  Y4.4489  
G01 X0.2235  Y4.4480  
G01 X0.2241  Y4.4462  
G01 X0.2248  Y4.4445  
G01 X0.2250  Y4.4435  
G01 X0.2253  Y4.4426  
G01 X0.2256  Y4.4407  
G01 X0.2259  Y4.4389  
G01 X0.2259  Y4.4379  
G01 X0.2261  Y4.4370  
G01 X0.2259  Y4.4351  
G01 X0.2259  Y4.4331  
G01 X0.2257  Y4.4322  
G01 X0.2257  Y4.4313  
G01 X0.2252  Y4.4294  
G01 X0.2248  Y4.4275  
G01 X0.2245  Y4.4267  
G01 X0.2242  Y4.4257  
G01 X0.2234  Y4.4240  
G01 X0.2226  Y4.4223  
G01 X0.2221  Y4.4215  
G01 X0.2217  Y4.4206  
G01 X0.2205  Y4.4191  
G01 X0.2195  Y4.4175  
G01 X0.2188  Y4.4168  
G01 X0.2182  Y4.4161  
G01 X0.2168  Y4.4148  
G01 X0.2154  Y4.4135  
G01 X0.2146  Y4.4129  
G01 X0.2139  Y4.4123  
G01 X0.2123  Y4.4114  
G01 X0.2107  Y4.4103  
G01 X0.2098  Y4.4099  
G01 X0.1898  Y4.3984  
G01 X0.1716  Y4.3802  
G01 X0.1587  Y4.3578  
G01 X0.1520  Y4.3329  
G01 X0.1520  Y4.3071  
G01 X0.1587  Y4.2822  
G01 X0.1716  Y4.2598  
G01 X0.1898  Y4.2416  
G01 X0.2122  Y4.2287  
G01 X0.2371  Y4.2220  
G01 X0.2629  Y4.2220  
G01 X0.2878  Y4.2287  
G01 X0.3102  Y4.2416  
G01 X0.3284  Y4.2598  
G01 X0.3413  Y4.2822  
G01 X0.3480  Y4.3071  
G01 X0.3480  Y4.3329  
G01 X0.3413  Y4.3578  
G01 X0.3284  Y4.3802  
G01 X0.3102  Y4.3984  
G01 X0.2902  Y4.4099  
G01 X0.2893  Y4.4103  
G01 X0.2877  Y4.4114  
G01 X0.2861  Y4.4123  
G01 X0.2854  Y4.4129  
G01 X0.2846  Y4.4135  
G01 X0.2832  Y4.4148  
G01 X0.2818  Y4.4161  
G01 X0.2812  Y4.4168  
G01 X0.2805  Y4.4175  
G01 X0.2795  Y4.4191  
G01 X0.2783  Y4.4206  
G01 X0.2779  Y4.4215  
G01 X0.2774  Y4.4223  
G01 X0.2766  Y4.4240  
G01 X0.2758  Y4.4257  
G01 X0.2755  Y4.4267  
G01 X0.2752  Y4.4275  
G01 X0.2748  Y4.4294  
G01 X0.2743  Y4.4313  
G01 X0.2743  Y4.4322  
G01 X0.2741  Y4.4331  
G01 X0.2741  Y4.4351  
G01 X0.2739  Y4.4370  
G01 X0.2741  Y4.4379  
G01 X0.2741  Y4.4389  
G01 X0.2744  Y4.4407  
G01 X0.2747  Y4.4426  
G01 X0.2750  Y4.4435  
G01 X0.2752  Y4.4445  
G01 X0.2759  Y4.4462  
G01 X0.2765  Y4.4480  
G01 X0.2770  Y4.4489  
G01 X0.2774  Y4.4497  
G01 X0.2784  Y4.4513  
G01 X0.2794  Y4.4530  
G01 X0.2800  Y4.4537  
G01 X0.2805  Y4.4545  
G01 X0.2819  Y4.4558  
G01 X0.2831  Y4.4573  
G01 X0.2839  Y4.4578  
G01 X0.2846  Y4.4585  
G01 X0.2862  Y4.4596  
G01 X0.2877  Y4.4607  
G01 X0.2885  Y4.4612  
G01 X0.2893  Y4.4617  
G01 X0.2911  Y4.4624  
G01 X0.2928  Y4.4633  
G01 X0.2937  Y4.4635  
G01 X0.2946  Y4.4639  
G01 X0.2965  Y4.4643  
G01 X0.2983  Y4.4648  
G01 X0.2993  Y4.4648  
G01 X0.3002  Y4.4650  
G01 X0.3021  Y4.4650  
G01 X0.3040  Y4.4651  
G01 X0.3050  Y4.4650  
G01 X5.6950  Y4.4650  
G01 X5.6960  Y4.4651  
G01 X5.6979  Y4.4650  
G01 X5.6998  Y4.4650  
G01 X5.7007  Y4.4648  
G01 X5.7017  Y4.4648  
G01 X5.7035  Y4.4643  
G01 X5.7054  Y4.4639  
G01 X5.7063  Y4.4635  
G01 X5.7072  Y4.4633  
G01 X5.7089  Y4.4624  
G01 X5.7107  Y4.4617  
G01 X5.7115  Y4.4612  
G01 X5.7123  Y4.4607  
G01 X5.7138  Y4.4596  
G01 X5.7154  Y4.4585  
G01 X5.7161  Y4.4578  
G01 X5.7169  Y4.4573  
G01 X5.7181  Y4.4558  
G01 X5.7195  Y4.4545  
G01 X5.7200  Y4.4537  
G01 X5.7206  Y4.4530  
G01 X5.7216  Y4.4513  
G01 X5.7226  Y4.4497  
G01 X5.7230  Y4.4489  
G01 X5.7235  Y4.4480  
G01 X5.7241  Y4.4462  
G01 X5.7248  Y4.4445  
G01 X5.7250  Y4.4435  
G01 X5.7253  Y4.4426  
G01 X5.7256  Y4.4407  
G01 X5.7259  Y4.4389  
G01 X5.7259  Y4.4379  
G01 X5.7261  Y4.4370  
G01 X5.7259  Y4.4351  
G01 X5.7259  Y4.4331  
G01 X5.7257  Y4.4322  
G01 X5.7257  Y4.4313  
G01 X5.7252  Y4.4294  
G01 X5.7248  Y4.4275  
G01 X5.7245  Y4.4267  
G01 X5.7242  Y4.4257  
G01 X5.7234  Y4.4240  
G01 X5.7226  Y4.4223  
G01 X5.7221  Y4.4215  
G01 X5.7217  Y4.4206  
G01 X5.7205  Y4.4191  
G01 X5.7195  Y4.4175  
G01 X5.7188  Y4.4168  
G01 X5.7182  Y4.4161  
G01 X5.7168  Y4.4148  
G01 X5.7154  Y4.4135  
G01 X5.7146  Y4.4129  
G01 X5.7139  Y4.4123  
G01 X5.7123  Y4.4114  
G01 X5.7107  Y4.4103  
G01 X5.7098  Y4.4099  
G01 X5.6898  Y4.3984  
G01 X5.6716  Y4.3802  
G01 X5.6587  Y4.3578  
G01 X5.6520  Y4.3329  
G01 X5.6520  Y4.3071  
G01 X5.6587  Y4.2822  
G01 X5.6716  Y4.2598  
G01 X5.6898  Y4.2416  
G01 X5.7122  Y4.2287  
G01 X5.7371  Y4.2220  
G01 X5.7629  Y4.2220  
G01 X5.7878  Y4.2287  
G01 X5.8102  Y4.2416  
G01 X5.8284  Y4.2598  
G01 X5.8413  Y4.2822  
G01 X5.8480  Y4.3071  
G01 X5.8480  Y4.3329  
G01 X5.8413  Y4.3578  
G01 X5.8284  Y4.3802  
G01 X5.8102  Y4.3984  
G01 X5.7902  Y4.4099  
G01 X5.7893  Y4.4103  
G01 X5.7877  Y4.4114  
G01 X5.7861  Y4.4123  
G01 X5.7854  Y4.4129  
G01 X5.7846  Y4.4135  
G01 X5.7832  Y4.4148  
G01 X5.7818  Y4.4161  
G01 X5.7812  Y4.4168  
G01 X5.7805  Y4.4175  
G01 X5.7795  Y4.4191  
G01 X5.7783  Y4.4206  
G01 X5.7779  Y4.4215  
G01 X5.7774  Y4.4223  
G01 X5.7766  Y4.4240  
G01 X5.7758  Y4.4257  
G01 X5.7755  Y4.4267  
G01 X5.7752  Y4.4275  
G01 X5.7748  Y4.4294  
G01 X5.7743  Y4.4313  
G01 X5.7743  Y4.4322  
G01 X5.7741  Y4.4331  
G01 X5.7741  Y4.4351  
G01 X5.7739  Y4.4370  
G01 X5.7741  Y4.4379  
G01 X5.7741  Y4.4389  
G01 X5.7744  Y4.4407  
G01 X5.7747  Y4.4426  
G01 X5.7750  Y4.4435  
G01 X5.7752  Y4.4445  
G01 X5.7759  Y4.4462  
G01 X5.7765  Y4.4480  
G01 X5.7770  Y4.4489  
G01 X5.7774  Y4.4497  
G01 X5.7784  Y4.4513  
G01 X5.7794  Y4.4530  
G01 X5.7800  Y4.4537  
G01 X5.7805  Y4.4545  
G01 X5.7819  Y4.4558  
G01 X5.7831  Y4.4573  
G01 X5.7839  Y4.4578  
G01 X5.7846  Y4.4585  
G01 X5.7862  Y4.4596  
G01 X5.7877  Y4.4607  
G01 X5.7885  Y4.4612  
G01 X5.7893  Y4.4617  
G01 X5.7911  Y4.4624  
G01 X5.7928  Y4.4633  
G01 X5.7937  Y4.4635  
G01 X5.7946  Y4.4639  
G01 X5.7965  Y4.4643  
G01 X5.7983  Y4.4648  
G01 X5.7993  Y4.4648  
G01 X5.8002  Y4.4650  
G01 X5.8021  Y4.4650  
G01 X5.8040  Y4.4651  
G01 X5.8050  Y4.4650  
G01 X5.9389  Y4.4650  
G01 X5.9445  Y4.4639  
G01 X5.9497  Y4.4617  
G01 X5.9545  Y4.4585  
G01 X5.9585  Y4.4545  
G01 X5.9617  Y4.4497  
G01 X5.9639  Y4.4445  
G01 X5.9650  Y4.4389  
G01 X5.9650  Y3.4274  
G01 X5.9651  Y3.4264  
G01 X5.9650  Y3.4245  
G01 X5.9650  Y3.4226  
G01 X5.9648  Y3.4217  
G01 X5.9648  Y3.4207  
G01 X5.9643  Y3.4189  
G01 X5.9639  Y3.4170  
G01 X5.9635  Y3.4161  
G01 X5.9633  Y3.4152  
G01 X5.9624  Y3.4135  
G01 X5.9617  Y3.4117  
G01 X5.9612  Y3.4109  
G01 X5.9607  Y3.4101  
G01 X5.9596  Y3.4086  
G01 X5.9585  Y3.4070  
G01 X5.9578  Y3.4063  
G01 X5.9573  Y3.4056  
G01 X5.9558  Y3.4043  
G01 X5.9545  Y3.4029  
G01 X5.9537  Y3.4024  
G01 X5.9530  Y3.4018  
G01 X5.9513  Y3.4008  
G01 X5.9497  Y3.3998  
G01 X5.9489  Y3.3994  
G01 X5.9480  Y3.3989  
G01 X5.9462  Y3.3983  
G01 X5.9445  Y3.3976  
G01 X5.9435  Y3.3974  
G01 X5.9426  Y3.3971  
G01 X5.9407  Y3.3968  
G01 X5.9389  Y3.3965  
G01 X5.9379  Y3.3965  
G01 X5.9370  Y3.3963  
G01 X5.9350  Y3.3965  
G01 X5.9331  Y3.3965  
G01 X5.9322  Y3.3967  
G01 X5.9313  Y3.3967  
G01 X5.9294  Y3.3972  
G01 X5.9275  Y3.3976  
G01 X5.9267  Y3.3980  
G01 X5.9257  Y3.3982  
G01 X5.9240  Y3.3990  
G01 X5.9223  Y3.3998  
G01 X5.9215  Y3.4003  
G01 X5.9206  Y3.4007  
G01 X5.9191  Y3.4019  
G01 X5.9175  Y3.4029  
G01 X5.9168  Y3.4036  
G01 X5.9161  Y3.4042  
G01 X5.9148  Y3.4056  
G01 X5.9135  Y3.4070  
G01 X5.9129  Y3.4078  
G01 X5.9123  Y3.4085  
G01 X5.9114  Y3.4102  
G01 X5.9103  Y3.4117  
G01 X5.9099  Y3.4126  
G01 X5.9010  Y3.4281  
G01 X5.8868  Y3.4423  
G01 X5.8694  Y3.4523  
G01 X5.8500  Y3.4575  
G01 X5.8300  Y3.4575  
G01 X5.8106  Y3.4523  
G01 X5.7932  Y3.4423  
G01 X5.7790  Y3.4281  
G01 X5.7689  Y3.4107  
G01 X5.7637  Y3.3913  
G01 X5.7637  Y3.2887  
G01 X5.7689  Y3.2693  
G01 X5.7790  Y3.2519  
G01 X5.7932  Y3.2377  
G01 X5.8106  Y3.2277  
G01 X5.8300  Y3.2225  
G01 X5.8500  Y3.2225  
G01 X5.8694  Y3.2277  
G01 X5.8868  Y3.2377  
G01 X5.9010  Y3.2519  
G01 X5.9099  Y3.2674  
G01 X5.9103  Y3.2683  
G01 X5.9114  Y3.2698  
G01 X5.9123  Y3.2715  
G01 X5.9129  Y3.2722  
G01 X5.9135  Y3.2730  
G01 X5.9148  Y3.2744  
G01 X5.9161  Y3.2758  
G01 X5.9168  Y3.2764  
G01 X5.9175  Y3.2771  
G01 X5.9191  Y3.2781  
G01 X5.9206  Y3.2793  
G01 X5.9215  Y3.2797  
G01 X5.9223  Y3.2802  
G01 X5.9240  Y3.2810  
G01 X5.9257  Y3.2818  
G01 X5.9267  Y3.2820  
G01 X5.9275  Y3.2824  
G01 X5.9294  Y3.2828  
G01 X5.9313  Y3.2833  
G01 X5.9322  Y3.2833  
G01 X5.9331  Y3.2835  
G01 X5.9350  Y3.2835  
G01 X5.9370  Y3.2837  
G01 X5.9379  Y3.2835  
G01 X5.9389  Y3.2835  
G01 X5.9407  Y3.2832  
G01 X5.9426  Y3.2829  
G01 X5.9435  Y3.2826  
G01 X5.9445  Y3.2824  
G01 X5.9462  Y3.2817  
G01 X5.9480  Y3.2811  
G01 X5.9489  Y3.2806  
G01 X5.9497  Y3.2802  
G01 X5.9513  Y3.2792  
G01 X5.9530  Y3.2782  
G01 X5.9537  Y3.2776  
G01 X5.9545  Y3.2771  
G01 X5.9558  Y3.2757  
G01 X5.9573  Y3.2744  
G01 X5.9578  Y3.2737  
G01 X5.9585  Y3.2730  
G01 X5.9596  Y3.2714  
G01 X5.9607  Y3.2699  
G01 X5.9612  Y3.2691  
G01 X5.9617  Y3.2683  
G01 X5.9624  Y3.2665  
G01 X5.9633  Y3.2648  
G01 X5.9635  Y3.2639  
G01 X5.9639  Y3.2630  
G01 X5.9643  Y3.2611  
G01 X5.9648  Y3.2593  
G01 X5.9648  Y3.2583  
G01 X5.9650  Y3.2574  
G01 X5.9650  Y3.2555  
G01 X5.9651  Y3.2536  
G01 X5.9650  Y3.2526  
G01 X5.9650  Y2.8274  
G01 X5.9651  Y2.8264  
G01 X5.9650  Y2.8245  
G01 X5.9650  Y2.8226  
G01 X5.9648  Y2.8217  
G01 X5.9648  Y2.8207  
G01 X5.9643  Y2.8189  
G01 X5.9639  Y2.8170  
G01 X5.9635  Y2.8161  
G01 X5.9633  Y2.8152  
G01 X5.9624  Y2.8135  
G01 X5.9617  Y2.8117  
G01 X5.9612  Y2.8109  
G01 X5.9607  Y2.8101  
G01 X5.9596  Y2.8086  
G01 X5.9585  Y2.8070  
G01 X5.9578  Y2.8063  
G01 X5.9573  Y2.8056  
G01 X5.9558  Y2.8043  
G01 X5.9545  Y2.8029  
G01 X5.9537  Y2.8024  
G01 X5.9530  Y2.8018  
G01 X5.9513  Y2.8008  
G01 X5.9497  Y2.7998  
G01 X5.9489  Y2.7994  
G01 X5.9480  Y2.7989  
G01 X5.9462  Y2.7983  
G01 X5.9445  Y2.7976  
G01 X5.9435  Y2.7974  
G01 X5.9426  Y2.7971  
G01 X5.9407  Y2.7968  
G01 X5.9389  Y2.7965  
G01 X5.9379  Y2.7965  
G01 X5.9370  Y2.7963  
G01 X5.9350  Y2.7965  
G01 X5.9331  Y2.7965  
G01 X5.9322  Y2.7967  
G01 X5.9313  Y2.7967  
G01 X5.9294  Y2.7972  
G01 X5.9275  Y2.7976  
G01 X5.9267  Y2.7980  
G01 X5.9257  Y2.7982  
G01 X5.9240  Y2.7990  
G01 X5.9223  Y2.7998  
G01 X5.9215  Y2.8003  
G01 X5.9206  Y2.8007  
G01 X5.9191  Y2.8019  
G01 X5.9175  Y2.8029  
G01 X5.9168  Y2.8036  
G01 X5.9161  Y2.8042  
G01 X5.9148  Y2.8056  
G01 X5.9135  Y2.8070  
G01 X5.9129  Y2.8078  
G01 X5.9123  Y2.8085  
G01 X5.9114  Y2.8102  
G01 X5.9103  Y2.8117  
G01 X5.9099  Y2.8126  
G01 X5.9010  Y2.8281  
G01 X5.8868  Y2.8423  
G01 X5.8694  Y2.8523  
G01 X5.8500  Y2.8575  
G01 X5.8300  Y2.8575  
G01 X5.8106  Y2.8523  
G01 X5.7932  Y2.8423  
G01 X5.7790  Y2.8281  
G01 X5.7689  Y2.8107  
G01 X5.7637  Y2.7913  
G01 X5.7637  Y2.6887  
G01 X5.7689  Y2.6693  
G01 X5.7790  Y2.6519  
G01 X5.7932  Y2.6377  
G01 X5.8106  Y2.6277  
G01 X5.8300  Y2.6225  
G01 X5.8500  Y2.6225  
G01 X5.8694  Y2.6277  
G01 X5.8868  Y2.6377  
G01 X5.9010  Y2.6519  
G01 X5.9099  Y2.6674  
G01 X5.9103  Y2.6683  
G01 X5.9114  Y2.6698  
G01 X5.9123  Y2.6715  
G01 X5.9129  Y2.6722  
G01 X5.9135  Y2.6730  
G01 X5.9148  Y2.6744  
G01 X5.9161  Y2.6758  
G01 X5.9168  Y2.6764  
G01 X5.9175  Y2.6771  
G01 X5.9191  Y2.6781  
G01 X5.9206  Y2.6793  
G01 X5.9215  Y2.6797  
G01 X5.9223  Y2.6802  
G01 X5.9240  Y2.6810  
G01 X5.9257  Y2.6818  
G01 X5.9267  Y2.6820  
G01 X5.9275  Y2.6824  
G01 X5.9294  Y2.6828  
G01 X5.9313  Y2.6833  
G01 X5.9322  Y2.6833  
G01 X5.9331  Y2.6835  
G01 X5.9350  Y2.6835  
G01 X5.9370  Y2.6837  
G01 X5.9379  Y2.6835  
G01 X5.9389  Y2.6835  
G01 X5.9407  Y2.6832  
G01 X5.9426  Y2.6829  
G01 X5.9435  Y2.6826  
G01 X5.9445  Y2.6824  
G01 X5.9462  Y2.6817  
G01 X5.9480  Y2.6811  
G01 X5.9489  Y2.6806  
G01 X5.9497  Y2.6802  
G01 X5.9513  Y2.6792  
G01 X5.9530  Y2.6782  
G01 X5.9537  Y2.6776  
G01 X5.9545  Y2.6771  
G01 X5.9558  Y2.6757  
G01 X5.9573  Y2.6744  
G01 X5.9578  Y2.6737  
G01 X5.9585  Y2.6730  
G01 X5.9596  Y2.6714  
G01 X5.9607  Y2.6699  
G01 X5.9612  Y2.6691  
G01 X5.9617  Y2.6683  
G01 X5.9624  Y2.6665  
G01 X5.9633  Y2.6648  
G01 X5.9635  Y2.6639  
G01 X5.9639  Y2.6630  
G01 X5.9643  Y2.6611  
G01 X5.9648  Y2.6593  
G01 X5.9648  Y2.6583  
G01 X5.9650  Y2.6574  
G01 X5.9650  Y2.6555  
G01 X5.9651  Y2.6536  
G01 X5.9650  Y2.6526  
G01 X5.9650  Y0.0611  
G01 X5.9639  Y0.0555  
G01 X5.9617  Y0.0503  
G01 X5.9585  Y0.0455  
G01 X5.9545  Y0.0415  
G01 X5.9497  Y0.0383  
G01 X5.9445  Y0.0361  
G01 X5.9389  Y0.0350  
G01 X0.0611  Y0.0350  
G01 X0.0555  Y0.0361  
G01 X0.0503  Y0.0383  
G01 X0.0455  Y0.0415  
G01 X0.0415  Y0.0455  
G00 Z0.1000  
G00 X0.1898  Y0.1716  
G01 Z-0.0070 F10    
G01 X0.2122  Y0.1587  F20    
G01 X0.2371  Y0.1520  
G01 X0.2629  Y0.1520  
G01 X0.2878  Y0.1587  
G01 X0.3102  Y0.1716  
G01 X0.3284  Y0.1898  
G01 X0.3413  Y0.2122  
G01 X0.3480  Y0.2371  
G01 X0.3480  Y0.2629  
G01 X0.3413  Y0.2878  
G01 X0.3284  Y0.3102  
G01 X0.3102  Y0.3284  
G01 X0.2878  Y0.3413  
G01 X0.2629  Y0.3480  
G01 X0.2371  Y0.3480  
G01 X0.2122  Y0.3413  
G01 X0.1898  Y0.3284  
G01 X0.1716  Y0.3102  
G01 X0.1587  Y0.2878  
G01 X0.1520  Y0.2629  
G01 X0.1520  Y0.2371  
G01 X0.1587  Y0.2122  
G01 X0.1716  Y0.1898  
G01 X0.1898  Y0.1716  
G00 Z0.1000  
G00 X0.2681  Y1.5923  
G01 Z-0.0070 F10    
G01 X0.2705  Y1.5909  F20    
G01 X0.2782  Y1.5850  
G01 X0.2850  Y1.5782  
G01 X0.2909  Y1.5705  
G01 X0.2923  Y1.5681  
G01 X0.3020  Y1.5624  
G01 X0.3205  Y1.5575  
G01 X0.3395  Y1.5575  
G01 X0.3580  Y1.5624  
G01 X0.3677  Y1.5681  
G01 X0.3691  Y1.5705  
G01 X0.3750  Y1.5782  
G01 X0.3818  Y1.5850  
G01 X0.3895  Y1.5909  
G01 X0.3919  Y1.5923  
G01 X0.3976  Y1.6020  
G01 X0.4025  Y1.6205  
G01 X0.4025  Y1.6395  
G01 X0.3976  Y1.6580  
G01 X0.3919  Y1.6677  
G01 X0.3895  Y1.6691  
G01 X0.3818  Y1.6750  
G01 X0.3750  Y1.6818  
G01 X0.3691  Y1.6895  
G01 X0.3677  Y1.6919  
G01 X0.3580  Y1.6976  
G01 X0.3395  Y1.7025  
G01 X0.3205  Y1.7025  
G01 X0.3020  Y1.6976  
G01 X0.2923  Y1.6919  
G01 X0.2909  Y1.6895  
G01 X0.2850  Y1.6818  
G01 X0.2782  Y1.6750  
G01 X0.2705  Y1.6691  
G01 X0.2681  Y1.6677  
G01 X0.2624  Y1.6580  
G01 X0.2575  Y1.6395  
G01 X0.2575  Y1.6205  
G01 X0.2624  Y1.6020  
G01 X0.2681  Y1.5923  
G00 Z0.1000  
G00 X0.2854  Y1.5919  
G01 Z-0.0070 F10    
G01 X0.2800  Y1.5993  F20    
G01 X0.2758  Y1.6075  
G01 X0.2729  Y1.6163  
G01 X0.2715  Y1.6254  
G01 X0.2715  Y1.6346  
G01 X0.2729  Y1.6437  
G01 X0.2758  Y1.6525  
G01 X0.2800  Y1.6607  
G01 X0.2854  Y1.6681  
G01 X0.2919  Y1.6746  
G01 X0.2993  Y1.6800  
G01 X0.3075  Y1.6842  
G01 X0.3163  Y1.6871  
G01 X0.3254  Y1.6885  
G01 X0.3346  Y1.6885  
G01 X0.3437  Y1.6871  
G01 X0.3525  Y1.6842  
G01 X0.3607  Y1.6800  
G01 X0.3681  Y1.6746  
G01 X0.3746  Y1.6681  
G01 X0.3800  Y1.6607  
G01 X0.3842  Y1.6525  
G01 X0.3871  Y1.6437  
G01 X0.3885  Y1.6346  
G01 X0.3885  Y1.6254  
G01 X0.3871  Y1.6163  
G01 X0.3842  Y1.6075  
G01 X0.3800  Y1.5993  
G01 X0.3746  Y1.5919  
G01 X0.3681  Y1.5854  
G01 X0.3607  Y1.5800  
G01 X0.3525  Y1.5758  
G01 X0.3437  Y1.5729  
G01 X0.3346  Y1.5715  
G01 X0.3254  Y1.5715  
G01 X0.3163  Y1.5729  
G01 X0.3075  Y1.5758  
G01 X0.2993  Y1.5800  
G01 X0.2919  Y1.5854  
G01 X0.2854  Y1.5919  
G00 Z0.1000  
G00 X0.7923  Y1.5954  
G01 Z-0.0070 F10    
G01 X0.8094  Y1.5783  F20    
G01 X0.8237  Y1.5724  
G01 X0.8260  Y1.5736  
G01 X0.8330  Y1.5758  
G01 X0.8403  Y1.5770  
G01 X0.8997  Y1.5770  
G01 X0.9070  Y1.5758  
G01 X0.9140  Y1.5736  
G01 X0.9163  Y1.5724  
G01 X0.9306  Y1.5783  
G01 X0.9477  Y1.5954  
G01 X0.9570  Y1.6179  
G01 X0.9570  Y1.6421  
G01 X0.9470  Y1.6663  
G01 X0.9448  Y1.6715  
G01 X0.9448  Y1.6719  
G01 X0.9437  Y1.6771  
G01 X0.9437  Y1.6829  
G01 X0.9448  Y1.6885  
G01 X0.9570  Y1.7179  
G01 X0.9570  Y1.7421  
G01 X0.9477  Y1.7646  
G01 X0.9306  Y1.7817  
G01 X0.9081  Y1.7910  
G01 X0.8319  Y1.7910  
G01 X0.8094  Y1.7817  
G01 X0.7923  Y1.7646  
G01 X0.7830  Y1.7421  
G01 X0.7830  Y1.7179  
G01 X0.7952  Y1.6885  
G01 X0.7962  Y1.6832  
G01 X0.7963  Y1.6829  
G01 X0.7963  Y1.6771  
G01 X0.7952  Y1.6715  
G01 X0.7951  Y1.6714  
G01 X0.7930  Y1.6663  
G01 X0.7830  Y1.6421  
G01 X0.7830  Y1.6179  
G01 X0.7923  Y1.5954  
G00 Z0.1000  
G00 X0.8082  Y1.5994  
G01 Z-0.0070 F10    
G01 X0.8038  Y1.6054  F20    
G01 X0.8004  Y1.6120  
G01 X0.7982  Y1.6190  
G01 X0.7970  Y1.6263  
G01 X0.7970  Y1.6337  
G01 X0.7982  Y1.6410  
G01 X0.8004  Y1.6480  
G01 X0.8038  Y1.6546  
G01 X0.8082  Y1.6606  
G01 X0.8134  Y1.6658  
G01 X0.8194  Y1.6702  
G01 X0.8260  Y1.6736  
G01 X0.8330  Y1.6758  
G01 X0.8403  Y1.6770  
G01 X0.8997  Y1.6770  
G01 X0.9070  Y1.6758  
G01 X0.9140  Y1.6736  
G01 X0.9206  Y1.6702  
G01 X0.9266  Y1.6658  
G01 X0.9318  Y1.6606  
G01 X0.9362  Y1.6546  
G01 X0.9396  Y1.6480  
G01 X0.9418  Y1.6410  
G01 X0.9430  Y1.6337  
G01 X0.9430  Y1.6263  
G01 X0.9418  Y1.6190  
G01 X0.9396  Y1.6120  
G01 X0.9362  Y1.6054  
G01 X0.9318  Y1.5994  
G01 X0.9266  Y1.5942  
G01 X0.9206  Y1.5898  
G01 X0.9140  Y1.5864  
G01 X0.9070  Y1.5842  
G01 X0.8997  Y1.5830  
G01 X0.8403  Y1.5830  
G01 X0.8330  Y1.5842  
G01 X0.8260  Y1.5864  
G01 X0.8194  Y1.5898  
G01 X0.8134  Y1.5942  
G01 X0.8082  Y1.5994  
G00 Z0.1000  
G00 X0.8082  Y1.6994  
G01 Z-0.0070 F10    
G01 X0.8038  Y1.7054  F20    
G01 X0.8004  Y1.7120  
G01 X0.7982  Y1.7190  
G01 X0.7970  Y1.7263  
G01 X0.7970  Y1.7337  
G01 X0.7982  Y1.7410  
G01 X0.8004  Y1.7480  
G01 X0.8038  Y1.7546  
G01 X0.8082  Y1.7606  
G01 X0.8134  Y1.7658  
G01 X0.8194  Y1.7702  
G01 X0.8260  Y1.7736  
G01 X0.8330  Y1.7758  
G01 X0.8403  Y1.7770  
G01 X0.8997  Y1.7770  
G01 X0.9070  Y1.7758  
G01 X0.9140  Y1.7736  
G01 X0.9206  Y1.7702  
G01 X0.9266  Y1.7658  
G01 X0.9318  Y1.7606  
G01 X0.9362  Y1.7546  
G01 X0.9396  Y1.7480  
G01 X0.9418  Y1.7410  
G01 X0.9430  Y1.7337  
G01 X0.9430  Y1.7263  
G01 X0.9418  Y1.7190  
G01 X0.9396  Y1.7120  
G01 X0.9362  Y1.7054  
G01 X0.9318  Y1.6994  
G01 X0.9266  Y1.6942  
G01 X0.9206  Y1.6898  
G01 X0.9140  Y1.6864  
G01 X0.9070  Y1.6842  
G01 X0.8997  Y1.6830  
G01 X0.8403  Y1.6830  
G01 X0.8330  Y1.6842  
G01 X0.8260  Y1.6864  
G01 X0.8194  Y1.6898  
G01 X0.8134  Y1.6942  
G01 X0.8082  Y1.6994  
G00 Z0.1000  
G00 X0.8094  Y1.4817  
G01 Z-0.0070 F10    
G01 X0.7923  Y1.4646  F20    
G01 X0.7830  Y1.4421  
G01 X0.7830  Y1.4179  
G01 X0.7923  Y1.3954  
G01 X0.8094  Y1.3783  
G01 X0.8319  Y1.3690  
G01 X0.9081  Y1.3690  
G01 X0.9306  Y1.3783  
G01 X0.9477  Y1.3954  
G01 X0.9570  Y1.4179  
G01 X0.9570  Y1.4421  
G01 X0.9477  Y1.4646  
G01 X0.9306  Y1.4817  
G01 X0.9163  Y1.4876  
G01 X0.9140  Y1.4864  
G01 X0.9070  Y1.4842  
G01 X0.8997  Y1.4830  
G01 X0.8403  Y1.4830  
G01 X0.8330  Y1.4842  
G01 X0.8260  Y1.4864  
G01 X0.8237  Y1.4876  
G01 X0.8094  Y1.4817  
G00 Z0.1000  
G00 X0.8134  Y1.4658  
G01 Z-0.0070 F10    
G01 X0.8194  Y1.4702  F20    
G01 X0.8260  Y1.4736  
G01 X0.8330  Y1.4758  
G01 X0.8403  Y1.4770  
G01 X0.8997  Y1.4770  
G01 X0.9070  Y1.4758  
G01 X0.9140  Y1.4736  
G01 X0.9206  Y1.4702  
G01 X0.9266  Y1.4658  
G01 X0.9318  Y1.4606  
G01 X0.9362  Y1.4546  
G01 X0.9396  Y1.4480  
G01 X0.9418  Y1.4410  
G01 X0.9430  Y1.4337  
G01 X0.9430  Y1.4263  
G01 X0.9418  Y1.4190  
G01 X0.9396  Y1.4120  
G01 X0.9362  Y1.4054  
G01 X0.9318  Y1.3994  
G01 X0.9266  Y1.3942  
G01 X0.9206  Y1.3898  
G01 X0.9140  Y1.3864  
G01 X0.9070  Y1.3842  
G01 X0.8997  Y1.3830  
G01 X0.8403  Y1.3830  
G01 X0.8330  Y1.3842  
G01 X0.8260  Y1.3864  
G01 X0.8194  Y1.3898  
G01 X0.8134  Y1.3942  
G01 X0.8082  Y1.3994  
G01 X0.8038  Y1.4054  
G01 X0.8004  Y1.4120  
G01 X0.7982  Y1.4190  
G01 X0.7970  Y1.4263  
G01 X0.7970  Y1.4337  
G01 X0.7982  Y1.4410  
G01 X0.8004  Y1.4480  
G01 X0.8038  Y1.4546  
G01 X0.8082  Y1.4606  
G01 X0.8134  Y1.4658  
G00 Z0.1000  
G00 X1.0930  Y1.4663  
G01 Z-0.0070 F10    
G01 X1.0830  Y1.4421  F20    
G01 X1.0830  Y1.4179  
G01 X1.0923  Y1.3954  
G01 X1.1094  Y1.3783  
G01 X1.1319  Y1.3690  
G01 X1.2081  Y1.3690  
G01 X1.2306  Y1.3783  
G01 X1.2477  Y1.3954  
G01 X1.2570  Y1.4179  
G01 X1.2570  Y1.4421  
G01 X1.2470  Y1.4663  
G01 X1.2448  Y1.4715  
G01 X1.2448  Y1.4719  
G01 X1.2437  Y1.4771  
G01 X1.2437  Y1.4829  
G01 X1.2448  Y1.4885  
G01 X1.2570  Y1.5179  
G01 X1.2570  Y1.5421  
G01 X1.2470  Y1.5663  
G01 X1.2448  Y1.5715  
G01 X1.2448  Y1.5719  
G01 X1.2437  Y1.5771  
G01 X1.2437  Y1.5829  
G01 X1.2448  Y1.5885  
G01 X1.2570  Y1.6179  
G01 X1.2570  Y1.6421  
G01 X1.2448  Y1.6715  
G01 X1.2438  Y1.6768  
G01 X1.2437  Y1.6771  
G01 X1.2437  Y1.6829  
G01 X1.2448  Y1.6885  
G01 X1.2449  Y1.6886  
G01 X1.2470  Y1.6937  
G01 X1.2570  Y1.7179  
G01 X1.2570  Y1.7421  
G01 X1.2477  Y1.7646  
G01 X1.2306  Y1.7817  
G01 X1.2081  Y1.7910  
G01 X1.1319  Y1.7910  
G01 X1.1094  Y1.7817  
G01 X1.0923  Y1.7646  
G01 X1.0830  Y1.7421  
G01 X1.0830  Y1.7179  
G01 X1.0930  Y1.6937  
G01 X1.0952  Y1.6885  
G01 X1.0952  Y1.6881  
G01 X1.0963  Y1.6829  
G01 X1.0963  Y1.6771  
G01 X1.0952  Y1.6715  
G01 X1.0830  Y1.6421  
G01 X1.0830  Y1.6179  
G01 X1.0952  Y1.5885  
G01 X1.0962  Y1.5832  
G01 X1.0963  Y1.5829  
G01 X1.0963  Y1.5771  
G01 X1.0952  Y1.5715  
G01 X1.0951  Y1.5714  
G01 X1.0930  Y1.5663  
G01 X1.0830  Y1.5421  
G01 X1.0830  Y1.5179  
G01 X1.0952  Y1.4885  
G01 X1.0962  Y1.4832  
G01 X1.0963  Y1.4829  
G01 X1.0963  Y1.4771  
G01 X1.0952  Y1.4715  
G01 X1.0951  Y1.4714  
G01 X1.0930  Y1.4663  
G00 Z0.1000  
G00 X1.1134  Y1.4658  
G01 Z-0.0070 F10    
G01 X1.1194  Y1.4702  F20    
G01 X1.1260  Y1.4736  
G01 X1.1330  Y1.4758  
G01 X1.1403  Y1.4770  
G01 X1.1997  Y1.4770  
G01 X1.2070  Y1.4758  
G01 X1.2140  Y1.4736  
G01 X1.2206  Y1.4702  
G01 X1.2266  Y1.4658  
G01 X1.2318  Y1.4606  
G01 X1.2362  Y1.4546  
G01 X1.2396  Y1.4480  
G01 X1.2418  Y1.4410  
G01 X1.2430  Y1.4337  
G01 X1.2430  Y1.4263  
G01 X1.2418  Y1.4190  
G01 X1.2396  Y1.4120  
G01 X1.2362  Y1.4054  
G01 X1.2318  Y1.3994  
G01 X1.2266  Y1.3942  
G01 X1.2206  Y1.3898  
G01 X1.2140  Y1.3864  
G01 X1.2070  Y1.3842  
G01 X1.1997  Y1.3830  
G01 X1.1403  Y1.3830  
G01 X1.1330  Y1.3842  
G01 X1.1260  Y1.3864  
G01 X1.1194  Y1.3898  
G01 X1.1134  Y1.3942  
G01 X1.1082  Y1.3994  
G01 X1.1038  Y1.4054  
G01 X1.1004  Y1.4120  
G01 X1.0982  Y1.4190  
G01 X1.0970  Y1.4263  
G01 X1.0970  Y1.4337  
G01 X1.0982  Y1.4410  
G01 X1.1004  Y1.4480  
G01 X1.1038  Y1.4546  
G01 X1.1082  Y1.4606  
G01 X1.1134  Y1.4658  
G00 Z0.1000  
G00 X1.1134  Y1.4942  
G01 Z-0.0070 F10    
G01 X1.1082  Y1.4994  F20    
G01 X1.1038  Y1.5054  
G01 X1.1004  Y1.5120  
G01 X1.0982  Y1.5190  
G01 X1.0970  Y1.5263  
G01 X1.0970  Y1.5337  
G01 X1.0982  Y1.5410  
G01 X1.1004  Y1.5480  
G01 X1.1038  Y1.5546  
G01 X1.1082  Y1.5606  
G01 X1.1134  Y1.5658  
G01 X1.1194  Y1.5702  
G01 X1.1260  Y1.5736  
G01 X1.1330  Y1.5758  
G01 X1.1403  Y1.5770  
G01 X1.1997  Y1.5770  
G01 X1.2070  Y1.5758  
G01 X1.2140  Y1.5736  
G01 X1.2206  Y1.5702  
G01 X1.2266  Y1.5658  
G01 X1.2318  Y1.5606  
G01 X1.2362  Y1.5546  
G01 X1.2396  Y1.5480  
G01 X1.2418  Y1.5410  
G01 X1.2430  Y1.5337  
G01 X1.2430  Y1.5263  
G01 X1.2418  Y1.5190  
G01 X1.2396  Y1.5120  
G01 X1.2362  Y1.5054  
G01 X1.2318  Y1.4994  
G01 X1.2266  Y1.4942  
G01 X1.2206  Y1.4898  
G01 X1.2140  Y1.4864  
G01 X1.2070  Y1.4842  
G01 X1.1997  Y1.4830  
G01 X1.1403  Y1.4830  
G01 X1.1330  Y1.4842  
G01 X1.1260  Y1.4864  
G01 X1.1194  Y1.4898  
G01 X1.1134  Y1.4942  
G00 Z0.1000  
G00 X1.1134  Y1.5942  
G01 Z-0.0070 F10    
G01 X1.1082  Y1.5994  F20    
G01 X1.1038  Y1.6054  
G01 X1.1004  Y1.6120  
G01 X1.0982  Y1.6190  
G01 X1.0970  Y1.6263  
G01 X1.0970  Y1.6337  
G01 X1.0982  Y1.6410  
G01 X1.1004  Y1.6480  
G01 X1.1038  Y1.6546  
G01 X1.1082  Y1.6606  
G01 X1.1134  Y1.6658  
G01 X1.1194  Y1.6702  
G01 X1.1260  Y1.6736  
G01 X1.1330  Y1.6758  
G01 X1.1403  Y1.6770  
G01 X1.1997  Y1.6770  
G01 X1.2070  Y1.6758  
G01 X1.2140  Y1.6736  
G01 X1.2206  Y1.6702  
G01 X1.2266  Y1.6658  
G01 X1.2318  Y1.6606  
G01 X1.2362  Y1.6546  
G01 X1.2396  Y1.6480  
G01 X1.2418  Y1.6410  
G01 X1.2430  Y1.6337  
G01 X1.2430  Y1.6263  
G01 X1.2418  Y1.6190  
G01 X1.2396  Y1.6120  
G01 X1.2362  Y1.6054  
G01 X1.2318  Y1.5994  
G01 X1.2266  Y1.5942  
G01 X1.2206  Y1.5898  
G01 X1.2140  Y1.5864  
G01 X1.2070  Y1.5842  
G01 X1.1997  Y1.5830  
G01 X1.1403  Y1.5830  
G01 X1.1330  Y1.5842  
G01 X1.1260  Y1.5864  
G01 X1.1194  Y1.5898  
G01 X1.1134  Y1.5942  
G00 Z0.1000  
G00 X1.1134  Y1.6942  
G01 Z-0.0070 F10    
G01 X1.1082  Y1.6994  F20    
G01 X1.1038  Y1.7054  
G01 X1.1004  Y1.7120  
G01 X1.0982  Y1.7190  
G01 X1.0970  Y1.7263  
G01 X1.0970  Y1.7337  
G01 X1.0982  Y1.7410  
G01 X1.1004  Y1.7480  
G01 X1.1038  Y1.7546  
G01 X1.1082  Y1.7606  
G01 X1.1134  Y1.7658  
G01 X1.1194  Y1.7702  
G01 X1.1260  Y1.7736  
G01 X1.1330  Y1.7758  
G01 X1.1403  Y1.7770  
G01 X1.1997  Y1.7770  
G01 X1.2070  Y1.7758  
G01 X1.2140  Y1.7736  
G01 X1.2206  Y1.7702  
G01 X1.2266  Y1.7658  
G01 X1.2318  Y1.7606  
G01 X1.2362  Y1.7546  
G01 X1.2396  Y1.7480  
G01 X1.2418  Y1.7410  
G01 X1.2430  Y1.7337  
G01 X1.2430  Y1.7263  
G01 X1.2418  Y1.7190  
G01 X1.2396  Y1.7120  
G01 X1.2362  Y1.7054  
G01 X1.2318  Y1.6994  
G01 X1.2266  Y1.6942  
G01 X1.2206  Y1.6898  
G01 X1.2140  Y1.6864  
G01 X1.2070  Y1.6842  
G01 X1.1997  Y1.6830  
G01 X1.1403  Y1.6830  
G01 X1.1330  Y1.6842  
G01 X1.1260  Y1.6864  
G01 X1.1194  Y1.6898  
G01 X1.1134  Y1.6942  
G00 Z0.1000  
G00 X1.3690  Y1.1653  
G01 Z-0.0070 F10    
G01 X1.3690  Y1.1147  F20    
G01 X1.4047  Y1.0790  
G01 X1.4553  Y1.0790  
G01 X1.4910  Y1.1147  
G01 X1.4910  Y1.1653  
G01 X1.4553  Y1.2010  
G01 X1.4047  Y1.2010  
G01 X1.3690  Y1.1653  
G00 Z0.1000  
G00 X1.3830  Y1.1595  
G01 Z-0.0070 F10    
G01 X1.4105  Y1.1870  F20    
G01 X1.4495  Y1.1870  
G01 X1.4770  Y1.1595  
G01 X1.4770  Y1.1205  
G01 X1.4495  Y1.0930  
G01 X1.4105  Y1.0930  
G01 X1.3830  Y1.1205  
G01 X1.3830  Y1.1595  
G00 Z0.1000  
G00 X1.5690  Y1.1653  
G01 Z-0.0070 F10    
G01 X1.5690  Y1.1147  F20    
G01 X1.6047  Y1.0790  
G01 X1.6553  Y1.0790  
G01 X1.6910  Y1.1147  
G01 X1.6910  Y1.1653  
G01 X1.6553  Y1.2010  
G01 X1.6047  Y1.2010  
G01 X1.5690  Y1.1653  
G00 Z0.1000  
G00 X1.5830  Y1.1595  
G01 Z-0.0070 F10    
G01 X1.6105  Y1.1870  F20    
G01 X1.6495  Y1.1870  
G01 X1.6770  Y1.1595  
G01 X1.6770  Y1.1205  
G01 X1.6495  Y1.0930  
G01 X1.6105  Y1.0930  
G01 X1.5830  Y1.1205  
G01 X1.5830  Y1.1595  
G00 Z0.1000  
G00 X1.8590  Y1.1781  
G01 Z-0.0070 F10    
G01 X1.8590  Y1.1019  F20    
G01 X1.8683  Y1.0794  
G01 X1.8854  Y1.0623  
G01 X1.9079  Y1.0530  
G01 X1.9321  Y1.0530  
G01 X1.9615  Y1.0652  
G01 X1.9668  Y1.0662  
G01 X1.9671  Y1.0663  
G01 X1.9729  Y1.0663  
G01 X1.9785  Y1.0652  
G01 X1.9786  Y1.0651  
G01 X1.9837  Y1.0630  
G01 X2.0079  Y1.0530  
G01 X2.0321  Y1.0530  
G01 X2.0615  Y1.0652  
G01 X2.0668  Y1.0662  
G01 X2.0671  Y1.0663  
G01 X2.0729  Y1.0663  
G01 X2.0785  Y1.0652  
G01 X2.0786  Y1.0651  
G01 X2.0837  Y1.0630  
G01 X2.1079  Y1.0530  
G01 X2.1321  Y1.0530  
G01 X2.1546  Y1.0623  
G01 X2.1717  Y1.0794  
G01 X2.1810  Y1.1019  
G01 X2.1810  Y1.1781  
G01 X2.1717  Y1.2006  
G01 X2.1546  Y1.2177  
G01 X2.1321  Y1.2270  
G01 X2.1079  Y1.2270  
G01 X2.0837  Y1.2170  
G01 X2.0785  Y1.2148  
G01 X2.0781  Y1.2148  
G01 X2.0729  Y1.2137  
G01 X2.0671  Y1.2137  
G01 X2.0615  Y1.2148  
G01 X2.0321  Y1.2270  
G01 X2.0079  Y1.2270  
G01 X1.9837  Y1.2170  
G01 X1.9785  Y1.2148  
G01 X1.9781  Y1.2148  
G01 X1.9729  Y1.2137  
G01 X1.9671  Y1.2137  
G01 X1.9615  Y1.2148  
G01 X1.9321  Y1.2270  
G01 X1.9079  Y1.2270  
G01 X1.8854  Y1.2177  
G01 X1.8683  Y1.2006  
G01 X1.8590  Y1.1781  
G00 Z0.1000  
G00 X1.8742  Y1.1770  
G01 Z-0.0070 F10    
G01 X1.8764  Y1.1840  F20    
G01 X1.8798  Y1.1906  
G01 X1.8842  Y1.1966  
G01 X1.8894  Y1.2018  
G01 X1.8954  Y1.2062  
G01 X1.9020  Y1.2096  
G01 X1.9090  Y1.2118  
G01 X1.9163  Y1.2130  
G01 X1.9237  Y1.2130  
G01 X1.9310  Y1.2118  
G01 X1.9380  Y1.2096  
G01 X1.9446  Y1.2062  
G01 X1.9506  Y1.2018  
G01 X1.9558  Y1.1966  
G01 X1.9602  Y1.1906  
G01 X1.9636  Y1.1840  
G01 X1.9658  Y1.1770  
G01 X1.9670  Y1.1697  
G01 X1.9670  Y1.1103  
G01 X1.9658  Y1.1030  
G01 X1.9636  Y1.0960  
G01 X1.9602  Y1.0894  
G01 X1.9558  Y1.0834  
G01 X1.9506  Y1.0782  
G01 X1.9446  Y1.0738  
G01 X1.9380  Y1.0704  
G01 X1.9310  Y1.0682  
G01 X1.9237  Y1.0670  
G01 X1.9163  Y1.0670  
G01 X1.9090  Y1.0682  
G01 X1.9020  Y1.0704  
G01 X1.8954  Y1.0738  
G01 X1.8894  Y1.0782  
G01 X1.8842  Y1.0834  
G01 X1.8798  Y1.0894  
G01 X1.8764  Y1.0960  
G01 X1.8742  Y1.1030  
G01 X1.8730  Y1.1103  
G01 X1.8730  Y1.1697  
G01 X1.8742  Y1.1770  
G00 Z0.1000  
G00 X1.9742  Y1.1770  
G01 Z-0.0070 F10    
G01 X1.9764  Y1.1840  F20    
G01 X1.9798  Y1.1906  
G01 X1.9842  Y1.1966  
G01 X1.9894  Y1.2018  
G01 X1.9954  Y1.2062  
G01 X2.0020  Y1.2096  
G01 X2.0090  Y1.2118  
G01 X2.0163  Y1.2130  
G01 X2.0237  Y1.2130  
G01 X2.0310  Y1.2118  
G01 X2.0380  Y1.2096  
G01 X2.0446  Y1.2062  
G01 X2.0506  Y1.2018  
G01 X2.0558  Y1.1966  
G01 X2.0602  Y1.1906  
G01 X2.0636  Y1.1840  
G01 X2.0658  Y1.1770  
G01 X2.0670  Y1.1697  
G01 X2.0670  Y1.1103  
G01 X2.0658  Y1.1030  
G01 X2.0636  Y1.0960  
G01 X2.0602  Y1.0894  
G01 X2.0558  Y1.0834  
G01 X2.0506  Y1.0782  
G01 X2.0446  Y1.0738  
G01 X2.0380  Y1.0704  
G01 X2.0310  Y1.0682  
G01 X2.0237  Y1.0670  
G01 X2.0163  Y1.0670  
G01 X2.0090  Y1.0682  
G01 X2.0020  Y1.0704  
G01 X1.9954  Y1.0738  
G01 X1.9894  Y1.0782  
G01 X1.9842  Y1.0834  
G01 X1.9798  Y1.0894  
G01 X1.9764  Y1.0960  
G01 X1.9742  Y1.1030  
G01 X1.9730  Y1.1103  
G01 X1.9730  Y1.1697  
G01 X1.9742  Y1.1770  
G00 Z0.1000  
G00 X2.0742  Y1.1770  
G01 Z-0.0070 F10    
G01 X2.0764  Y1.1840  F20    
G01 X2.0798  Y1.1906  
G01 X2.0842  Y1.1966  
G01 X2.0894  Y1.2018  
G01 X2.0954  Y1.2062  
G01 X2.1020  Y1.2096  
G01 X2.1090  Y1.2118  
G01 X2.1163  Y1.2130  
G01 X2.1237  Y1.2130  
G01 X2.1310  Y1.2118  
G01 X2.1380  Y1.2096  
G01 X2.1446  Y1.2062  
G01 X2.1506  Y1.2018  
G01 X2.1558  Y1.1966  
G01 X2.1602  Y1.1906  
G01 X2.1636  Y1.1840  
G01 X2.1658  Y1.1770  
G01 X2.1670  Y1.1697  
G01 X2.1670  Y1.1103  
G01 X2.1658  Y1.1030  
G01 X2.1636  Y1.0960  
G01 X2.1602  Y1.0894  
G01 X2.1558  Y1.0834  
G01 X2.1506  Y1.0782  
G01 X2.1446  Y1.0738  
G01 X2.1380  Y1.0704  
G01 X2.1310  Y1.0682  
G01 X2.1237  Y1.0670  
G01 X2.1163  Y1.0670  
G01 X2.1090  Y1.0682  
G01 X2.1020  Y1.0704  
G01 X2.0954  Y1.0738  
G01 X2.0894  Y1.0782  
G01 X2.0842  Y1.0834  
G01 X2.0798  Y1.0894  
G01 X2.0764  Y1.0960  
G01 X2.0742  Y1.1030  
G01 X2.0730  Y1.1103  
G01 X2.0730  Y1.1697  
G01 X2.0742  Y1.1770  
G00 Z0.1000  
G00 X2.0729  Y1.3663  
G01 Z-0.0070 F10    
G01 X2.0785  Y1.3652  F20    
G01 X2.0786  Y1.3651  
G01 X2.0837  Y1.3630  
G01 X2.1079  Y1.3530  
G01 X2.1321  Y1.3530  
G01 X2.1546  Y1.3623  
G01 X2.1717  Y1.3794  
G01 X2.1810  Y1.4019  
G01 X2.1810  Y1.4781  
G01 X2.1717  Y1.5006  
G01 X2.1546  Y1.5177  
G01 X2.1321  Y1.5270  
G01 X2.1079  Y1.5270  
G01 X2.0837  Y1.5170  
G01 X2.0785  Y1.5148  
G01 X2.0781  Y1.5148  
G01 X2.0729  Y1.5137  
G01 X2.0671  Y1.5137  
G01 X2.0615  Y1.5148  
G01 X2.0321  Y1.5270  
G01 X2.0079  Y1.5270  
G01 X1.9854  Y1.5177  
G01 X1.9683  Y1.5006  
G01 X1.9624  Y1.4863  
G01 X1.9636  Y1.4840  
G01 X1.9658  Y1.4770  
G01 X1.9670  Y1.4697  
G01 X1.9670  Y1.4103  
G01 X1.9658  Y1.4030  
G01 X1.9636  Y1.3960  
G01 X1.9624  Y1.3937  
G01 X1.9683  Y1.3794  
G01 X1.9854  Y1.3623  
G01 X2.0079  Y1.3530  
G01 X2.0321  Y1.3530  
G01 X2.0615  Y1.3652  
G01 X2.0668  Y1.3662  
G01 X2.0671  Y1.3663  
G01 X2.0729  Y1.3663  
G00 Z0.1000  
G00 X2.0842  Y1.3834  
G01 Z-0.0070 F10    
G01 X2.0798  Y1.3894  F20    
G01 X2.0764  Y1.3960  
G01 X2.0742  Y1.4030  
G01 X2.0730  Y1.4103  
G01 X2.0730  Y1.4697  
G01 X2.0742  Y1.4770  
G01 X2.0764  Y1.4840  
G01 X2.0798  Y1.4906  
G01 X2.0842  Y1.4966  
G01 X2.0894  Y1.5018  
G01 X2.0954  Y1.5062  
G01 X2.1020  Y1.5096  
G01 X2.1090  Y1.5118  
G01 X2.1163  Y1.5130  
G01 X2.1237  Y1.5130  
G01 X2.1310  Y1.5118  
G01 X2.1380  Y1.5096  
G01 X2.1446  Y1.5062  
G01 X2.1506  Y1.5018  
G01 X2.1558  Y1.4966  
G01 X2.1602  Y1.4906  
G01 X2.1636  Y1.4840  
G01 X2.1658  Y1.4770  
G01 X2.1670  Y1.4697  
G01 X2.1670  Y1.4103  
G01 X2.1658  Y1.4030  
G01 X2.1636  Y1.3960  
G01 X2.1602  Y1.3894  
G01 X2.1558  Y1.3834  
G01 X2.1506  Y1.3782  
G01 X2.1446  Y1.3738  
G01 X2.1380  Y1.3704  
G01 X2.1310  Y1.3682  
G01 X2.1237  Y1.3670  
G01 X2.1163  Y1.3670  
G01 X2.1090  Y1.3682  
G01 X2.1020  Y1.3704  
G01 X2.0954  Y1.3738  
G01 X2.0894  Y1.3782  
G01 X2.0842  Y1.3834  
G00 Z0.1000  
G00 X2.0558  Y1.3834  
G01 Z-0.0070 F10    
G01 X2.0506  Y1.3782  F20    
G01 X2.0446  Y1.3738  
G01 X2.0380  Y1.3704  
G01 X2.0310  Y1.3682  
G01 X2.0237  Y1.3670  
G01 X2.0163  Y1.3670  
G01 X2.0090  Y1.3682  
G01 X2.0020  Y1.3704  
G01 X1.9954  Y1.3738  
G01 X1.9894  Y1.3782  
G01 X1.9842  Y1.3834  
G01 X1.9798  Y1.3894  
G01 X1.9764  Y1.3960  
G01 X1.9742  Y1.4030  
G01 X1.9730  Y1.4103  
G01 X1.9730  Y1.4697  
G01 X1.9742  Y1.4770  
G01 X1.9764  Y1.4840  
G01 X1.9798  Y1.4906  
G01 X1.9842  Y1.4966  
G01 X1.9894  Y1.5018  
G01 X1.9954  Y1.5062  
G01 X2.0020  Y1.5096  
G01 X2.0090  Y1.5118  
G01 X2.0163  Y1.5130  
G01 X2.0237  Y1.5130  
G01 X2.0310  Y1.5118  
G01 X2.0380  Y1.5096  
G01 X2.0446  Y1.5062  
G01 X2.0506  Y1.5018  
G01 X2.0558  Y1.4966  
G01 X2.0602  Y1.4906  
G01 X2.0636  Y1.4840  
G01 X2.0658  Y1.4770  
G01 X2.0670  Y1.4697  
G01 X2.0670  Y1.4103  
G01 X2.0658  Y1.4030  
G01 X2.0636  Y1.3960  
G01 X2.0602  Y1.3894  
G01 X2.0558  Y1.3834  
G00 Z0.1000  
G00 X2.3815  Y1.4324  
G01 Z-0.0070 F10    
G01 X2.4065  Y1.4220  F20    
G01 X2.4827  Y1.4220  
G01 X2.4883  Y1.4209  
G01 X2.4936  Y1.4187  
G01 X2.4983  Y1.4155  
G01 X2.9715  Y0.9424  
G01 X2.9965  Y0.9320  
G01 X3.0235  Y0.9320  
G01 X3.0485  Y0.9424  
G01 X3.0676  Y0.9615  
G01 X3.0780  Y0.9865  
G01 X3.0780  Y1.0135  
G01 X3.0676  Y1.0385  
G01 X2.6987  Y1.4075  
G01 X2.6947  Y1.4115  
G01 X2.6915  Y1.4163  
G01 X2.6893  Y1.4215  
G01 X2.6882  Y1.4271  
G01 X2.6882  Y1.4329  
G01 X2.6893  Y1.4385  
G01 X2.6915  Y1.4437  
G01 X2.6947  Y1.4485  
G01 X2.6987  Y1.4525  
G01 X2.7034  Y1.4557  
G01 X2.7087  Y1.4579  
G01 X2.7143  Y1.4590  
G01 X2.7453  Y1.4590  
G01 X2.7810  Y1.4947  
G01 X2.7810  Y1.5453  
G01 X2.7453  Y1.5810  
G01 X2.6947  Y1.5810  
G01 X2.6590  Y1.5453  
G01 X2.6590  Y1.5143  
G01 X2.6579  Y1.5087  
G01 X2.6557  Y1.5034  
G01 X2.6525  Y1.4987  
G01 X2.6485  Y1.4947  
G01 X2.6437  Y1.4915  
G01 X2.6385  Y1.4893  
G01 X2.6381  Y1.4892  
G01 X2.6329  Y1.4882  
G01 X2.6271  Y1.4882  
G01 X2.6215  Y1.4893  
G01 X2.6163  Y1.4915  
G01 X2.6115  Y1.4947  
G01 X2.6106  Y1.4956  
G01 X2.6075  Y1.4987  
G01 X2.5585  Y1.5476  
G01 X2.5335  Y1.5580  
G01 X2.5036  Y1.5580  
G01 X2.4065  Y1.5580  
G01 X2.3815  Y1.5476  
G01 X2.3624  Y1.5285  
G01 X2.3520  Y1.5035  
G01 X2.3520  Y1.4765  
G01 X2.3624  Y1.4515  
G01 X2.3815  Y1.4324  
G00 Z0.1000  
G00 X2.3848  Y1.4488  
G01 Z-0.0070 F10    
G01 X2.3788  Y1.4548  F20    
G01 X2.3738  Y1.4617  
G01 X2.3700  Y1.4693  
G01 X2.3673  Y1.4774  
G01 X2.3660  Y1.4857  
G01 X2.3660  Y1.4942  
G01 X2.3673  Y1.5026  
G01 X2.3700  Y1.5107  
G01 X2.3738  Y1.5183  
G01 X2.3788  Y1.5252  
G01 X2.3848  Y1.5312  
G01 X2.3917  Y1.5362  
G01 X2.3993  Y1.5400  
G01 X2.4074  Y1.5427  
G01 X2.4158  Y1.5440  
G01 X2.5158  Y1.5440  
G01 X2.5242  Y1.5440  
G01 X2.5326  Y1.5427  
G01 X2.5407  Y1.5400  
G01 X2.5483  Y1.5362  
G01 X2.5552  Y1.5312  
G01 X3.0512  Y1.0352  
G01 X3.0562  Y1.0283  
G01 X3.0600  Y1.0207  
G01 X3.0627  Y1.0126  
G01 X3.0640  Y1.0042  
G01 X3.0640  Y0.9958  
G01 X3.0627  Y0.9874  
G01 X3.0600  Y0.9793  
G01 X3.0562  Y0.9717  
G01 X3.0512  Y0.9648  
G01 X3.0452  Y0.9588  
G01 X3.0383  Y0.9538  
G01 X3.0307  Y0.9500  
G01 X3.0226  Y0.9473  
G01 X3.0142  Y0.9460  
G01 X3.0057  Y0.9460  
G01 X2.9974  Y0.9473  
G01 X2.9893  Y0.9500  
G01 X2.9817  Y0.9538  
G01 X2.9748  Y0.9588  
G01 X2.4976  Y1.4360  
G01 X2.4158  Y1.4360  
G01 X2.4074  Y1.4373  
G01 X2.3993  Y1.4400  
G01 X2.3917  Y1.4438  
G01 X2.3848  Y1.4488  
G00 Z0.1000  
G00 X2.6730  Y1.5005  
G01 Z-0.0070 F10    
G01 X2.6730  Y1.5395  F20    
G01 X2.7005  Y1.5670  
G01 X2.7395  Y1.5670  
G01 X2.7670  Y1.5395  
G01 X2.7670  Y1.5005  
G01 X2.7395  Y1.4730  
G01 X2.7005  Y1.4730  
G01 X2.6730  Y1.5005  
G00 Z0.1000  
G00 X2.6947  Y1.6590  
G01 Z-0.0070 F10    
G01 X2.7453  Y1.6590  F20    
G01 X2.7810  Y1.6947  
G01 X2.7810  Y1.7453  
G01 X2.7453  Y1.7810  
G01 X2.6947  Y1.7810  
G01 X2.6590  Y1.7453  
G01 X2.6590  Y1.6947  
G01 X2.6947  Y1.6590  
G00 Z0.1000  
G00 X2.7005  Y1.6730  
G01 Z-0.0070 F10    
G01 X2.6730  Y1.7005  F20    
G01 X2.6730  Y1.7395  
G01 X2.7005  Y1.7670  
G01 X2.7395  Y1.7670  
G01 X2.7670  Y1.7395  
G01 X2.7670  Y1.7005  
G01 X2.7395  Y1.6730  
G01 X2.7005  Y1.6730  
G00 Z0.1000  
G00 X3.2190  Y1.6619  
G01 Z-0.0070 F10    
G01 X3.2283  Y1.6394  F20    
G01 X3.2454  Y1.6223  
G01 X3.2679  Y1.6130  
G01 X3.2921  Y1.6130  
G01 X3.3146  Y1.6223  
G01 X3.3317  Y1.6394  
G01 X3.3410  Y1.6619  
G01 X3.3410  Y1.7381  
G01 X3.3317  Y1.7606  
G01 X3.3146  Y1.7777  
G01 X3.2921  Y1.7870  
G01 X3.2679  Y1.7870  
G01 X3.2454  Y1.7777  
G01 X3.2283  Y1.7606  
G01 X3.2190  Y1.7381  
G01 X3.2190  Y1.6619  
G00 Z0.1000  
G00 X3.2342  Y1.6630  
G01 Z-0.0070 F10    
G01 X3.2330  Y1.6703  F20    
G01 X3.2330  Y1.7297  
G01 X3.2342  Y1.7370  
G01 X3.2364  Y1.7440  
G01 X3.2398  Y1.7506  
G01 X3.2442  Y1.7566  
G01 X3.2494  Y1.7618  
G01 X3.2554  Y1.7662  
G01 X3.2620  Y1.7696  
G01 X3.2690  Y1.7718  
G01 X3.2763  Y1.7730  
G01 X3.2837  Y1.7730  
G01 X3.2910  Y1.7718  
G01 X3.2980  Y1.7696  
G01 X3.3046  Y1.7662  
G01 X3.3106  Y1.7618  
G01 X3.3158  Y1.7566  
G01 X3.3202  Y1.7506  
G01 X3.3236  Y1.7440  
G01 X3.3258  Y1.7370  
G01 X3.3270  Y1.7297  
G01 X3.3270  Y1.6703  
G01 X3.3258  Y1.6630  
G01 X3.3236  Y1.6560  
G01 X3.3202  Y1.6494  
G01 X3.3158  Y1.6434  
G01 X3.3106  Y1.6382  
G01 X3.3046  Y1.6338  
G01 X3.2980  Y1.6304  
G01 X3.2910  Y1.6282  
G01 X3.2837  Y1.6270  
G01 X3.2763  Y1.6270  
G01 X3.2690  Y1.6282  
G01 X3.2620  Y1.6304  
G01 X3.2554  Y1.6338  
G01 X3.2494  Y1.6382  
G01 X3.2442  Y1.6434  
G01 X3.2398  Y1.6494  
G01 X3.2364  Y1.6560  
G01 X3.2342  Y1.6630  
G00 Z0.1000  
G00 X3.2454  Y1.4777  
G01 Z-0.0070 F10    
G01 X3.2283  Y1.4606  F20    
G01 X3.2190  Y1.4381  
G01 X3.2190  Y1.3619  
G01 X3.2283  Y1.3394  
G01 X3.2454  Y1.3223  
G01 X3.2679  Y1.3130  
G01 X3.2921  Y1.3130  
G01 X3.3146  Y1.3223  
G01 X3.3317  Y1.3394  
G01 X3.3410  Y1.3619  
G01 X3.3410  Y1.4381  
G01 X3.3317  Y1.4606  
G01 X3.3146  Y1.4777  
G01 X3.2921  Y1.4870  
G01 X3.2679  Y1.4870  
G01 X3.2454  Y1.4777  
G00 Z0.1000  
G00 X3.2494  Y1.4618  
G01 Z-0.0070 F10    
G01 X3.2554  Y1.4662  F20    
G01 X3.2620  Y1.4696  
G01 X3.2690  Y1.4718  
G01 X3.2763  Y1.4730  
G01 X3.2837  Y1.4730  
G01 X3.2910  Y1.4718  
G01 X3.2980  Y1.4696  
G01 X3.3046  Y1.4662  
G01 X3.3106  Y1.4618  
G01 X3.3158  Y1.4566  
G01 X3.3202  Y1.4506  
G01 X3.3236  Y1.4440  
G01 X3.3258  Y1.4370  
G01 X3.3270  Y1.4297  
G01 X3.3270  Y1.3703  
G01 X3.3258  Y1.3630  
G01 X3.3236  Y1.3560  
G01 X3.3202  Y1.3494  
G01 X3.3158  Y1.3434  
G01 X3.3106  Y1.3382  
G01 X3.3046  Y1.3338  
G01 X3.2980  Y1.3304  
G01 X3.2910  Y1.3282  
G01 X3.2837  Y1.3270  
G01 X3.2763  Y1.3270  
G01 X3.2690  Y1.3282  
G01 X3.2620  Y1.3304  
G01 X3.2554  Y1.3338  
G01 X3.2494  Y1.3382  
G01 X3.2442  Y1.3434  
G01 X3.2398  Y1.3494  
G01 X3.2364  Y1.3560  
G01 X3.2342  Y1.3630  
G01 X3.2330  Y1.3703  
G01 X3.2330  Y1.4297  
G01 X3.2342  Y1.4370  
G01 X3.2364  Y1.4440  
G01 X3.2398  Y1.4506  
G01 X3.2442  Y1.4566  
G01 X3.2494  Y1.4618  
G00 Z0.1000  
G00 X3.2454  Y1.0777  
G01 Z-0.0070 F10    
G01 X3.2283  Y1.0606  F20    
G01 X3.2190  Y1.0381  
G01 X3.2190  Y0.9619  
G01 X3.2283  Y0.9394  
G01 X3.2454  Y0.9223  
G01 X3.2679  Y0.9130  
G01 X3.2921  Y0.9130  
G01 X3.3146  Y0.9223  
G01 X3.3317  Y0.9394  
G01 X3.3410  Y0.9619  
G01 X3.3410  Y1.0381  
G01 X3.3317  Y1.0606  
G01 X3.3146  Y1.0777  
G01 X3.2921  Y1.0870  
G01 X3.2679  Y1.0870  
G01 X3.2454  Y1.0777  
G00 Z0.1000  
G00 X3.2494  Y1.0618  
G01 Z-0.0070 F10    
G01 X3.2554  Y1.0662  F20    
G01 X3.2620  Y1.0696  
G01 X3.2690  Y1.0718  
G01 X3.2763  Y1.0730  
G01 X3.2837  Y1.0730  
G01 X3.2910  Y1.0718  
G01 X3.2980  Y1.0696  
G01 X3.3046  Y1.0662  
G01 X3.3106  Y1.0618  
G01 X3.3158  Y1.0566  
G01 X3.3202  Y1.0506  
G01 X3.3236  Y1.0440  
G01 X3.3258  Y1.0370  
G01 X3.3270  Y1.0297  
G01 X3.3270  Y0.9703  
G01 X3.3258  Y0.9630  
G01 X3.3236  Y0.9560  
G01 X3.3202  Y0.9494  
G01 X3.3158  Y0.9434  
G01 X3.3106  Y0.9382  
G01 X3.3046  Y0.9338  
G01 X3.2980  Y0.9304  
G01 X3.2910  Y0.9282  
G01 X3.2837  Y0.9270  
G01 X3.2763  Y0.9270  
G01 X3.2690  Y0.9282  
G01 X3.2620  Y0.9304  
G01 X3.2554  Y0.9338  
G01 X3.2494  Y0.9382  
G01 X3.2442  Y0.9434  
G01 X3.2398  Y0.9494  
G01 X3.2364  Y0.9560  
G01 X3.2342  Y0.9630  
G01 X3.2330  Y0.9703  
G01 X3.2330  Y1.0297  
G01 X3.2342  Y1.0370  
G01 X3.2364  Y1.0440  
G01 X3.2398  Y1.0506  
G01 X3.2442  Y1.0566  
G01 X3.2494  Y1.0618  
G00 Z0.1000  
G00 X2.7353  Y1.0610  
G01 Z-0.0070 F10    
G01 X2.6847  Y1.0610  F20    
G01 X2.6490  Y1.0253  
G01 X2.6490  Y0.9747  
G01 X2.6847  Y0.9390  
G01 X2.7353  Y0.9390  
G01 X2.7710  Y0.9747  
G01 X2.7710  Y1.0253  
G01 X2.7353  Y1.0610  
G00 Z0.1000  
G00 X2.7295  Y1.0470  
G01 Z-0.0070 F10    
G01 X2.7570  Y1.0195  F20    
G01 X2.7570  Y0.9805  
G01 X2.7295  Y0.9530  
G01 X2.6905  Y0.9530  
G01 X2.6630  Y0.9805  
G01 X2.6630  Y1.0195  
G01 X2.6905  Y1.0470  
G01 X2.7295  Y1.0470  
G00 Z0.1000  
G00 X2.5710  Y1.0253  
G01 Z-0.0070 F10    
G01 X2.5353  Y1.0610  F20    
G01 X2.4847  Y1.0610  
G01 X2.4490  Y1.0253  
G01 X2.4490  Y0.9747  
G01 X2.4847  Y0.9390  
G01 X2.5353  Y0.9390  
G01 X2.5710  Y0.9747  
G01 X2.5710  Y1.0253  
G00 Z0.1000  
G00 X2.5570  Y1.0195  
G01 Z-0.0070 F10    
G01 X2.5570  Y0.9805  F20    
G01 X2.5295  Y0.9530  
G01 X2.4905  Y0.9530  
G01 X2.4630  Y0.9805  
G01 X2.4630  Y1.0195  
G01 X2.4905  Y1.0470  
G01 X2.5295  Y1.0470  
G01 X2.5570  Y1.0195  
G00 Z0.1000  
G00 X3.6647  Y1.3390  
G01 Z-0.0070 F10    
G01 X3.7153  Y1.3390  F20    
G01 X3.7510  Y1.3747  
G01 X3.7510  Y1.4253  
G01 X3.7153  Y1.4610  
G01 X3.6647  Y1.4610  
G01 X3.6290  Y1.4253  
G01 X3.6290  Y1.3747  
G01 X3.6647  Y1.3390  
G00 Z0.1000  
G00 X3.6705  Y1.3530  
G01 Z-0.0070 F10    
G01 X3.6430  Y1.3805  F20    
G01 X3.6430  Y1.4195  
G01 X3.6705  Y1.4470  
G01 X3.7095  Y1.4470  
G01 X3.7370  Y1.4195  
G01 X3.7370  Y1.3805  
G01 X3.7095  Y1.3530  
G01 X3.6705  Y1.3530  
G00 Z0.1000  
G00 X4.1290  Y1.3747  
G01 Z-0.0070 F10    
G01 X4.1647  Y1.3390  F20    
G01 X4.2153  Y1.3390  
G01 X4.2510  Y1.3747  
G01 X4.2510  Y1.4253  
G01 X4.2153  Y1.4610  
G01 X4.1647  Y1.4610  
G01 X4.1290  Y1.4253  
G01 X4.1290  Y1.3747  
G00 Z0.1000  
G00 X4.1430  Y1.3805  
G01 Z-0.0070 F10    
G01 X4.1430  Y1.4195  F20    
G01 X4.1705  Y1.4470  
G01 X4.2095  Y1.4470  
G01 X4.2370  Y1.4195  
G01 X4.2370  Y1.3805  
G01 X4.2095  Y1.3530  
G01 X4.1705  Y1.3530  
G01 X4.1430  Y1.3805  
G00 Z0.1000  
G00 X4.5530  Y1.3879  
G01 Z-0.0070 F10    
G01 X4.5630  Y1.3637  F20    
G01 X4.5652  Y1.3585  
G01 X4.5652  Y1.3581  
G01 X4.5663  Y1.3529  
G01 X4.5663  Y1.3471  
G01 X4.5652  Y1.3415  
G01 X4.5530  Y1.3121  
G01 X4.5530  Y1.2879  
G01 X4.5623  Y1.2654  
G01 X4.5794  Y1.2483  
G01 X4.6019  Y1.2390  
G01 X4.6781  Y1.2390  
G01 X4.7006  Y1.2483  
G01 X4.7177  Y1.2654  
G01 X4.7270  Y1.2879  
G01 X4.7270  Y1.3121  
G01 X4.7148  Y1.3415  
G01 X4.7138  Y1.3468  
G01 X4.7137  Y1.3471  
G01 X4.7137  Y1.3529  
G01 X4.7148  Y1.3585  
G01 X4.7149  Y1.3586  
G01 X4.7170  Y1.3637  
G01 X4.7270  Y1.3879  
G01 X4.7270  Y1.4121  
G01 X4.7170  Y1.4363  
G01 X4.7148  Y1.4415  
G01 X4.7148  Y1.4419  
G01 X4.7137  Y1.4471  
G01 X4.7137  Y1.4529  
G01 X4.7148  Y1.4585  
G01 X4.7270  Y1.4879  
G01 X4.7270  Y1.5121  
G01 X4.7177  Y1.5346  
G01 X4.7006  Y1.5517  
G01 X4.6781  Y1.5610  
G01 X4.6019  Y1.5610  
G01 X4.5794  Y1.5517  
G01 X4.5623  Y1.5346  
G01 X4.5530  Y1.5121  
G01 X4.5530  Y1.4879  
G01 X4.5652  Y1.4585  
G01 X4.5662  Y1.4532  
G01 X4.5663  Y1.4529  
G01 X4.5663  Y1.4471  
G01 X4.5652  Y1.4415  
G01 X4.5651  Y1.4414  
G01 X4.5630  Y1.4363  
G01 X4.5530  Y1.4121  
G01 X4.5530  Y1.3879  
G00 Z0.1000  
G00 X4.5682  Y1.3890  
G01 Z-0.0070 F10    
G01 X4.5670  Y1.3963  F20    
G01 X4.5670  Y1.4037  
G01 X4.5682  Y1.4110  
G01 X4.5704  Y1.4180  
G01 X4.5738  Y1.4246  
G01 X4.5782  Y1.4306  
G01 X4.5834  Y1.4358  
G01 X4.5894  Y1.4402  
G01 X4.5960  Y1.4436  
G01 X4.6030  Y1.4458  
G01 X4.6103  Y1.4470  
G01 X4.6697  Y1.4470  
G01 X4.6770  Y1.4458  
G01 X4.6840  Y1.4436  
G01 X4.6906  Y1.4402  
G01 X4.6966  Y1.4358  
G01 X4.7018  Y1.4306  
G01 X4.7062  Y1.4246  
G01 X4.7096  Y1.4180  
G01 X4.7118  Y1.4110  
G01 X4.7130  Y1.4037  
G01 X4.7130  Y1.3963  
G01 X4.7118  Y1.3890  
G01 X4.7096  Y1.3820  
G01 X4.7062  Y1.3754  
G01 X4.7018  Y1.3694  
G01 X4.6966  Y1.3642  
G01 X4.6906  Y1.3598  
G01 X4.6840  Y1.3564  
G01 X4.6770  Y1.3542  
G01 X4.6697  Y1.3530  
G01 X4.6103  Y1.3530  
G01 X4.6030  Y1.3542  
G01 X4.5960  Y1.3564  
G01 X4.5894  Y1.3598  
G01 X4.5834  Y1.3642  
G01 X4.5782  Y1.3694  
G01 X4.5738  Y1.3754  
G01 X4.5704  Y1.3820  
G01 X4.5682  Y1.3890  
G00 Z0.1000  
G00 X4.5834  Y1.3358  
G01 Z-0.0070 F10    
G01 X4.5894  Y1.3402  F20    
G01 X4.5960  Y1.3436  
G01 X4.6030  Y1.3458  
G01 X4.6103  Y1.3470  
G01 X4.6697  Y1.3470  
G01 X4.6770  Y1.3458  
G01 X4.6840  Y1.3436  
G01 X4.6906  Y1.3402  
G01 X4.6966  Y1.3358  
G01 X4.7018  Y1.3306  
G01 X4.7062  Y1.3246  
G01 X4.7096  Y1.3180  
G01 X4.7118  Y1.3110  
G01 X4.7130  Y1.3037  
G01 X4.7130  Y1.2963  
G01 X4.7118  Y1.2890  
G01 X4.7096  Y1.2820  
G01 X4.7062  Y1.2754  
G01 X4.7018  Y1.2694  
G01 X4.6966  Y1.2642  
G01 X4.6906  Y1.2598  
G01 X4.6840  Y1.2564  
G01 X4.6770  Y1.2542  
G01 X4.6697  Y1.2530  
G01 X4.6103  Y1.2530  
G01 X4.6030  Y1.2542  
G01 X4.5960  Y1.2564  
G01 X4.5894  Y1.2598  
G01 X4.5834  Y1.2642  
G01 X4.5782  Y1.2694  
G01 X4.5738  Y1.2754  
G01 X4.5704  Y1.2820  
G01 X4.5682  Y1.2890  
G01 X4.5670  Y1.2963  
G01 X4.5670  Y1.3037  
G01 X4.5682  Y1.3110  
G01 X4.5704  Y1.3180  
G01 X4.5738  Y1.3246  
G01 X4.5782  Y1.3306  
G01 X4.5834  Y1.3358  
G00 Z0.1000  
G00 X4.5834  Y1.4642  
G01 Z-0.0070 F10    
G01 X4.5782  Y1.4694  F20    
G01 X4.5738  Y1.4754  
G01 X4.5704  Y1.4820  
G01 X4.5682  Y1.4890  
G01 X4.5670  Y1.4963  
G01 X4.5670  Y1.5037  
G01 X4.5682  Y1.5110  
G01 X4.5704  Y1.5180  
G01 X4.5738  Y1.5246  
G01 X4.5782  Y1.5306  
G01 X4.5834  Y1.5358  
G01 X4.5894  Y1.5402  
G01 X4.5960  Y1.5436  
G01 X4.6030  Y1.5458  
G01 X4.6103  Y1.5470  
G01 X4.6697  Y1.5470  
G01 X4.6770  Y1.5458  
G01 X4.6840  Y1.5436  
G01 X4.6906  Y1.5402  
G01 X4.6966  Y1.5358  
G01 X4.7018  Y1.5306  
G01 X4.7062  Y1.5246  
G01 X4.7096  Y1.5180  
G01 X4.7118  Y1.5110  
G01 X4.7130  Y1.5037  
G01 X4.7130  Y1.4963  
G01 X4.7118  Y1.4890  
G01 X4.7096  Y1.4820  
G01 X4.7062  Y1.4754  
G01 X4.7018  Y1.4694  
G01 X4.6966  Y1.4642  
G01 X4.6906  Y1.4598  
G01 X4.6840  Y1.4564  
G01 X4.6770  Y1.4542  
G01 X4.6697  Y1.4530  
G01 X4.6103  Y1.4530  
G01 X4.6030  Y1.4542  
G01 X4.5960  Y1.4564  
G01 X4.5894  Y1.4598  
G01 X4.5834  Y1.4642  
G00 Z0.1000  
G00 X4.5794  Y1.9483  
G01 Z-0.0070 F10    
G01 X4.6019  Y1.9390  F20    
G01 X4.6781  Y1.9390  
G01 X4.7006  Y1.9483  
G01 X4.7177  Y1.9654  
G01 X4.7270  Y1.9879  
G01 X4.7270  Y2.0121  
G01 X4.7148  Y2.0415  
G01 X4.7138  Y2.0468  
G01 X4.7137  Y2.0471  
G01 X4.7137  Y2.0529  
G01 X4.7148  Y2.0585  
G01 X4.7149  Y2.0586  
G01 X4.7170  Y2.0637  
G01 X4.7270  Y2.0879  
G01 X4.7270  Y2.1121  
G01 X4.7170  Y2.1363  
G01 X4.7148  Y2.1415  
G01 X4.7148  Y2.1419  
G01 X4.7137  Y2.1471  
G01 X4.7137  Y2.1529  
G01 X4.7148  Y2.1585  
G01 X4.7270  Y2.1879  
G01 X4.7270  Y2.2121  
G01 X4.7177  Y2.2346  
G01 X4.7006  Y2.2517  
G01 X4.6781  Y2.2610  
G01 X4.6019  Y2.2610  
G01 X4.5794  Y2.2517  
G01 X4.5623  Y2.2346  
G01 X4.5530  Y2.2121  
G01 X4.5530  Y2.1879  
G01 X4.5652  Y2.1585  
G01 X4.5662  Y2.1532  
G01 X4.5663  Y2.1529  
G01 X4.5663  Y2.1471  
G01 X4.5652  Y2.1415  
G01 X4.5651  Y2.1414  
G01 X4.5630  Y2.1363  
G01 X4.5530  Y2.1121  
G01 X4.5530  Y2.0879  
G01 X4.5630  Y2.0637  
G01 X4.5652  Y2.0585  
G01 X4.5652  Y2.0581  
G01 X4.5663  Y2.0529  
G01 X4.5663  Y2.0471  
G01 X4.5652  Y2.0415  
G01 X4.5530  Y2.0121  
G01 X4.5530  Y1.9879  
G01 X4.5623  Y1.9654  
G01 X4.5794  Y1.9483  
G00 Z0.1000  
G00 X4.5834  Y1.9642  
G01 Z-0.0070 F10    
G01 X4.5782  Y1.9694  F20    
G01 X4.5738  Y1.9754  
G01 X4.5704  Y1.9820  
G01 X4.5682  Y1.9890  
G01 X4.5670  Y1.9963  
G01 X4.5670  Y2.0037  
G01 X4.5682  Y2.0110  
G01 X4.5704  Y2.0180  
G01 X4.5738  Y2.0246  
G01 X4.5782  Y2.0306  
G01 X4.5834  Y2.0358  
G01 X4.5894  Y2.0402  
G01 X4.5960  Y2.0436  
G01 X4.6030  Y2.0458  
G01 X4.6103  Y2.0470  
G01 X4.6697  Y2.0470  
G01 X4.6770  Y2.0458  
G01 X4.6840  Y2.0436  
G01 X4.6906  Y2.0402  
G01 X4.6966  Y2.0358  
G01 X4.7018  Y2.0306  
G01 X4.7062  Y2.0246  
G01 X4.7096  Y2.0180  
G01 X4.7118  Y2.0110  
G01 X4.7130  Y2.0037  
G01 X4.7130  Y1.9963  
G01 X4.7118  Y1.9890  
G01 X4.7096  Y1.9820  
G01 X4.7062  Y1.9754  
G01 X4.7018  Y1.9694  
G01 X4.6966  Y1.9642  
G01 X4.6906  Y1.9598  
G01 X4.6840  Y1.9564  
G01 X4.6770  Y1.9542  
G01 X4.6697  Y1.9530  
G01 X4.6103  Y1.9530  
G01 X4.6030  Y1.9542  
G01 X4.5960  Y1.9564  
G01 X4.5894  Y1.9598  
G01 X4.5834  Y1.9642  
G00 Z0.1000  
G00 X4.5834  Y2.0642  
G01 Z-0.0070 F10    
G01 X4.5782  Y2.0694  F20    
G01 X4.5738  Y2.0754  
G01 X4.5704  Y2.0820  
G01 X4.5682  Y2.0890  
G01 X4.5670  Y2.0963  
G01 X4.5670  Y2.1037  
G01 X4.5682  Y2.1110  
G01 X4.5704  Y2.1180  
G01 X4.5738  Y2.1246  
G01 X4.5782  Y2.1306  
G01 X4.5834  Y2.1358  
G01 X4.5894  Y2.1402  
G01 X4.5960  Y2.1436  
G01 X4.6030  Y2.1458  
G01 X4.6103  Y2.1470  
G01 X4.6697  Y2.1470  
G01 X4.6770  Y2.1458  
G01 X4.6840  Y2.1436  
G01 X4.6906  Y2.1402  
G01 X4.6966  Y2.1358  
G01 X4.7018  Y2.1306  
G01 X4.7062  Y2.1246  
G01 X4.7096  Y2.1180  
G01 X4.7118  Y2.1110  
G01 X4.7130  Y2.1037  
G01 X4.7130  Y2.0963  
G01 X4.7118  Y2.0890  
G01 X4.7096  Y2.0820  
G01 X4.7062  Y2.0754  
G01 X4.7018  Y2.0694  
G01 X4.6966  Y2.0642  
G01 X4.6906  Y2.0598  
G01 X4.6840  Y2.0564  
G01 X4.6770  Y2.0542  
G01 X4.6697  Y2.0530  
G01 X4.6103  Y2.0530  
G01 X4.6030  Y2.0542  
G01 X4.5960  Y2.0564  
G01 X4.5894  Y2.0598  
G01 X4.5834  Y2.0642  
G00 Z0.1000  
G00 X4.5834  Y2.1642  
G01 Z-0.0070 F10    
G01 X4.5782  Y2.1694  F20    
G01 X4.5738  Y2.1754  
G01 X4.5704  Y2.1820  
G01 X4.5682  Y2.1890  
G01 X4.5670  Y2.1963  
G01 X4.5670  Y2.2037  
G01 X4.5682  Y2.2110  
G01 X4.5704  Y2.2180  
G01 X4.5738  Y2.2246  
G01 X4.5782  Y2.2306  
G01 X4.5834  Y2.2358  
G01 X4.5894  Y2.2402  
G01 X4.5960  Y2.2436  
G01 X4.6030  Y2.2458  
G01 X4.6103  Y2.2470  
G01 X4.6697  Y2.2470  
G01 X4.6770  Y2.2458  
G01 X4.6840  Y2.2436  
G01 X4.6906  Y2.2402  
G01 X4.6966  Y2.2358  
G01 X4.7018  Y2.2306  
G01 X4.7062  Y2.2246  
G01 X4.7096  Y2.2180  
G01 X4.7118  Y2.2110  
G01 X4.7130  Y2.2037  
G01 X4.7130  Y2.1963  
G01 X4.7118  Y2.1890  
G01 X4.7096  Y2.1820  
G01 X4.7062  Y2.1754  
G01 X4.7018  Y2.1694  
G01 X4.6966  Y2.1642  
G01 X4.6906  Y2.1598  
G01 X4.6840  Y2.1564  
G01 X4.6770  Y2.1542  
G01 X4.6697  Y2.1530  
G01 X4.6103  Y2.1530  
G01 X4.6030  Y2.1542  
G01 X4.5960  Y2.1564  
G01 X4.5894  Y2.1598  
G01 X4.5834  Y2.1642  
G00 Z0.1000  
G00 X4.2053  Y2.1610  
G01 Z-0.0070 F10    
G01 X4.1547  Y2.1610  F20    
G01 X4.1190  Y2.1253  
G01 X4.1190  Y2.0747  
G01 X4.1547  Y2.0390  
G01 X4.2053  Y2.0390  
G01 X4.2410  Y2.0747  
G01 X4.2410  Y2.1253  
G01 X4.2053  Y2.1610  
G00 Z0.1000  
G00 X4.1995  Y2.1470  
G01 Z-0.0070 F10    
G01 X4.2270  Y2.1195  F20    
G01 X4.2270  Y2.0805  
G01 X4.1995  Y2.0530  
G01 X4.1605  Y2.0530  
G01 X4.1330  Y2.0805  
G01 X4.1330  Y2.1195  
G01 X4.1605  Y2.1470  
G01 X4.1995  Y2.1470  
G00 Z0.1000  
G00 X3.7410  Y2.1253  
G01 Z-0.0070 F10    
G01 X3.7053  Y2.1610  F20    
G01 X3.6547  Y2.1610  
G01 X3.6190  Y2.1253  
G01 X3.6190  Y2.0747  
G01 X3.6547  Y2.0390  
G01 X3.7053  Y2.0390  
G01 X3.7410  Y2.0747  
G01 X3.7410  Y2.1253  
G00 Z0.1000  
G00 X3.7270  Y2.1195  
G01 Z-0.0070 F10    
G01 X3.7270  Y2.0805  F20    
G01 X3.6995  Y2.0530  
G01 X3.6605  Y2.0530  
G01 X3.6330  Y2.0805  
G01 X3.6330  Y2.1195  
G01 X3.6605  Y2.1470  
G01 X3.6995  Y2.1470  
G01 X3.7270  Y2.1195  
G00 Z0.1000  
G00 X3.3410  Y2.1381  
G01 Z-0.0070 F10    
G01 X3.3317  Y2.1606  F20    
G01 X3.3146  Y2.1777  
G01 X3.2921  Y2.1870  
G01 X3.2679  Y2.1870  
G01 X3.2454  Y2.1777  
G01 X3.2283  Y2.1606  
G01 X3.2190  Y2.1381  
G01 X3.2190  Y2.0619  
G01 X3.2283  Y2.0394  
G01 X3.2454  Y2.0223  
G01 X3.2679  Y2.0130  
G01 X3.2921  Y2.0130  
G01 X3.3146  Y2.0223  
G01 X3.3317  Y2.0394  
G01 X3.3410  Y2.0619  
G01 X3.3410  Y2.1381  
G00 Z0.1000  
G00 X3.3258  Y2.1370  
G01 Z-0.0070 F10    
G01 X3.3270  Y2.1297  F20    
G01 X3.3270  Y2.0703  
G01 X3.3258  Y2.0630  
G01 X3.3236  Y2.0560  
G01 X3.3202  Y2.0494  
G01 X3.3158  Y2.0434  
G01 X3.3106  Y2.0382  
G01 X3.3046  Y2.0338  
G01 X3.2980  Y2.0304  
G01 X3.2910  Y2.0282  
G01 X3.2837  Y2.0270  
G01 X3.2763  Y2.0270  
G01 X3.2690  Y2.0282  
G01 X3.2620  Y2.0304  
G01 X3.2554  Y2.0338  
G01 X3.2494  Y2.0382  
G01 X3.2442  Y2.0434  
G01 X3.2398  Y2.0494  
G01 X3.2364  Y2.0560  
G01 X3.2342  Y2.0630  
G01 X3.2330  Y2.0703  
G01 X3.2330  Y2.1297  
G01 X3.2342  Y2.1370  
G01 X3.2364  Y2.1440  
G01 X3.2398  Y2.1506  
G01 X3.2442  Y2.1566  
G01 X3.2494  Y2.1618  
G01 X3.2554  Y2.1662  
G01 X3.2620  Y2.1696  
G01 X3.2690  Y2.1718  
G01 X3.2763  Y2.1730  
G01 X3.2837  Y2.1730  
G01 X3.2910  Y2.1718  
G01 X3.2980  Y2.1696  
G01 X3.3046  Y2.1662  
G01 X3.3106  Y2.1618  
G01 X3.3158  Y2.1566  
G01 X3.3202  Y2.1506  
G01 X3.3236  Y2.1440  
G01 X3.3258  Y2.1370  
G00 Z0.1000  
G00 X3.3246  Y2.6623  
G01 Z-0.0070 F10    
G01 X3.3417  Y2.6794  F20    
G01 X3.3510  Y2.7019  
G01 X3.3510  Y2.7781  
G01 X3.3417  Y2.8006  
G01 X3.3246  Y2.8177  
G01 X3.3021  Y2.8270  
G01 X3.2779  Y2.8270  
G01 X3.2554  Y2.8177  
G01 X3.2383  Y2.8006  
G01 X3.2290  Y2.7781  
G01 X3.2290  Y2.7019  
G01 X3.2383  Y2.6794  
G01 X3.2554  Y2.6623  
G01 X3.2779  Y2.6530  
G01 X3.3021  Y2.6530  
G01 X3.3246  Y2.6623  
G00 Z0.1000  
G00 X3.3206  Y2.6782  
G01 Z-0.0070 F10    
G01 X3.3146  Y2.6738  F20    
G01 X3.3080  Y2.6704  
G01 X3.3010  Y2.6682  
G01 X3.2937  Y2.6670  
G01 X3.2863  Y2.6670  
G01 X3.2790  Y2.6682  
G01 X3.2720  Y2.6704  
G01 X3.2654  Y2.6738  
G01 X3.2594  Y2.6782  
G01 X3.2542  Y2.6834  
G01 X3.2498  Y2.6894  
G01 X3.2464  Y2.6960  
G01 X3.2442  Y2.7030  
G01 X3.2430  Y2.7103  
G01 X3.2430  Y2.7697  
G01 X3.2442  Y2.7770  
G01 X3.2464  Y2.7840  
G01 X3.2498  Y2.7906  
G01 X3.2542  Y2.7966  
G01 X3.2594  Y2.8018  
G01 X3.2654  Y2.8062  
G01 X3.2720  Y2.8096  
G01 X3.2790  Y2.8118  
G01 X3.2863  Y2.8130  
G01 X3.2937  Y2.8130  
G01 X3.3010  Y2.8118  
G01 X3.3080  Y2.8096  
G01 X3.3146  Y2.8062  
G01 X3.3206  Y2.8018  
G01 X3.3258  Y2.7966  
G01 X3.3302  Y2.7906  
G01 X3.3336  Y2.7840  
G01 X3.3358  Y2.7770  
G01 X3.3370  Y2.7697  
G01 X3.3370  Y2.7103  
G01 X3.3358  Y2.7030  
G01 X3.3336  Y2.6960  
G01 X3.3302  Y2.6894  
G01 X3.3258  Y2.6834  
G01 X3.3206  Y2.6782  
G00 Z0.1000  
G00 X3.6647  Y2.6790  
G01 Z-0.0070 F10    
G01 X3.7153  Y2.6790  F20    
G01 X3.7510  Y2.7147  
G01 X3.7510  Y2.7653  
G01 X3.7153  Y2.8010  
G01 X3.6647  Y2.8010  
G01 X3.6290  Y2.7653  
G01 X3.6290  Y2.7147  
G01 X3.6647  Y2.6790  
G00 Z0.1000  
G00 X3.6705  Y2.6930  
G01 Z-0.0070 F10    
G01 X3.6430  Y2.7205  F20    
G01 X3.6430  Y2.7595  
G01 X3.6705  Y2.7870  
G01 X3.7095  Y2.7870  
G01 X3.7370  Y2.7595  
G01 X3.7370  Y2.7205  
G01 X3.7095  Y2.6930  
G01 X3.6705  Y2.6930  
G00 Z0.1000  
G00 X4.1290  Y2.7147  
G01 Z-0.0070 F10    
G01 X4.1647  Y2.6790  F20    
G01 X4.2153  Y2.6790  
G01 X4.2510  Y2.7147  
G01 X4.2510  Y2.7653  
G01 X4.2153  Y2.8010  
G01 X4.1647  Y2.8010  
G01 X4.1290  Y2.7653  
G01 X4.1290  Y2.7147  
G00 Z0.1000  
G00 X4.1430  Y2.7205  
G01 Z-0.0070 F10    
G01 X4.1430  Y2.7595  F20    
G01 X4.1705  Y2.7870  
G01 X4.2095  Y2.7870  
G01 X4.2370  Y2.7595  
G01 X4.2370  Y2.7205  
G01 X4.2095  Y2.6930  
G01 X4.1705  Y2.6930  
G01 X4.1430  Y2.7205  
G00 Z0.1000  
G00 X4.5530  Y2.7279  
G01 Z-0.0070 F10    
G01 X4.5630  Y2.7037  F20    
G01 X4.5652  Y2.6985  
G01 X4.5652  Y2.6981  
G01 X4.5663  Y2.6929  
G01 X4.5663  Y2.6871  
G01 X4.5652  Y2.6815  
G01 X4.5530  Y2.6521  
G01 X4.5530  Y2.6279  
G01 X4.5623  Y2.6054  
G01 X4.5794  Y2.5883  
G01 X4.6019  Y2.5790  
G01 X4.6781  Y2.5790  
G01 X4.7006  Y2.5883  
G01 X4.7177  Y2.6054  
G01 X4.7270  Y2.6279  
G01 X4.7270  Y2.6521  
G01 X4.7148  Y2.6815  
G01 X4.7137  Y2.6871  
G01 X4.7137  Y2.6929  
G01 X4.7148  Y2.6985  
G01 X4.7170  Y2.7037  
G01 X4.7270  Y2.7279  
G01 X4.7270  Y2.7521  
G01 X4.7170  Y2.7763  
G01 X4.7148  Y2.7815  
G01 X4.7148  Y2.7819  
G01 X4.7137  Y2.7871  
G01 X4.7137  Y2.7929  
G01 X4.7148  Y2.7985  
G01 X4.7270  Y2.8279  
G01 X4.7270  Y2.8521  
G01 X4.7177  Y2.8746  
G01 X4.7006  Y2.8917  
G01 X4.6781  Y2.9010  
G01 X4.6019  Y2.9010  
G01 X4.5794  Y2.8917  
G01 X4.5623  Y2.8746  
G01 X4.5530  Y2.8521  
G01 X4.5530  Y2.8279  
G01 X4.5652  Y2.7985  
G01 X4.5662  Y2.7932  
G01 X4.5663  Y2.7929  
G01 X4.5663  Y2.7871  
G01 X4.5652  Y2.7815  
G01 X4.5651  Y2.7814  
G01 X4.5630  Y2.7763  
G01 X4.5530  Y2.7521  
G01 X4.5530  Y2.7279  
G00 Z0.1000  
G00 X4.5682  Y2.7290  
G01 Z-0.0070 F10    
G01 X4.5670  Y2.7363  F20    
G01 X4.5670  Y2.7437  
G01 X4.5682  Y2.7510  
G01 X4.5704  Y2.7580  
G01 X4.5738  Y2.7646  
G01 X4.5782  Y2.7706  
G01 X4.5834  Y2.7758  
G01 X4.5894  Y2.7802  
G01 X4.5960  Y2.7836  
G01 X4.6030  Y2.7858  
G01 X4.6103  Y2.7870  
G01 X4.6697  Y2.7870  
G01 X4.6770  Y2.7858  
G01 X4.6840  Y2.7836  
G01 X4.6906  Y2.7802  
G01 X4.6966  Y2.7758  
G01 X4.7018  Y2.7706  
G01 X4.7062  Y2.7646  
G01 X4.7096  Y2.7580  
G01 X4.7118  Y2.7510  
G01 X4.7130  Y2.7437  
G01 X4.7130  Y2.7363  
G01 X4.7118  Y2.7290  
G01 X4.7096  Y2.7220  
G01 X4.7062  Y2.7154  
G01 X4.7018  Y2.7094  
G01 X4.6966  Y2.7042  
G01 X4.6906  Y2.6998  
G01 X4.6840  Y2.6964  
G01 X4.6770  Y2.6942  
G01 X4.6697  Y2.6930  
G01 X4.6103  Y2.6930  
G01 X4.6030  Y2.6942  
G01 X4.5960  Y2.6964  
G01 X4.5894  Y2.6998  
G01 X4.5834  Y2.7042  
G01 X4.5782  Y2.7094  
G01 X4.5738  Y2.7154  
G01 X4.5704  Y2.7220  
G01 X4.5682  Y2.7290  
G00 Z0.1000  
G00 X4.5834  Y2.6758  
G01 Z-0.0070 F10    
G01 X4.5894  Y2.6802  F20    
G01 X4.5960  Y2.6836  
G01 X4.6030  Y2.6858  
G01 X4.6103  Y2.6870  
G01 X4.6697  Y2.6870  
G01 X4.6770  Y2.6858  
G01 X4.6840  Y2.6836  
G01 X4.6906  Y2.6802  
G01 X4.6966  Y2.6758  
G01 X4.7018  Y2.6706  
G01 X4.7062  Y2.6646  
G01 X4.7096  Y2.6580  
G01 X4.7118  Y2.6510  
G01 X4.7130  Y2.6437  
G01 X4.7130  Y2.6363  
G01 X4.7118  Y2.6290  
G01 X4.7096  Y2.6220  
G01 X4.7062  Y2.6154  
G01 X4.7018  Y2.6094  
G01 X4.6966  Y2.6042  
G01 X4.6906  Y2.5998  
G01 X4.6840  Y2.5964  
G01 X4.6770  Y2.5942  
G01 X4.6697  Y2.5930  
G01 X4.6103  Y2.5930  
G01 X4.6030  Y2.5942  
G01 X4.5960  Y2.5964  
G01 X4.5894  Y2.5998  
G01 X4.5834  Y2.6042  
G01 X4.5782  Y2.6094  
G01 X4.5738  Y2.6154  
G01 X4.5704  Y2.6220  
G01 X4.5682  Y2.6290  
G01 X4.5670  Y2.6363  
G01 X4.5670  Y2.6437  
G01 X4.5682  Y2.6510  
G01 X4.5704  Y2.6580  
G01 X4.5738  Y2.6646  
G01 X4.5782  Y2.6706  
G01 X4.5834  Y2.6758  
G00 Z0.1000  
G00 X4.5834  Y2.8042  
G01 Z-0.0070 F10    
G01 X4.5782  Y2.8094  F20    
G01 X4.5738  Y2.8154  
G01 X4.5704  Y2.8220  
G01 X4.5682  Y2.8290  
G01 X4.5670  Y2.8363  
G01 X4.5670  Y2.8437  
G01 X4.5682  Y2.8510  
G01 X4.5704  Y2.8580  
G01 X4.5738  Y2.8646  
G01 X4.5782  Y2.8706  
G01 X4.5834  Y2.8758  
G01 X4.5894  Y2.8802  
G01 X4.5960  Y2.8836  
G01 X4.6030  Y2.8858  
G01 X4.6103  Y2.8870  
G01 X4.6697  Y2.8870  
G01 X4.6770  Y2.8858  
G01 X4.6840  Y2.8836  
G01 X4.6906  Y2.8802  
G01 X4.6966  Y2.8758  
G01 X4.7018  Y2.8706  
G01 X4.7062  Y2.8646  
G01 X4.7096  Y2.8580  
G01 X4.7118  Y2.8510  
G01 X4.7130  Y2.8437  
G01 X4.7130  Y2.8363  
G01 X4.7118  Y2.8290  
G01 X4.7096  Y2.8220  
G01 X4.7062  Y2.8154  
G01 X4.7018  Y2.8094  
G01 X4.6966  Y2.8042  
G01 X4.6906  Y2.7998  
G01 X4.6840  Y2.7964  
G01 X4.6770  Y2.7942  
G01 X4.6697  Y2.7930  
G01 X4.6103  Y2.7930  
G01 X4.6030  Y2.7942  
G01 X4.5960  Y2.7964  
G01 X4.5894  Y2.7998  
G01 X4.5834  Y2.8042  
G00 Z0.1000  
G00 X4.5794  Y3.3683  
G01 Z-0.0070 F10    
G01 X4.6019  Y3.3590  F20    
G01 X4.6781  Y3.3590  
G01 X4.7006  Y3.3683  
G01 X4.7177  Y3.3854  
G01 X4.7270  Y3.4079  
G01 X4.7270  Y3.4321  
G01 X4.7148  Y3.4615  
G01 X4.7138  Y3.4668  
G01 X4.7137  Y3.4671  
G01 X4.7137  Y3.4729  
G01 X4.7148  Y3.4785  
G01 X4.7149  Y3.4786  
G01 X4.7170  Y3.4837  
G01 X4.7270  Y3.5079  
G01 X4.7270  Y3.5321  
G01 X4.7170  Y3.5563  
G01 X4.7148  Y3.5615  
G01 X4.7148  Y3.5619  
G01 X4.7137  Y3.5671  
G01 X4.7137  Y3.5729  
G01 X4.7148  Y3.5785  
G01 X4.7270  Y3.6079  
G01 X4.7270  Y3.6321  
G01 X4.7177  Y3.6546  
G01 X4.7006  Y3.6717  
G01 X4.6781  Y3.6810  
G01 X4.6019  Y3.6810  
G01 X4.5794  Y3.6717  
G01 X4.5623  Y3.6546  
G01 X4.5530  Y3.6321  
G01 X4.5530  Y3.6079  
G01 X4.5652  Y3.5785  
G01 X4.5662  Y3.5732  
G01 X4.5663  Y3.5729  
G01 X4.5663  Y3.5671  
G01 X4.5652  Y3.5615  
G01 X4.5651  Y3.5614  
G01 X4.5630  Y3.5563  
G01 X4.5530  Y3.5321  
G01 X4.5530  Y3.5079  
G01 X4.5630  Y3.4837  
G01 X4.5652  Y3.4785  
G01 X4.5652  Y3.4781  
G01 X4.5663  Y3.4729  
G01 X4.5663  Y3.4671  
G01 X4.5652  Y3.4615  
G01 X4.5530  Y3.4321  
G01 X4.5530  Y3.4079  
G01 X4.5623  Y3.3854  
G01 X4.5794  Y3.3683  
G00 Z0.1000  
G00 X4.5834  Y3.3842  
G01 Z-0.0070 F10    
G01 X4.5782  Y3.3894  F20    
G01 X4.5738  Y3.3954  
G01 X4.5704  Y3.4020  
G01 X4.5682  Y3.4090  
G01 X4.5670  Y3.4163  
G01 X4.5670  Y3.4237  
G01 X4.5682  Y3.4310  
G01 X4.5704  Y3.4380  
G01 X4.5738  Y3.4446  
G01 X4.5782  Y3.4506  
G01 X4.5834  Y3.4558  
G01 X4.5894  Y3.4602  
G01 X4.5960  Y3.4636  
G01 X4.6030  Y3.4658  
G01 X4.6103  Y3.4670  
G01 X4.6697  Y3.4670  
G01 X4.6770  Y3.4658  
G01 X4.6840  Y3.4636  
G01 X4.6906  Y3.4602  
G01 X4.6966  Y3.4558  
G01 X4.7018  Y3.4506  
G01 X4.7062  Y3.4446  
G01 X4.7096  Y3.4380  
G01 X4.7118  Y3.4310  
G01 X4.7130  Y3.4237  
G01 X4.7130  Y3.4163  
G01 X4.7118  Y3.4090  
G01 X4.7096  Y3.4020  
G01 X4.7062  Y3.3954  
G01 X4.7018  Y3.3894  
G01 X4.6966  Y3.3842  
G01 X4.6906  Y3.3798  
G01 X4.6840  Y3.3764  
G01 X4.6770  Y3.3742  
G01 X4.6697  Y3.3730  
G01 X4.6103  Y3.3730  
G01 X4.6030  Y3.3742  
G01 X4.5960  Y3.3764  
G01 X4.5894  Y3.3798  
G01 X4.5834  Y3.3842  
G00 Z0.1000  
G00 X4.5834  Y3.4842  
G01 Z-0.0070 F10    
G01 X4.5782  Y3.4894  F20    
G01 X4.5738  Y3.4954  
G01 X4.5704  Y3.5020  
G01 X4.5682  Y3.5090  
G01 X4.5670  Y3.5163  
G01 X4.5670  Y3.5237  
G01 X4.5682  Y3.5310  
G01 X4.5704  Y3.5380  
G01 X4.5738  Y3.5446  
G01 X4.5782  Y3.5506  
G01 X4.5834  Y3.5558  
G01 X4.5894  Y3.5602  
G01 X4.5960  Y3.5636  
G01 X4.6030  Y3.5658  
G01 X4.6103  Y3.5670  
G01 X4.6697  Y3.5670  
G01 X4.6770  Y3.5658  
G01 X4.6840  Y3.5636  
G01 X4.6906  Y3.5602  
G01 X4.6966  Y3.5558  
G01 X4.7018  Y3.5506  
G01 X4.7062  Y3.5446  
G01 X4.7096  Y3.5380  
G01 X4.7118  Y3.5310  
G01 X4.7130  Y3.5237  
G01 X4.7130  Y3.5163  
G01 X4.7118  Y3.5090  
G01 X4.7096  Y3.5020  
G01 X4.7062  Y3.4954  
G01 X4.7018  Y3.4894  
G01 X4.6966  Y3.4842  
G01 X4.6906  Y3.4798  
G01 X4.6840  Y3.4764  
G01 X4.6770  Y3.4742  
G01 X4.6697  Y3.4730  
G01 X4.6103  Y3.4730  
G01 X4.6030  Y3.4742  
G01 X4.5960  Y3.4764  
G01 X4.5894  Y3.4798  
G01 X4.5834  Y3.4842  
G00 Z0.1000  
G00 X4.5834  Y3.5842  
G01 Z-0.0070 F10    
G01 X4.5782  Y3.5894  F20    
G01 X4.5738  Y3.5954  
G01 X4.5704  Y3.6020  
G01 X4.5682  Y3.6090  
G01 X4.5670  Y3.6163  
G01 X4.5670  Y3.6237  
G01 X4.5682  Y3.6310  
G01 X4.5704  Y3.6380  
G01 X4.5738  Y3.6446  
G01 X4.5782  Y3.6506  
G01 X4.5834  Y3.6558  
G01 X4.5894  Y3.6602  
G01 X4.5960  Y3.6636  
G01 X4.6030  Y3.6658  
G01 X4.6103  Y3.6670  
G01 X4.6697  Y3.6670  
G01 X4.6770  Y3.6658  
G01 X4.6840  Y3.6636  
G01 X4.6906  Y3.6602  
G01 X4.6966  Y3.6558  
G01 X4.7018  Y3.6506  
G01 X4.7062  Y3.6446  
G01 X4.7096  Y3.6380  
G01 X4.7118  Y3.6310  
G01 X4.7130  Y3.6237  
G01 X4.7130  Y3.6163  
G01 X4.7118  Y3.6090  
G01 X4.7096  Y3.6020  
G01 X4.7062  Y3.5954  
G01 X4.7018  Y3.5894  
G01 X4.6966  Y3.5842  
G01 X4.6906  Y3.5798  
G01 X4.6840  Y3.5764  
G01 X4.6770  Y3.5742  
G01 X4.6697  Y3.5730  
G01 X4.6103  Y3.5730  
G01 X4.6030  Y3.5742  
G01 X4.5960  Y3.5764  
G01 X4.5894  Y3.5798  
G01 X4.5834  Y3.5842  
G00 Z0.1000  
G00 X4.2053  Y3.5810  
G01 Z-0.0070 F10    
G01 X4.1547  Y3.5810  F20    
G01 X4.1190  Y3.5453  
G01 X4.1190  Y3.4947  
G01 X4.1547  Y3.4590  
G01 X4.2053  Y3.4590  
G01 X4.2410  Y3.4947  
G01 X4.2410  Y3.5453  
G01 X4.2053  Y3.5810  
G00 Z0.1000  
G00 X4.1995  Y3.5670  
G01 Z-0.0070 F10    
G01 X4.2270  Y3.5395  F20    
G01 X4.2270  Y3.5005  
G01 X4.1995  Y3.4730  
G01 X4.1605  Y3.4730  
G01 X4.1330  Y3.5005  
G01 X4.1330  Y3.5395  
G01 X4.1605  Y3.5670  
G01 X4.1995  Y3.5670  
G00 Z0.1000  
G00 X3.7410  Y3.5453  
G01 Z-0.0070 F10    
G01 X3.7053  Y3.5810  F20    
G01 X3.6547  Y3.5810  
G01 X3.6190  Y3.5453  
G01 X3.6190  Y3.4947  
G01 X3.6547  Y3.4590  
G01 X3.7053  Y3.4590  
G01 X3.7410  Y3.4947  
G01 X3.7410  Y3.5453  
G00 Z0.1000  
G00 X3.7270  Y3.5395  
G01 Z-0.0070 F10    
G01 X3.7270  Y3.5005  F20    
G01 X3.6995  Y3.4730  
G01 X3.6605  Y3.4730  
G01 X3.6330  Y3.5005  
G01 X3.6330  Y3.5395  
G01 X3.6605  Y3.5670  
G01 X3.6995  Y3.5670  
G01 X3.7270  Y3.5395  
G00 Z0.1000  
G00 X3.3510  Y3.5581  
G01 Z-0.0070 F10    
G01 X3.3417  Y3.5806  F20    
G01 X3.3246  Y3.5977  
G01 X3.3021  Y3.6070  
G01 X3.2779  Y3.6070  
G01 X3.2554  Y3.5977  
G01 X3.2383  Y3.5806  
G01 X3.2290  Y3.5581  
G01 X3.2290  Y3.4819  
G01 X3.2383  Y3.4594  
G01 X3.2554  Y3.4423  
G01 X3.2779  Y3.4330  
G01 X3.3021  Y3.4330  
G01 X3.3246  Y3.4423  
G01 X3.3417  Y3.4594  
G01 X3.3510  Y3.4819  
G01 X3.3510  Y3.5581  
G00 Z0.1000  
G00 X3.3358  Y3.5570  
G01 Z-0.0070 F10    
G01 X3.3370  Y3.5497  F20    
G01 X3.3370  Y3.4903  
G01 X3.3358  Y3.4830  
G01 X3.3336  Y3.4760  
G01 X3.3302  Y3.4694  
G01 X3.3258  Y3.4634  
G01 X3.3206  Y3.4582  
G01 X3.3146  Y3.4538  
G01 X3.3080  Y3.4504  
G01 X3.3010  Y3.4482  
G01 X3.2937  Y3.4470  
G01 X3.2863  Y3.4470  
G01 X3.2790  Y3.4482  
G01 X3.2720  Y3.4504  
G01 X3.2654  Y3.4538  
G01 X3.2594  Y3.4582  
G01 X3.2542  Y3.4634  
G01 X3.2498  Y3.4694  
G01 X3.2464  Y3.4760  
G01 X3.2442  Y3.4830  
G01 X3.2430  Y3.4903  
G01 X3.2430  Y3.5497  
G01 X3.2442  Y3.5570  
G01 X3.2464  Y3.5640  
G01 X3.2498  Y3.5706  
G01 X3.2542  Y3.5766  
G01 X3.2594  Y3.5818  
G01 X3.2654  Y3.5862  
G01 X3.2720  Y3.5896  
G01 X3.2790  Y3.5918  
G01 X3.2863  Y3.5930  
G01 X3.2937  Y3.5930  
G01 X3.3010  Y3.5918  
G01 X3.3080  Y3.5896  
G01 X3.3146  Y3.5862  
G01 X3.3206  Y3.5818  
G01 X3.3258  Y3.5766  
G01 X3.3302  Y3.5706  
G01 X3.3336  Y3.5640  
G01 X3.3358  Y3.5570  
G00 Z0.1000  
G00 X3.3246  Y3.8423  
G01 Z-0.0070 F10    
G01 X3.3417  Y3.8594  F20    
G01 X3.3510  Y3.8819  
G01 X3.3510  Y3.9581  
G01 X3.3417  Y3.9806  
G01 X3.3246  Y3.9977  
G01 X3.3021  Y4.0070  
G01 X3.2779  Y4.0070  
G01 X3.2554  Y3.9977  
G01 X3.2383  Y3.9806  
G01 X3.2290  Y3.9581  
G01 X3.2290  Y3.8819  
G01 X3.2383  Y3.8594  
G01 X3.2554  Y3.8423  
G01 X3.2779  Y3.8330  
G01 X3.3021  Y3.8330  
G01 X3.3246  Y3.8423  
G00 Z0.1000  
G00 X3.3206  Y3.8582  
G01 Z-0.0070 F10    
G01 X3.3146  Y3.8538  F20    
G01 X3.3080  Y3.8504  
G01 X3.3010  Y3.8482  
G01 X3.2937  Y3.8470  
G01 X3.2863  Y3.8470  
G01 X3.2790  Y3.8482  
G01 X3.2720  Y3.8504  
G01 X3.2654  Y3.8538  
G01 X3.2594  Y3.8582  
G01 X3.2542  Y3.8634  
G01 X3.2498  Y3.8694  
G01 X3.2464  Y3.8760  
G01 X3.2442  Y3.8830  
G01 X3.2430  Y3.8903  
G01 X3.2430  Y3.9497  
G01 X3.2442  Y3.9570  
G01 X3.2464  Y3.9640  
G01 X3.2498  Y3.9706  
G01 X3.2542  Y3.9766  
G01 X3.2594  Y3.9818  
G01 X3.2654  Y3.9862  
G01 X3.2720  Y3.9896  
G01 X3.2790  Y3.9918  
G01 X3.2863  Y3.9930  
G01 X3.2937  Y3.9930  
G01 X3.3010  Y3.9918  
G01 X3.3080  Y3.9896  
G01 X3.3146  Y3.9862  
G01 X3.3206  Y3.9818  
G01 X3.3258  Y3.9766  
G01 X3.3302  Y3.9706  
G01 X3.3336  Y3.9640  
G01 X3.3358  Y3.9570  
G01 X3.3370  Y3.9497  
G01 X3.3370  Y3.8903  
G01 X3.3358  Y3.8830  
G01 X3.3336  Y3.8760  
G01 X3.3302  Y3.8694  
G01 X3.3258  Y3.8634  
G01 X3.3206  Y3.8582  
G00 Z0.1000  
G00 X3.3246  Y3.2177  
G01 Z-0.0070 F10    
G01 X3.3021  Y3.2270  F20    
G01 X3.2779  Y3.2270  
G01 X3.2554  Y3.2177  
G01 X3.2383  Y3.2006  
G01 X3.2290  Y3.1781  
G01 X3.2290  Y3.1019  
G01 X3.2383  Y3.0794  
G01 X3.2554  Y3.0623  
G01 X3.2779  Y3.0530  
G01 X3.3021  Y3.0530  
G01 X3.3246  Y3.0623  
G01 X3.3417  Y3.0794  
G01 X3.3510  Y3.1019  
G01 X3.3510  Y3.1781  
G01 X3.3417  Y3.2006  
G01 X3.3246  Y3.2177  
G00 Z0.1000  
G00 X3.3206  Y3.2018  
G01 Z-0.0070 F10    
G01 X3.3258  Y3.1966  F20    
G01 X3.3302  Y3.1906  
G01 X3.3336  Y3.1840  
G01 X3.3358  Y3.1770  
G01 X3.3370  Y3.1697  
G01 X3.3370  Y3.1103  
G01 X3.3358  Y3.1030  
G01 X3.3336  Y3.0960  
G01 X3.3302  Y3.0894  
G01 X3.3258  Y3.0834  
G01 X3.3206  Y3.0782  
G01 X3.3146  Y3.0738  
G01 X3.3080  Y3.0704  
G01 X3.3010  Y3.0682  
G01 X3.2937  Y3.0670  
G01 X3.2863  Y3.0670  
G01 X3.2790  Y3.0682  
G01 X3.2720  Y3.0704  
G01 X3.2654  Y3.0738  
G01 X3.2594  Y3.0782  
G01 X3.2542  Y3.0834  
G01 X3.2498  Y3.0894  
G01 X3.2464  Y3.0960  
G01 X3.2442  Y3.1030  
G01 X3.2430  Y3.1103  
G01 X3.2430  Y3.1697  
G01 X3.2442  Y3.1770  
G01 X3.2464  Y3.1840  
G01 X3.2498  Y3.1906  
G01 X3.2542  Y3.1966  
G01 X3.2594  Y3.2018  
G01 X3.2654  Y3.2062  
G01 X3.2720  Y3.2096  
G01 X3.2790  Y3.2118  
G01 X3.2863  Y3.2130  
G01 X3.2937  Y3.2130  
G01 X3.3010  Y3.2118  
G01 X3.3080  Y3.2096  
G01 X3.3146  Y3.2062  
G01 X3.3206  Y3.2018  
G00 Z0.1000  
G00 X2.7610  Y3.2147  
G01 Z-0.0070 F10    
G01 X2.7610  Y3.2653  F20    
G01 X2.7253  Y3.3010  
G01 X2.6747  Y3.3010  
G01 X2.6390  Y3.2653  
G01 X2.6390  Y3.2147  
G01 X2.6747  Y3.1790  
G01 X2.7253  Y3.1790  
G01 X2.7610  Y3.2147  
G00 Z0.1000  
G00 X2.7470  Y3.2205  
G01 Z-0.0070 F10    
G01 X2.7195  Y3.1930  F20    
G01 X2.6805  Y3.1930  
G01 X2.6530  Y3.2205  
G01 X2.6530  Y3.2595  
G01 X2.6805  Y3.2870  
G01 X2.7195  Y3.2870  
G01 X2.7470  Y3.2595  
G01 X2.7470  Y3.2205  
G00 Z0.1000  
G00 X2.7253  Y3.1010  
G01 Z-0.0070 F10    
G01 X2.6747  Y3.1010  F20    
G01 X2.6390  Y3.0653  
G01 X2.6390  Y3.0147  
G01 X2.6747  Y2.9790  
G01 X2.7253  Y2.9790  
G01 X2.7610  Y3.0147  
G01 X2.7610  Y3.0653  
G01 X2.7253  Y3.1010  
G00 Z0.1000  
G00 X2.7195  Y3.0870  
G01 Z-0.0070 F10    
G01 X2.7470  Y3.0595  F20    
G01 X2.7470  Y3.0205  
G01 X2.7195  Y2.9930  
G01 X2.6805  Y2.9930  
G01 X2.6530  Y3.0205  
G01 X2.6530  Y3.0595  
G01 X2.6805  Y3.0870  
G01 X2.7195  Y3.0870  
G00 Z0.1000  
G00 X2.7353  Y2.8010  
G01 Z-0.0070 F10    
G01 X2.6847  Y2.8010  F20    
G01 X2.6490  Y2.7653  
G01 X2.6490  Y2.7147  
G01 X2.6847  Y2.6790  
G01 X2.7353  Y2.6790  
G01 X2.7710  Y2.7147  
G01 X2.7710  Y2.7653  
G01 X2.7353  Y2.8010  
G00 Z0.1000  
G00 X2.7295  Y2.7870  
G01 Z-0.0070 F10    
G01 X2.7570  Y2.7595  F20    
G01 X2.7570  Y2.7205  
G01 X2.7295  Y2.6930  
G01 X2.6905  Y2.6930  
G01 X2.6630  Y2.7205  
G01 X2.6630  Y2.7595  
G01 X2.6905  Y2.7870  
G01 X2.7295  Y2.7870  
G00 Z0.1000  
G00 X2.5710  Y2.7653  
G01 Z-0.0070 F10    
G01 X2.5353  Y2.8010  F20    
G01 X2.4847  Y2.8010  
G01 X2.4490  Y2.7653  
G01 X2.4490  Y2.7147  
G01 X2.4847  Y2.6790  
G01 X2.5353  Y2.6790  
G01 X2.5710  Y2.7147  
G01 X2.5710  Y2.7653  
G00 Z0.1000  
G00 X2.5570  Y2.7595  
G01 Z-0.0070 F10    
G01 X2.5570  Y2.7205  F20    
G01 X2.5295  Y2.6930  
G01 X2.4905  Y2.6930  
G01 X2.4630  Y2.7205  
G01 X2.4630  Y2.7595  
G01 X2.4905  Y2.7870  
G01 X2.5295  Y2.7870  
G01 X2.5570  Y2.7595  
G00 Z0.1000  
G00 X2.2117  Y2.8894  
G01 Z-0.0070 F10    
G01 X2.2210  Y2.9119  F20    
G01 X2.2210  Y2.9881  
G01 X2.2117  Y3.0106  
G01 X2.1946  Y3.0277  
G01 X2.1721  Y3.0370  
G01 X2.1479  Y3.0370  
G01 X2.1237  Y3.0270  
G01 X2.1222  Y3.0264  
G01 X2.1185  Y3.0248  
G01 X2.1129  Y3.0237  
G01 X2.1071  Y3.0237  
G01 X2.1015  Y3.0248  
G01 X2.0721  Y3.0370  
G01 X2.0479  Y3.0370  
G01 X2.0237  Y3.0270  
G01 X2.0185  Y3.0248  
G01 X2.0181  Y3.0248  
G01 X2.0129  Y3.0237  
G01 X2.0071  Y3.0237  
G01 X2.0015  Y3.0248  
G01 X1.9721  Y3.0370  
G01 X1.9479  Y3.0370  
G01 X1.9254  Y3.0277  
G01 X1.9083  Y3.0106  
G01 X1.8990  Y2.9881  
G01 X1.8990  Y2.9119  
G01 X1.9083  Y2.8894  
G01 X1.9254  Y2.8723  
G01 X1.9479  Y2.8630  
G01 X1.9721  Y2.8630  
G01 X2.0015  Y2.8752  
G01 X2.0068  Y2.8762  
G01 X2.0071  Y2.8763  
G01 X2.0129  Y2.8763  
G01 X2.0185  Y2.8752  
G01 X2.0186  Y2.8751  
G01 X2.0237  Y2.8730  
G01 X2.0479  Y2.8630  
G01 X2.0721  Y2.8630  
G01 X2.1015  Y2.8752  
G01 X2.1068  Y2.8762  
G01 X2.1071  Y2.8763  
G01 X2.1129  Y2.8763  
G01 X2.1185  Y2.8752  
G01 X2.1186  Y2.8751  
G01 X2.1237  Y2.8730  
G01 X2.1479  Y2.8630  
G01 X2.1721  Y2.8630  
G01 X2.1946  Y2.8723  
G01 X2.2117  Y2.8894  
G00 Z0.1000  
G00 X2.1958  Y2.8934  
G01 Z-0.0070 F10    
G01 X2.1906  Y2.8882  F20    
G01 X2.1846  Y2.8838  
G01 X2.1780  Y2.8804  
G01 X2.1710  Y2.8782  
G01 X2.1637  Y2.8770  
G01 X2.1563  Y2.8770  
G01 X2.1490  Y2.8782  
G01 X2.1420  Y2.8804  
G01 X2.1354  Y2.8838  
G01 X2.1294  Y2.8882  
G01 X2.1242  Y2.8934  
G01 X2.1198  Y2.8994  
G01 X2.1164  Y2.9060  
G01 X2.1142  Y2.9130  
G01 X2.1130  Y2.9203  
G01 X2.1130  Y2.9797  
G01 X2.1142  Y2.9870  
G01 X2.1164  Y2.9940  
G01 X2.1198  Y3.0006  
G01 X2.1242  Y3.0066  
G01 X2.1294  Y3.0118  
G01 X2.1354  Y3.0162  
G01 X2.1420  Y3.0196  
G01 X2.1490  Y3.0218  
G01 X2.1563  Y3.0230  
G01 X2.1637  Y3.0230  
G01 X2.1710  Y3.0218  
G01 X2.1780  Y3.0196  
G01 X2.1846  Y3.0162  
G01 X2.1906  Y3.0118  
G01 X2.1958  Y3.0066  
G01 X2.2002  Y3.0006  
G01 X2.2036  Y2.9940  
G01 X2.2058  Y2.9870  
G01 X2.2070  Y2.9797  
G01 X2.2070  Y2.9203  
G01 X2.2058  Y2.9130  
G01 X2.2036  Y2.9060  
G01 X2.2002  Y2.8994  
G01 X2.1958  Y2.8934  
G00 Z0.1000  
G00 X2.0958  Y2.8934  
G01 Z-0.0070 F10    
G01 X2.0906  Y2.8882  F20    
G01 X2.0846  Y2.8838  
G01 X2.0780  Y2.8804  
G01 X2.0710  Y2.8782  
G01 X2.0637  Y2.8770  
G01 X2.0563  Y2.8770  
G01 X2.0490  Y2.8782  
G01 X2.0420  Y2.8804  
G01 X2.0354  Y2.8838  
G01 X2.0294  Y2.8882  
G01 X2.0242  Y2.8934  
G01 X2.0198  Y2.8994  
G01 X2.0164  Y2.9060  
G01 X2.0142  Y2.9130  
G01 X2.0130  Y2.9203  
G01 X2.0130  Y2.9797  
G01 X2.0142  Y2.9870  
G01 X2.0164  Y2.9940  
G01 X2.0198  Y3.0006  
G01 X2.0242  Y3.0066  
G01 X2.0294  Y3.0118  
G01 X2.0354  Y3.0162  
G01 X2.0420  Y3.0196  
G01 X2.0490  Y3.0218  
G01 X2.0563  Y3.0230  
G01 X2.0637  Y3.0230  
G01 X2.0710  Y3.0218  
G01 X2.0780  Y3.0196  
G01 X2.0846  Y3.0162  
G01 X2.0906  Y3.0118  
G01 X2.0958  Y3.0066  
G01 X2.1002  Y3.0006  
G01 X2.1036  Y2.9940  
G01 X2.1058  Y2.9870  
G01 X2.1070  Y2.9797  
G01 X2.1070  Y2.9203  
G01 X2.1058  Y2.9130  
G01 X2.1036  Y2.9060  
G01 X2.1002  Y2.8994  
G01 X2.0958  Y2.8934  
G00 Z0.1000  
G00 X1.9958  Y2.8934  
G01 Z-0.0070 F10    
G01 X1.9906  Y2.8882  F20    
G01 X1.9846  Y2.8838  
G01 X1.9780  Y2.8804  
G01 X1.9710  Y2.8782  
G01 X1.9637  Y2.8770  
G01 X1.9563  Y2.8770  
G01 X1.9490  Y2.8782  
G01 X1.9420  Y2.8804  
G01 X1.9354  Y2.8838  
G01 X1.9294  Y2.8882  
G01 X1.9242  Y2.8934  
G01 X1.9198  Y2.8994  
G01 X1.9164  Y2.9060  
G01 X1.9142  Y2.9130  
G01 X1.9130  Y2.9203  
G01 X1.9130  Y2.9797  
G01 X1.9142  Y2.9870  
G01 X1.9164  Y2.9940  
G01 X1.9198  Y3.0006  
G01 X1.9242  Y3.0066  
G01 X1.9294  Y3.0118  
G01 X1.9354  Y3.0162  
G01 X1.9420  Y3.0196  
G01 X1.9490  Y3.0218  
G01 X1.9563  Y3.0230  
G01 X1.9637  Y3.0230  
G01 X1.9710  Y3.0218  
G01 X1.9780  Y3.0196  
G01 X1.9846  Y3.0162  
G01 X1.9906  Y3.0118  
G01 X1.9958  Y3.0066  
G01 X2.0002  Y3.0006  
G01 X2.0036  Y2.9940  
G01 X2.0058  Y2.9870  
G01 X2.0070  Y2.9797  
G01 X2.0070  Y2.9203  
G01 X2.0058  Y2.9130  
G01 X2.0036  Y2.9060  
G01 X2.0002  Y2.8994  
G01 X1.9958  Y2.8934  
G00 Z0.1000  
G00 X1.9853  Y2.6510  
G01 Z-0.0070 F10    
G01 X1.9347  Y2.6510  F20    
G01 X1.8990  Y2.6153  
G01 X1.8990  Y2.5647  
G01 X1.9347  Y2.5290  
G01 X1.9853  Y2.5290  
G01 X2.0210  Y2.5647  
G01 X2.0210  Y2.6153  
G01 X1.9853  Y2.6510  
G00 Z0.1000  
G00 X1.9795  Y2.6370  
G01 Z-0.0070 F10    
G01 X2.0070  Y2.6095  F20    
G01 X2.0070  Y2.5705  
G01 X1.9795  Y2.5430  
G01 X1.9405  Y2.5430  
G01 X1.9130  Y2.5705  
G01 X1.9130  Y2.6095  
G01 X1.9405  Y2.6370  
G01 X1.9795  Y2.6370  
G00 Z0.1000  
G00 X1.9853  Y2.4510  
G01 Z-0.0070 F10    
G01 X1.9347  Y2.4510  F20    
G01 X1.8990  Y2.4153  
G01 X1.8990  Y2.3647  
G01 X1.9347  Y2.3290  
G01 X1.9853  Y2.3290  
G01 X2.0210  Y2.3647  
G01 X2.0210  Y2.4153  
G01 X1.9853  Y2.4510  
G00 Z0.1000  
G00 X1.9795  Y2.4370  
G01 Z-0.0070 F10    
G01 X2.0070  Y2.4095  F20    
G01 X2.0070  Y2.3705  
G01 X1.9795  Y2.3430  
G01 X1.9405  Y2.3430  
G01 X1.9130  Y2.3705  
G01 X1.9130  Y2.4095  
G01 X1.9405  Y2.4370  
G01 X1.9795  Y2.4370  
G00 Z0.1000  
G00 X2.0083  Y3.1894  
G01 Z-0.0070 F10    
G01 X2.0254  Y3.1723  F20    
G01 X2.0479  Y3.1630  
G01 X2.0721  Y3.1630  
G01 X2.0963  Y3.1730  
G01 X2.1015  Y3.1752  
G01 X2.1019  Y3.1752  
G01 X2.1071  Y3.1763  
G01 X2.1129  Y3.1763  
G01 X2.1185  Y3.1752  
G01 X2.1479  Y3.1630  
G01 X2.1721  Y3.1630  
G01 X2.1946  Y3.1723  
G01 X2.2117  Y3.1894  
G01 X2.2210  Y3.2119  
G01 X2.2210  Y3.2881  
G01 X2.2117  Y3.3106  
G01 X2.1946  Y3.3277  
G01 X2.1721  Y3.3370  
G01 X2.1479  Y3.3370  
G01 X2.1185  Y3.3248  
G01 X2.1132  Y3.3238  
G01 X2.1129  Y3.3237  
G01 X2.1071  Y3.3237  
G01 X2.1015  Y3.3248  
G01 X2.1014  Y3.3249  
G01 X2.0963  Y3.3270  
G01 X2.0721  Y3.3370  
G01 X2.0479  Y3.3370  
G01 X2.0254  Y3.3277  
G01 X2.0083  Y3.3106  
G01 X2.0024  Y3.2963  
G01 X2.0036  Y3.2940  
G01 X2.0058  Y3.2870  
G01 X2.0070  Y3.2797  
G01 X2.0070  Y3.2203  
G01 X2.0058  Y3.2130  
G01 X2.0036  Y3.2060  
G01 X2.0024  Y3.2037  
G01 X2.0083  Y3.1894  
G00 Z0.1000  
G00 X2.0242  Y3.1934  
G01 Z-0.0070 F10    
G01 X2.0198  Y3.1994  F20    
G01 X2.0164  Y3.2060  
G01 X2.0142  Y3.2130  
G01 X2.0130  Y3.2203  
G01 X2.0130  Y3.2797  
G01 X2.0142  Y3.2870  
G01 X2.0164  Y3.2940  
G01 X2.0198  Y3.3006  
G01 X2.0242  Y3.3066  
G01 X2.0294  Y3.3118  
G01 X2.0354  Y3.3162  
G01 X2.0420  Y3.3196  
G01 X2.0490  Y3.3218  
G01 X2.0563  Y3.3230  
G01 X2.0637  Y3.3230  
G01 X2.0710  Y3.3218  
G01 X2.0780  Y3.3196  
G01 X2.0846  Y3.3162  
G01 X2.0906  Y3.3118  
G01 X2.0958  Y3.3066  
G01 X2.1002  Y3.3006  
G01 X2.1036  Y3.2940  
G01 X2.1058  Y3.2870  
G01 X2.1070  Y3.2797  
G01 X2.1070  Y3.2203  
G01 X2.1058  Y3.2130  
G01 X2.1036  Y3.2060  
G01 X2.1002  Y3.1994  
G01 X2.0958  Y3.1934  
G01 X2.0906  Y3.1882  
G01 X2.0846  Y3.1838  
G01 X2.0780  Y3.1804  
G01 X2.0710  Y3.1782  
G01 X2.0637  Y3.1770  
G01 X2.0563  Y3.1770  
G01 X2.0490  Y3.1782  
G01 X2.0420  Y3.1804  
G01 X2.0354  Y3.1838  
G01 X2.0294  Y3.1882  
G01 X2.0242  Y3.1934  
G00 Z0.1000  
G00 X2.1242  Y3.1934  
G01 Z-0.0070 F10    
G01 X2.1198  Y3.1994  F20    
G01 X2.1164  Y3.2060  
G01 X2.1142  Y3.2130  
G01 X2.1130  Y3.2203  
G01 X2.1130  Y3.2797  
G01 X2.1142  Y3.2870  
G01 X2.1164  Y3.2940  
G01 X2.1198  Y3.3006  
G01 X2.1242  Y3.3066  
G01 X2.1294  Y3.3118  
G01 X2.1354  Y3.3162  
G01 X2.1420  Y3.3196  
G01 X2.1490  Y3.3218  
G01 X2.1563  Y3.3230  
G01 X2.1637  Y3.3230  
G01 X2.1710  Y3.3218  
G01 X2.1780  Y3.3196  
G01 X2.1846  Y3.3162  
G01 X2.1906  Y3.3118  
G01 X2.1958  Y3.3066  
G01 X2.2002  Y3.3006  
G01 X2.2036  Y3.2940  
G01 X2.2058  Y3.2870  
G01 X2.2070  Y3.2797  
G01 X2.2070  Y3.2203  
G01 X2.2058  Y3.2130  
G01 X2.2036  Y3.2060  
G01 X2.2002  Y3.1994  
G01 X2.1958  Y3.1934  
G01 X2.1906  Y3.1882  
G01 X2.1846  Y3.1838  
G01 X2.1780  Y3.1804  
G01 X2.1710  Y3.1782  
G01 X2.1637  Y3.1770  
G01 X2.1563  Y3.1770  
G01 X2.1490  Y3.1782  
G01 X2.1420  Y3.1804  
G01 X2.1354  Y3.1838  
G01 X2.1294  Y3.1882  
G01 X2.1242  Y3.1934  
G00 Z0.1000  
G00 X1.8702  Y3.5675  
G01 Z-0.0070 F10    
G01 X1.8814  Y3.5869  F20    
G01 X1.8872  Y3.6086  
G01 X1.8872  Y3.6114  
G01 X1.8868  Y3.6151  
G01 X1.8868  Y3.7249  
G01 X1.8872  Y3.7286  
G01 X1.8872  Y3.7314  
G01 X1.8814  Y3.7531  
G01 X1.8702  Y3.7725  
G01 X1.8544  Y3.7884  
G01 X1.8349  Y3.7996  
G01 X1.8133  Y3.8054  
G01 X1.7908  Y3.8054  
G01 X1.7692  Y3.7996  
G01 X1.7497  Y3.7884  
G01 X1.7339  Y3.7725  
G01 X1.7227  Y3.7531  
G01 X1.7169  Y3.7314  
G01 X1.7169  Y3.6086  
G01 X1.7227  Y3.5869  
G01 X1.7339  Y3.5675  
G01 X1.7497  Y3.5516  
G01 X1.7692  Y3.5404  
G01 X1.7908  Y3.5346  
G01 X1.8133  Y3.5346  
G01 X1.8349  Y3.5404  
G01 X1.8544  Y3.5516  
G01 X1.8702  Y3.5675  
G00 Z0.1000  
G00 X1.8557  Y3.5728  
G01 Z-0.0070 F10    
G01 X1.8491  Y3.5662  F20    
G01 X1.8417  Y3.5605  
G01 X1.8336  Y3.5558  
G01 X1.8250  Y3.5522  
G01 X1.8160  Y3.5498  
G01 X1.8067  Y3.5486  
G01 X1.7974  Y3.5486  
G01 X1.7881  Y3.5498  
G01 X1.7791  Y3.5522  
G01 X1.7705  Y3.5558  
G01 X1.7624  Y3.5605  
G01 X1.7550  Y3.5662  
G01 X1.7484  Y3.5728  
G01 X1.7427  Y3.5802  
G01 X1.7381  Y3.5882  
G01 X1.7345  Y3.5969  
G01 X1.7321  Y3.6059  
G01 X1.7309  Y3.6151  
G01 X1.7309  Y3.7249  
G01 X1.7321  Y3.7341  
G01 X1.7345  Y3.7431  
G01 X1.7381  Y3.7518  
G01 X1.7427  Y3.7598  
G01 X1.7484  Y3.7672  
G01 X1.7550  Y3.7738  
G01 X1.7624  Y3.7795  
G01 X1.7705  Y3.7842  
G01 X1.7791  Y3.7878  
G01 X1.7881  Y3.7902  
G01 X1.7974  Y3.7914  
G01 X1.8067  Y3.7914  
G01 X1.8160  Y3.7902  
G01 X1.8250  Y3.7878  
G01 X1.8336  Y3.7842  
G01 X1.8417  Y3.7795  
G01 X1.8491  Y3.7738  
G01 X1.8557  Y3.7672  
G01 X1.8614  Y3.7598  
G01 X1.8660  Y3.7518  
G01 X1.8696  Y3.7431  
G01 X1.8720  Y3.7341  
G01 X1.8732  Y3.7249  
G01 X1.8732  Y3.6151  
G01 X1.8720  Y3.6059  
G01 X1.8696  Y3.5969  
G01 X1.8660  Y3.5882  
G01 X1.8614  Y3.5802  
G01 X1.8557  Y3.5728  
G00 Z0.1000  
G00 X1.2977  Y3.6354  
G01 Z-0.0070 F10    
G01 X1.3070  Y3.6579  F20    
G01 X1.3070  Y3.6821  
G01 X1.2977  Y3.7046  
G01 X1.2806  Y3.7217  
G01 X1.2581  Y3.7310  
G01 X1.1819  Y3.7310  
G01 X1.1594  Y3.7217  
G01 X1.1423  Y3.7046  
G01 X1.1330  Y3.6821  
G01 X1.1330  Y3.6579  
G01 X1.1423  Y3.6354  
G01 X1.1594  Y3.6183  
G01 X1.1819  Y3.6090  
G01 X1.2581  Y3.6090  
G01 X1.2806  Y3.6183  
G01 X1.2977  Y3.6354  
G00 Z0.1000  
G00 X1.2818  Y3.6394  
G01 Z-0.0070 F10    
G01 X1.2766  Y3.6342  F20    
G01 X1.2706  Y3.6298  
G01 X1.2640  Y3.6264  
G01 X1.2570  Y3.6242  
G01 X1.2497  Y3.6230  
G01 X1.1903  Y3.6230  
G01 X1.1830  Y3.6242  
G01 X1.1760  Y3.6264  
G01 X1.1694  Y3.6298  
G01 X1.1634  Y3.6342  
G01 X1.1582  Y3.6394  
G01 X1.1538  Y3.6454  
G01 X1.1504  Y3.6520  
G01 X1.1482  Y3.6590  
G01 X1.1470  Y3.6663  
G01 X1.1470  Y3.6737  
G01 X1.1482  Y3.6810  
G01 X1.1504  Y3.6880  
G01 X1.1538  Y3.6946  
G01 X1.1582  Y3.7006  
G01 X1.1634  Y3.7058  
G01 X1.1694  Y3.7102  
G01 X1.1760  Y3.7136  
G01 X1.1830  Y3.7158  
G01 X1.1903  Y3.7170  
G01 X1.2497  Y3.7170  
G01 X1.2570  Y3.7158  
G01 X1.2640  Y3.7136  
G01 X1.2706  Y3.7102  
G01 X1.2766  Y3.7058  
G01 X1.2818  Y3.7006  
G01 X1.2862  Y3.6946  
G01 X1.2896  Y3.6880  
G01 X1.2918  Y3.6810  
G01 X1.2930  Y3.6737  
G01 X1.2930  Y3.6663  
G01 X1.2918  Y3.6590  
G01 X1.2896  Y3.6520  
G01 X1.2862  Y3.6454  
G01 X1.2818  Y3.6394  
G00 Z0.1000  
G00 X1.2099  Y3.3497  
G01 Z-0.0070 F10    
G01 X1.1840  Y3.3604  F20    
G01 X1.1560  Y3.3604  
G01 X1.1301  Y3.3497  
G01 X1.1103  Y3.3299  
G01 X1.0996  Y3.3040  
G01 X1.0996  Y3.2760  
G01 X1.1103  Y3.2501  
G01 X1.1301  Y3.2303  
G01 X1.1560  Y3.2196  
G01 X1.1840  Y3.2196  
G01 X1.2099  Y3.2303  
G01 X1.2297  Y3.2501  
G01 X1.2404  Y3.2760  
G01 X1.2404  Y3.3040  
G01 X1.2297  Y3.3299  
G01 X1.2099  Y3.3497  
G00 Z0.1000  
G00 X1.2068  Y3.3330  
G01 Z-0.0070 F10    
G01 X1.2130  Y3.3268  F20    
G01 X1.2183  Y3.3196  
G01 X1.2223  Y3.3117  
G01 X1.2250  Y3.3032  
G01 X1.2264  Y3.2944  
G01 X1.2264  Y3.2856  
G01 X1.2250  Y3.2768  
G01 X1.2223  Y3.2683  
G01 X1.2183  Y3.2604  
G01 X1.2130  Y3.2532  
G01 X1.2068  Y3.2470  
G01 X1.1996  Y3.2417  
G01 X1.1917  Y3.2377  
G01 X1.1832  Y3.2350  
G01 X1.1744  Y3.2336  
G01 X1.1656  Y3.2336  
G01 X1.1568  Y3.2350  
G01 X1.1483  Y3.2377  
G01 X1.1404  Y3.2417  
G01 X1.1332  Y3.2470  
G01 X1.1270  Y3.2532  
G01 X1.1217  Y3.2604  
G01 X1.1177  Y3.2683  
G01 X1.1150  Y3.2768  
G01 X1.1136  Y3.2856  
G01 X1.1136  Y3.2944  
G01 X1.1150  Y3.3032  
G01 X1.1177  Y3.3117  
G01 X1.1217  Y3.3196  
G01 X1.1270  Y3.3268  
G01 X1.1332  Y3.3330  
G01 X1.1404  Y3.3383  
G01 X1.1483  Y3.3423  
G01 X1.1568  Y3.3450  
G01 X1.1656  Y3.3464  
G01 X1.1744  Y3.3464  
G01 X1.1832  Y3.3450  
G01 X1.1917  Y3.3423  
G01 X1.1996  Y3.3383  
G01 X1.2068  Y3.3330  
G00 Z0.1000  
G00 X0.9297  Y3.3299  
G01 Z-0.0070 F10    
G01 X0.9099  Y3.3497  F20    
G01 X0.8840  Y3.3604  
G01 X0.8560  Y3.3604  
G01 X0.8301  Y3.3497  
G01 X0.8103  Y3.3299  
G01 X0.7996  Y3.3040  
G01 X0.7996  Y3.2760  
G01 X0.8103  Y3.2501  
G01 X0.8301  Y3.2303  
G01 X0.8560  Y3.2196  
G01 X0.8840  Y3.2196  
G01 X0.9099  Y3.2303  
G01 X0.9297  Y3.2501  
G01 X0.9404  Y3.2760  
G01 X0.9404  Y3.3040  
G01 X0.9297  Y3.3299  
G00 Z0.1000  
G00 X0.9130  Y3.3268  
G01 Z-0.0070 F10    
G01 X0.9183  Y3.3196  F20    
G01 X0.9223  Y3.3117  
G01 X0.9250  Y3.3032  
G01 X0.9264  Y3.2944  
G01 X0.9264  Y3.2856  
G01 X0.9250  Y3.2768  
G01 X0.9223  Y3.2683  
G01 X0.9183  Y3.2604  
G01 X0.9130  Y3.2532  
G01 X0.9068  Y3.2470  
G01 X0.8996  Y3.2417  
G01 X0.8917  Y3.2377  
G01 X0.8832  Y3.2350  
G01 X0.8744  Y3.2336  
G01 X0.8656  Y3.2336  
G01 X0.8568  Y3.2350  
G01 X0.8483  Y3.2377  
G01 X0.8404  Y3.2417  
G01 X0.8332  Y3.2470  
G01 X0.8270  Y3.2532  
G01 X0.8217  Y3.2604  
G01 X0.8177  Y3.2683  
G01 X0.8150  Y3.2768  
G01 X0.8136  Y3.2856  
G01 X0.8136  Y3.2944  
G01 X0.8150  Y3.3032  
G01 X0.8177  Y3.3117  
G01 X0.8217  Y3.3196  
G01 X0.8270  Y3.3268  
G01 X0.8332  Y3.3330  
G01 X0.8404  Y3.3383  
G01 X0.8483  Y3.3423  
G01 X0.8568  Y3.3450  
G01 X0.8656  Y3.3464  
G01 X0.8744  Y3.3464  
G01 X0.8832  Y3.3450  
G01 X0.8917  Y3.3423  
G01 X0.8996  Y3.3383  
G01 X0.9068  Y3.3330  
G01 X0.9130  Y3.3268  
G00 Z0.1000  
G00 X0.9099  Y3.0497  
G01 Z-0.0070 F10    
G01 X0.8840  Y3.0604  F20    
G01 X0.8560  Y3.0604  
G01 X0.8301  Y3.0497  
G01 X0.8103  Y3.0299  
G01 X0.7996  Y3.0040  
G01 X0.7996  Y2.9760  
G01 X0.8103  Y2.9501  
G01 X0.8301  Y2.9303  
G01 X0.8560  Y2.9196  
G01 X0.8840  Y2.9196  
G01 X0.9099  Y2.9303  
G01 X0.9297  Y2.9501  
G01 X0.9404  Y2.9760  
G01 X0.9404  Y3.0040  
G01 X0.9297  Y3.0299  
G01 X0.9099  Y3.0497  
G00 Z0.1000  
G00 X0.9068  Y3.0330  
G01 Z-0.0070 F10    
G01 X0.9130  Y3.0268  F20    
G01 X0.9183  Y3.0196  
G01 X0.9223  Y3.0117  
G01 X0.9250  Y3.0032  
G01 X0.9264  Y2.9944  
G01 X0.9264  Y2.9856  
G01 X0.9250  Y2.9768  
G01 X0.9223  Y2.9683  
G01 X0.9183  Y2.9604  
G01 X0.9130  Y2.9532  
G01 X0.9068  Y2.9470  
G01 X0.8996  Y2.9417  
G01 X0.8917  Y2.9377  
G01 X0.8832  Y2.9350  
G01 X0.8744  Y2.9336  
G01 X0.8656  Y2.9336  
G01 X0.8568  Y2.9350  
G01 X0.8483  Y2.9377  
G01 X0.8404  Y2.9417  
G01 X0.8332  Y2.9470  
G01 X0.8270  Y2.9532  
G01 X0.8217  Y2.9604  
G01 X0.8177  Y2.9683  
G01 X0.8150  Y2.9768  
G01 X0.8136  Y2.9856  
G01 X0.8136  Y2.9944  
G01 X0.8150  Y3.0032  
G01 X0.8177  Y3.0117  
G01 X0.8217  Y3.0196  
G01 X0.8270  Y3.0268  
G01 X0.8332  Y3.0330  
G01 X0.8404  Y3.0383  
G01 X0.8483  Y3.0423  
G01 X0.8568  Y3.0450  
G01 X0.8656  Y3.0464  
G01 X0.8744  Y3.0464  
G01 X0.8832  Y3.0450  
G01 X0.8917  Y3.0423  
G01 X0.8996  Y3.0383  
G01 X0.9068  Y3.0330  
G00 Z0.1000  
G00 X1.1103  Y3.0299  
G01 Z-0.0070 F10    
G01 X1.0996  Y3.0040  F20    
G01 X1.0996  Y2.9760  
G01 X1.1103  Y2.9501  
G01 X1.1301  Y2.9303  
G01 X1.1560  Y2.9196  
G01 X1.1840  Y2.9196  
G01 X1.2099  Y2.9303  
G01 X1.2297  Y2.9501  
G01 X1.2404  Y2.9760  
G01 X1.2404  Y3.0040  
G01 X1.2297  Y3.0299  
G01 X1.2099  Y3.0497  
G01 X1.1840  Y3.0604  
G01 X1.1560  Y3.0604  
G01 X1.1301  Y3.0497  
G01 X1.1103  Y3.0299  
G00 Z0.1000  
G00 X1.1270  Y3.0268  
G01 Z-0.0070 F10    
G01 X1.1332  Y3.0330  F20    
G01 X1.1404  Y3.0383  
G01 X1.1483  Y3.0423  
G01 X1.1568  Y3.0450  
G01 X1.1656  Y3.0464  
G01 X1.1744  Y3.0464  
G01 X1.1832  Y3.0450  
G01 X1.1917  Y3.0423  
G01 X1.1996  Y3.0383  
G01 X1.2068  Y3.0330  
G01 X1.2130  Y3.0268  
G01 X1.2183  Y3.0196  
G01 X1.2223  Y3.0117  
G01 X1.2250  Y3.0032  
G01 X1.2264  Y2.9944  
G01 X1.2264  Y2.9856  
G01 X1.2250  Y2.9768  
G01 X1.2223  Y2.9683  
G01 X1.2183  Y2.9604  
G01 X1.2130  Y2.9532  
G01 X1.2068  Y2.9470  
G01 X1.1996  Y2.9417  
G01 X1.1917  Y2.9377  
G01 X1.1832  Y2.9350  
G01 X1.1744  Y2.9336  
G01 X1.1656  Y2.9336  
G01 X1.1568  Y2.9350  
G01 X1.1483  Y2.9377  
G01 X1.1404  Y2.9417  
G01 X1.1332  Y2.9470  
G01 X1.1270  Y2.9532  
G01 X1.1217  Y2.9604  
G01 X1.1177  Y2.9683  
G01 X1.1150  Y2.9768  
G01 X1.1136  Y2.9856  
G01 X1.1136  Y2.9944  
G01 X1.1150  Y3.0032  
G01 X1.1177  Y3.0117  
G01 X1.1217  Y3.0196  
G01 X1.1270  Y3.0268  
G00 Z0.1000  
G00 X1.1301  Y2.6497  
G01 Z-0.0070 F10    
G01 X1.1103  Y2.6299  F20    
G01 X1.0996  Y2.6040  
G01 X1.0996  Y2.5760  
G01 X1.1103  Y2.5501  
G01 X1.1301  Y2.5303  
G01 X1.1560  Y2.5196  
G01 X1.1840  Y2.5196  
G01 X1.2099  Y2.5303  
G01 X1.2297  Y2.5501  
G01 X1.2404  Y2.5760  
G01 X1.2404  Y2.6040  
G01 X1.2297  Y2.6299  
G01 X1.2099  Y2.6497  
G01 X1.1840  Y2.6604  
G01 X1.1560  Y2.6604  
G01 X1.1301  Y2.6497  
G00 Z0.1000  
G00 X1.1332  Y2.6330  
G01 Z-0.0070 F10    
G01 X1.1404  Y2.6383  F20    
G01 X1.1483  Y2.6423  
G01 X1.1568  Y2.6450  
G01 X1.1656  Y2.6464  
G01 X1.1744  Y2.6464  
G01 X1.1832  Y2.6450  
G01 X1.1917  Y2.6423  
G01 X1.1996  Y2.6383  
G01 X1.2068  Y2.6330  
G01 X1.2130  Y2.6268  
G01 X1.2183  Y2.6196  
G01 X1.2223  Y2.6117  
G01 X1.2250  Y2.6032  
G01 X1.2264  Y2.5944  
G01 X1.2264  Y2.5856  
G01 X1.2250  Y2.5768  
G01 X1.2223  Y2.5683  
G01 X1.2183  Y2.5604  
G01 X1.2130  Y2.5532  
G01 X1.2068  Y2.5470  
G01 X1.1996  Y2.5417  
G01 X1.1917  Y2.5377  
G01 X1.1832  Y2.5350  
G01 X1.1744  Y2.5336  
G01 X1.1656  Y2.5336  
G01 X1.1568  Y2.5350  
G01 X1.1483  Y2.5377  
G01 X1.1404  Y2.5417  
G01 X1.1332  Y2.5470  
G01 X1.1270  Y2.5532  
G01 X1.1217  Y2.5604  
G01 X1.1177  Y2.5683  
G01 X1.1150  Y2.5768  
G01 X1.1136  Y2.5856  
G01 X1.1136  Y2.5944  
G01 X1.1150  Y2.6032  
G01 X1.1177  Y2.6117  
G01 X1.1217  Y2.6196  
G01 X1.1270  Y2.6268  
G01 X1.1332  Y2.6330  
G00 Z0.1000  
G00 X0.9297  Y2.6299  
G01 Z-0.0070 F10    
G01 X0.9099  Y2.6497  F20    
G01 X0.8840  Y2.6604  
G01 X0.8560  Y2.6604  
G01 X0.8301  Y2.6497  
G01 X0.8103  Y2.6299  
G01 X0.7996  Y2.6040  
G01 X0.7996  Y2.5760  
G01 X0.8103  Y2.5501  
G01 X0.8301  Y2.5303  
G01 X0.8560  Y2.5196  
G01 X0.8840  Y2.5196  
G01 X0.9099  Y2.5303  
G01 X0.9297  Y2.5501  
G01 X0.9404  Y2.5760  
G01 X0.9404  Y2.6040  
G01 X0.9297  Y2.6299  
G00 Z0.1000  
G00 X0.9130  Y2.6268  
G01 Z-0.0070 F10    
G01 X0.9183  Y2.6196  F20    
G01 X0.9223  Y2.6117  
G01 X0.9250  Y2.6032  
G01 X0.9264  Y2.5944  
G01 X0.9264  Y2.5856  
G01 X0.9250  Y2.5768  
G01 X0.9223  Y2.5683  
G01 X0.9183  Y2.5604  
G01 X0.9130  Y2.5532  
G01 X0.9068  Y2.5470  
G01 X0.8996  Y2.5417  
G01 X0.8917  Y2.5377  
G01 X0.8832  Y2.5350  
G01 X0.8744  Y2.5336  
G01 X0.8656  Y2.5336  
G01 X0.8568  Y2.5350  
G01 X0.8483  Y2.5377  
G01 X0.8404  Y2.5417  
G01 X0.8332  Y2.5470  
G01 X0.8270  Y2.5532  
G01 X0.8217  Y2.5604  
G01 X0.8177  Y2.5683  
G01 X0.8150  Y2.5768  
G01 X0.8136  Y2.5856  
G01 X0.8136  Y2.5944  
G01 X0.8150  Y2.6032  
G01 X0.8177  Y2.6117  
G01 X0.8217  Y2.6196  
G01 X0.8270  Y2.6268  
G01 X0.8332  Y2.6330  
G01 X0.8404  Y2.6383  
G01 X0.8483  Y2.6423  
G01 X0.8568  Y2.6450  
G01 X0.8656  Y2.6464  
G01 X0.8744  Y2.6464  
G01 X0.8832  Y2.6450  
G01 X0.8917  Y2.6423  
G01 X0.8996  Y2.6383  
G01 X0.9068  Y2.6330  
G01 X0.9130  Y2.6268  
G00 Z0.1000  
G00 X0.8977  Y3.6354  
G01 Z-0.0070 F10    
G01 X0.9070  Y3.6579  F20    
G01 X0.9070  Y3.6821  
G01 X0.8977  Y3.7046  
G01 X0.8806  Y3.7217  
G01 X0.8581  Y3.7310  
G01 X0.7819  Y3.7310  
G01 X0.7594  Y3.7217  
G01 X0.7423  Y3.7046  
G01 X0.7330  Y3.6821  
G01 X0.7330  Y3.6579  
G01 X0.7423  Y3.6354  
G01 X0.7594  Y3.6183  
G01 X0.7819  Y3.6090  
G01 X0.8581  Y3.6090  
G01 X0.8806  Y3.6183  
G01 X0.8977  Y3.6354  
G00 Z0.1000  
G00 X0.8818  Y3.6394  
G01 Z-0.0070 F10    
G01 X0.8766  Y3.6342  F20    
G01 X0.8706  Y3.6298  
G01 X0.8640  Y3.6264  
G01 X0.8570  Y3.6242  
G01 X0.8497  Y3.6230  
G01 X0.7903  Y3.6230  
G01 X0.7830  Y3.6242  
G01 X0.7760  Y3.6264  
G01 X0.7694  Y3.6298  
G01 X0.7634  Y3.6342  
G01 X0.7582  Y3.6394  
G01 X0.7538  Y3.6454  
G01 X0.7504  Y3.6520  
G01 X0.7482  Y3.6590  
G01 X0.7470  Y3.6663  
G01 X0.7470  Y3.6737  
G01 X0.7482  Y3.6810  
G01 X0.7504  Y3.6880  
G01 X0.7538  Y3.6946  
G01 X0.7582  Y3.7006  
G01 X0.7634  Y3.7058  
G01 X0.7694  Y3.7102  
G01 X0.7760  Y3.7136  
G01 X0.7830  Y3.7158  
G01 X0.7903  Y3.7170  
G01 X0.8497  Y3.7170  
G01 X0.8570  Y3.7158  
G01 X0.8640  Y3.7136  
G01 X0.8706  Y3.7102  
G01 X0.8766  Y3.7058  
G01 X0.8818  Y3.7006  
G01 X0.8862  Y3.6946  
G01 X0.8896  Y3.6880  
G01 X0.8918  Y3.6810  
G01 X0.8930  Y3.6737  
G01 X0.8930  Y3.6663  
G01 X0.8918  Y3.6590  
G01 X0.8896  Y3.6520  
G01 X0.8862  Y3.6454  
G01 X0.8818  Y3.6394  
G00 Z0.1000  
G00 X0.4531  Y3.6086  
G01 Z-0.0070 F10    
G01 X0.4531  Y3.7314  F20    
G01 X0.4473  Y3.7531  
G01 X0.4361  Y3.7725  
G01 X0.4203  Y3.7884  
G01 X0.4008  Y3.7996  
G01 X0.3792  Y3.8054  
G01 X0.3567  Y3.8054  
G01 X0.3351  Y3.7996  
G01 X0.3156  Y3.7884  
G01 X0.2998  Y3.7725  
G01 X0.2886  Y3.7531  
G01 X0.2828  Y3.7314  
G01 X0.2828  Y3.7286  
G01 X0.2832  Y3.7249  
G01 X0.2832  Y3.6151  
G01 X0.2828  Y3.6114  
G01 X0.2828  Y3.6086  
G01 X0.2886  Y3.5869  
G01 X0.2998  Y3.5675  
G01 X0.3156  Y3.5516  
G01 X0.3351  Y3.5404  
G01 X0.3567  Y3.5346  
G01 X0.3792  Y3.5346  
G01 X0.4008  Y3.5404  
G01 X0.4203  Y3.5516  
G01 X0.4361  Y3.5675  
G01 X0.4473  Y3.5869  
G01 X0.4531  Y3.6086  
G00 Z0.1000  
G00 X0.4379  Y3.6059  
G01 Z-0.0070 F10    
G01 X0.4355  Y3.5969  F20    
G01 X0.4319  Y3.5882  
G01 X0.4273  Y3.5802  
G01 X0.4216  Y3.5728  
G01 X0.4150  Y3.5662  
G01 X0.4076  Y3.5605  
G01 X0.3995  Y3.5558  
G01 X0.3909  Y3.5522  
G01 X0.3819  Y3.5498  
G01 X0.3726  Y3.5486  
G01 X0.3633  Y3.5486  
G01 X0.3540  Y3.5498  
G01 X0.3450  Y3.5522  
G01 X0.3364  Y3.5558  
G01 X0.3283  Y3.5605  
G01 X0.3209  Y3.5662  
G01 X0.3143  Y3.5728  
G01 X0.3086  Y3.5802  
G01 X0.3040  Y3.5882  
G01 X0.3004  Y3.5969  
G01 X0.2980  Y3.6059  
G01 X0.2968  Y3.6151  
G01 X0.2968  Y3.7249  
G01 X0.2980  Y3.7341  
G01 X0.3004  Y3.7431  
G01 X0.3040  Y3.7518  
G01 X0.3086  Y3.7598  
G01 X0.3143  Y3.7672  
G01 X0.3209  Y3.7738  
G01 X0.3283  Y3.7795  
G01 X0.3364  Y3.7842  
G01 X0.3450  Y3.7878  
G01 X0.3540  Y3.7902  
G01 X0.3633  Y3.7914  
G01 X0.3726  Y3.7914  
G01 X0.3819  Y3.7902  
G01 X0.3909  Y3.7878  
G01 X0.3995  Y3.7842  
G01 X0.4076  Y3.7795  
G01 X0.4150  Y3.7738  
G01 X0.4216  Y3.7672  
G01 X0.4273  Y3.7598  
G01 X0.4319  Y3.7518  
G01 X0.4355  Y3.7431  
G01 X0.4379  Y3.7341  
G01 X0.4391  Y3.7249  
G01 X0.4391  Y3.6151  
G01 X0.4379  Y3.6059  
G00 Z0.1000  
G00 X3.8721  Y4.1153  
G01 Z-0.0070 F10    
G01 X3.8936  Y4.1029  F20    
G01 X3.9176  Y4.0965  
G01 X3.9424  Y4.0965  
G01 X3.9664  Y4.1029  
G01 X3.9879  Y4.1153  
G01 X4.0054  Y4.1329  
G01 X4.0178  Y4.1544  
G01 X4.0242  Y4.1783  
G01 X4.0242  Y4.3217  
G01 X4.0178  Y4.3456  
G01 X4.0054  Y4.3671  
G01 X3.9879  Y4.3847  
G01 X3.9664  Y4.3971  
G01 X3.9424  Y4.4035  
G01 X3.9176  Y4.4035  
G01 X3.8936  Y4.3971  
G01 X3.8721  Y4.3847  
G01 X3.8546  Y4.3671  
G01 X3.8422  Y4.3456  
G01 X3.8357  Y4.3217  
G01 X3.8357  Y4.1783  
G01 X3.8422  Y4.1544  
G01 X3.8546  Y4.1329  
G01 X3.8721  Y4.1153  
G00 Z0.1000  
G00 X3.8770  Y4.1303  
G01 Z-0.0070 F10    
G01 X3.8695  Y4.1377  F20    
G01 X3.8631  Y4.1461  
G01 X3.8579  Y4.1552  
G01 X3.8538  Y4.1649  
G01 X3.8511  Y4.1751  
G01 X3.8497  Y4.1855  
G01 X3.8497  Y4.3145  
G01 X3.8511  Y4.3249  
G01 X3.8538  Y4.3351  
G01 X3.8579  Y4.3448  
G01 X3.8631  Y4.3539  
G01 X3.8695  Y4.3623  
G01 X3.8770  Y4.3697  
G01 X3.8853  Y4.3761  
G01 X3.8944  Y4.3814  
G01 X3.9041  Y4.3854  
G01 X3.9143  Y4.3881  
G01 X3.9247  Y4.3895  
G01 X3.9353  Y4.3895  
G01 X3.9457  Y4.3881  
G01 X3.9559  Y4.3854  
G01 X3.9656  Y4.3814  
G01 X3.9747  Y4.3761  
G01 X3.9830  Y4.3697  
G01 X3.9905  Y4.3623  
G01 X3.9969  Y4.3539  
G01 X4.0021  Y4.3448  
G01 X4.0062  Y4.3351  
G01 X4.0089  Y4.3249  
G01 X4.0102  Y4.3145  
G01 X4.0102  Y4.1855  
G01 X4.0089  Y4.1751  
G01 X4.0062  Y4.1649  
G01 X4.0021  Y4.1552  
G01 X3.9969  Y4.1461  
G01 X3.9905  Y4.1377  
G01 X3.9830  Y4.1303  
G01 X3.9747  Y4.1239  
G01 X3.9656  Y4.1186  
G01 X3.9559  Y4.1146  
G01 X3.9457  Y4.1119  
G01 X3.9353  Y4.1105  
G01 X3.9247  Y4.1105  
G01 X3.9143  Y4.1119  
G01 X3.9041  Y4.1146  
G01 X3.8944  Y4.1186  
G01 X3.8853  Y4.1239  
G01 X3.8770  Y4.1303  
G00 Z0.1000  
G00 X4.1915  Y4.1924  
G01 Z-0.0070 F10    
G01 X4.2165  Y4.1820  F20    
G01 X4.2435  Y4.1820  
G01 X4.2685  Y4.1924  
G01 X4.2876  Y4.2115  
G01 X4.2980  Y4.2365  
G01 X4.2980  Y4.2635  
G01 X4.2876  Y4.2885  
G01 X4.2685  Y4.3076  
G01 X4.2435  Y4.3180  
G01 X4.2165  Y4.3180  
G01 X4.1915  Y4.3076  
G01 X4.1724  Y4.2885  
G01 X4.1620  Y4.2635  
G01 X4.1620  Y4.2365  
G01 X4.1724  Y4.2115  
G01 X4.1915  Y4.1924  
G00 Z0.1000  
G00 X4.1948  Y4.2088  
G01 Z-0.0070 F10    
G01 X4.1888  Y4.2148  F20    
G01 X4.1838  Y4.2217  
G01 X4.1800  Y4.2293  
G01 X4.1773  Y4.2374  
G01 X4.1760  Y4.2458  
G01 X4.1760  Y4.2542  
G01 X4.1773  Y4.2626  
G01 X4.1800  Y4.2707  
G01 X4.1838  Y4.2783  
G01 X4.1888  Y4.2852  
G01 X4.1948  Y4.2912  
G01 X4.2017  Y4.2962  
G01 X4.2093  Y4.3000  
G01 X4.2174  Y4.3027  
G01 X4.2257  Y4.3040  
G01 X4.2342  Y4.3040  
G01 X4.2426  Y4.3027  
G01 X4.2507  Y4.3000  
G01 X4.2583  Y4.2962  
G01 X4.2652  Y4.2912  
G01 X4.2712  Y4.2852  
G01 X4.2762  Y4.2783  
G01 X4.2800  Y4.2707  
G01 X4.2827  Y4.2626  
G01 X4.2840  Y4.2542  
G01 X4.2840  Y4.2458  
G01 X4.2827  Y4.2374  
G01 X4.2800  Y4.2293  
G01 X4.2762  Y4.2217  
G01 X4.2712  Y4.2148  
G01 X4.2652  Y4.2088  
G01 X4.2583  Y4.2038  
G01 X4.2507  Y4.2000  
G01 X4.2426  Y4.1973  
G01 X4.2342  Y4.1960  
G01 X4.2257  Y4.1960  
G01 X4.2174  Y4.1973  
G01 X4.2093  Y4.2000  
G01 X4.2017  Y4.2038  
G01 X4.1948  Y4.2088  
G00 Z0.1000  
G00 X4.5724  Y4.2115  
G01 Z-0.0070 F10    
G01 X4.5915  Y4.1924  F20    
G01 X4.6165  Y4.1820  
G01 X4.6435  Y4.1820  
G01 X4.6685  Y4.1924  
G01 X4.6876  Y4.2115  
G01 X4.6980  Y4.2365  
G01 X4.6980  Y4.2635  
G01 X4.6876  Y4.2885  
G01 X4.6685  Y4.3076  
G01 X4.6435  Y4.3180  
G01 X4.6165  Y4.3180  
G01 X4.5915  Y4.3076  
G01 X4.5724  Y4.2885  
G01 X4.5620  Y4.2635  
G01 X4.5620  Y4.2365  
G01 X4.5724  Y4.2115  
G00 Z0.1000  
G00 X4.5888  Y4.2148  
G01 Z-0.0070 F10    
G01 X4.5838  Y4.2217  F20    
G01 X4.5800  Y4.2293  
G01 X4.5773  Y4.2374  
G01 X4.5760  Y4.2458  
G01 X4.5760  Y4.2542  
G01 X4.5773  Y4.2626  
